looks/fujifilm_velvia.cube
TITLE "Fujifilm velvia pooled norm (16 pairs)"
LUT_3D_SIZE 9
0.0104089 0.0087607 0.0082540
0.0976079 0.0129378 0.0113366
0.2103062 0.0140949 0.0107502
0.4800653 0.0216109 0.0155607
0.6067989 0.0271676 0.0195332
0.7039432 0.0313059 0.0205137
0.7926976 0.0302973 0.0324363
0.8747599 0.0126599 0.0132583
0.9914908 0.0085607 0.0085787
0.0136378 0.0693654 0.0056775
0.0899003 0.0930901 0.0099102
0.2932483 0.0938421 0.0082923
0.4899124 0.1022163 0.0077329
0.5902808 0.1061233 0.0134642
0.6699338 0.0984453 0.0288413
0.7880290 0.1055556 0.0366476
0.8770158 0.1239075 0.0253803
0.9906477 0.1252138 0.0099845
0.0296108 0.2419583 0.0098526
0.0905234 0.2471147 0.0101347
0.2548570 0.2454112 0.0097791
0.4982111 0.2385518 0.0081386
0.6814687 0.2380677 0.0057994
0.7414960 0.2743820 0.0037876
0.7857716 0.2826026 0.0071504
0.8771139 0.2498091 0.0135716
0.9912679 0.2495607 0.0103944
0.0104177 0.3715423 0.0083426
0.1255798 0.3623726 0.0096152
0.1991667 0.4171856 0.0151959
0.4377201 0.3901807 0.0137672
0.5828522 0.3858960 0.0155668
0.7696029 0.3751860 0.0109550
0.8710575 0.4032183 0.0045312
0.8907982 0.3903164 0.0071934
0.9915252 0.3753182 0.0083241
0.0084121 0.4999591 0.0082917
0.1298358 0.4986302 0.0089153
0.2373000 0.5051818 0.0171012
0.3498363 0.5537609 0.0232188
0.5189018 0.5313656 0.0179845
0.6937581 0.4852682 0.0173946
0.8184590 0.4846844 0.0118591
0.8913258 0.4957832 0.0105259
0.9926571 0.5061776 0.0084947
0.0082876 0.6249990 0.0082860
0.1253406 0.6246192 0.0083315
0.2566352 0.6198879 0.0110634
0.3466932 0.6160352 0.0257017
0.4601416 0.6188583 0.0250978
0.6133222 0.6287249 0.0136332
0.7780290 0.6143287 0.0194474
0.9138975 0.6001377 0.0103211
0.9942380 0.5991125 0.0121096
0.0082859 0.7500000 0.0082859
0.1250078 0.7499942 0.0082869
0.2506102 0.7488119 0.0085050
0.3752773 0.7287297 0.0133132
0.4748891 0.6873864 0.0269218
0.5913070 0.7206331 0.0184151
0.7480316 0.7482429 0.0111090
0.8797354 0.7436578 0.0108660
0.9922794 0.7360809 0.0164285
0.0082859 0.8750000 0.0082859
0.1250000 0.8750000 0.0082859
0.2500087 0.8749834 0.0082878
0.3756388 0.8732621 0.0085110
0.5005026 0.8618590 0.0099811
0.6229268 0.8585280 0.0154421
0.7481253 0.8724691 0.0099898
0.8752688 0.8744905 0.0088997
0.9918118 0.8720561 0.0118304
0.0082859 0.9917141 0.0082859
0.1250000 0.9917141 0.0082859
0.2500000 0.9917141 0.0082859
0.3750017 0.9917076 0.0082864
0.5000601 0.9915450 0.0083290
0.6250235 0.9908226 0.0085847
0.7499326 0.9914896 0.0084246
0.8750209 0.9916480 0.0083368
0.9917222 0.9913204 0.0085902
0.0166749 0.0511329 0.1068585
0.1273013 0.0346681 0.1083469
0.2570152 0.0325666 0.0936871
0.4126344 0.0382274 0.0955363
0.5731778 0.0321200 0.0821592
0.6971382 0.0311526 0.0804279
0.7999369 0.0394085 0.0999429
0.8831002 0.0293936 0.1268176
0.9906504 0.0098984 0.1252605
0.0176606 0.1106927 0.1245357
0.1252705 0.1327605 0.1342546
0.2934467 0.1337125 0.1241925
0.4403574 0.1085340 0.1016053
0.5878607 0.1026214 0.1035341
0.7430487 0.1139663 0.1112763
0.8419290 0.1172897 0.1235711
0.8977910 0.1367783 0.1413556
0.9835525 0.1344773 0.1331840
0.0170928 0.2176870 0.1388640
0.1001833 0.2431440 0.0743514
0.2721586 0.2868548 0.0974734
0.4727017 0.2605744 0.0827194
0.6338015 0.2632240 0.0644233
0.7658721 0.2777777 0.0583993
0.8103665 0.2346718 0.1309759
0.9034667 0.2207409 0.1552142
0.9799942 0.2394526 0.1480385
0.0100697 0.3690662 0.1309805
0.1305780 0.3603581 0.0853297
0.2334107 0.3981023 0.0754010
0.4331994 0.4157371 0.0671805
0.6433707 0.4031141 0.1051517
0.7719716 0.4107244 0.0735365
0.8402961 0.4034240 0.0583238
0.8851811 0.3870879 0.1057008
0.9899635 0.3711976 0.1292012
0.0085061 0.5000788 0.1251787
0.1268571 0.4973969 0.1217731
0.2533078 0.4906300 0.0808395
0.3758459 0.5299939 0.0628494
0.5675264 0.5168954 0.0721755
0.7474570 0.5034816 0.1185751
0.8781348 0.5103526 0.1042366
0.9213275 0.5040222 0.0950836
0.9934782 0.5122235 0.1084597
0.0083005 0.6249804 0.1250150
0.1248054 0.6246394 0.1253266
0.2576389 0.6217880 0.1141476
0.3789464 0.6201878 0.0645012
0.5089279 0.6375835 0.0606304
0.6246857 0.6425778 0.0815848
0.8396456 0.5847946 0.1492727
0.9695669 0.5936587 0.1345042
0.9974996 0.5899008 0.0799070
0.0082860 0.7499998 0.1250001
0.1250017 0.7499844 0.1250025
0.2508386 0.7488879 0.1242847
0.3868211 0.7294329 0.1107631
0.4938211 0.6911863 0.0751074
0.6052010 0.7075611 0.0885887
0.7409810 0.7259084 0.1506991
0.9115229 0.7004452 0.1697449
0.9952586 0.6689346 0.1378224
0.0082859 0.8750000 0.1250000
0.1250000 0.8749999 0.1250000
0.2500136 0.8749828 0.1249946
0.3760114 0.8731782 0.1244693
0.5079901 0.8522941 0.1254973
0.6304636 0.8012946 0.1150697
0.7305995 0.8342275 0.1444491
0.8837277 0.8576539 0.1404096
0.9945532 0.7902491 0.1748552
0.0082859 0.9917141 0.1250000
0.1250000 0.9917141 0.1250000
0.2500000 0.9917141 0.1250000
0.3750087 0.9916988 0.1250025
0.5003517 0.9909114 0.1249540
0.6260089 0.9851392 0.1260818
0.7484106 0.9854977 0.1266419
0.8768698 0.9874030 0.1280412
0.9923412 0.9662113 0.1430517
0.0190021 0.0516140 0.2523250
0.1356820 0.0553472 0.2862185
0.2615428 0.0354112 0.2503149
0.3818291 0.0278734 0.2542589
0.5142476 0.0227662 0.2389526
0.6371474 0.0176025 0.2422987
0.7597253 0.0212262 0.2429866
0.8765635 0.0133957 0.2461127
0.9914297 0.0091880 0.2496599
0.0174896 0.1289784 0.2877156
0.1428197 0.1466682 0.2909870
0.2851072 0.1395850 0.2881747
0.4142439 0.1495189 0.2903995
0.5844296 0.1586904 0.2451118
0.7134675 0.1546194 0.2526428
0.8566406 0.1576044 0.2582386
0.8976325 0.1560116 0.2278261
0.9830295 0.1458317 0.2454412
0.0216634 0.2459363 0.2624039
0.0835103 0.2859499 0.2930504
0.3008282 0.3115625 0.3151797
0.4879043 0.3133179 0.3058145
0.5959861 0.2550883 0.2475570
0.7382835 0.2668861 0.2566636
0.8351703 0.2620715 0.2634564
0.9111692 0.2549923 0.2572827
0.9637539 0.2651107 0.2617812
0.0121392 0.3683164 0.2549966
0.1167557 0.3709899 0.2398300
0.2071661 0.3931398 0.1979930
0.4535071 0.4655116 0.2972535
0.5831096 0.4109890 0.2340970
0.7138713 0.4048011 0.2333619
0.8363351 0.3761196 0.1855590
0.8894952 0.3642847 0.2186912
0.9726745 0.3477194 0.2715654
0.0110472 0.5016276 0.2474270
0.0925095 0.5207987 0.2188409
0.1565877 0.5337362 0.1682353
0.3193259 0.5369707 0.1955275
0.5600495 0.5409511 0.2476957
0.7304472 0.5285552 0.2953545
0.8550266 0.5324568 0.2702737
0.9450228 0.5588979 0.2613846
0.9935638 0.5253645 0.2505497
0.0085641 0.6247426 0.2498769
0.1190429 0.6197312 0.2467187
0.1946913 0.6176001 0.2062373
0.2580623 0.6369625 0.1208987
0.5201164 0.6411619 0.2368561
0.6765155 0.6225853 0.2968603
0.8424037 0.6024796 0.3627687
0.9652680 0.6246092 0.3141048
0.9968882 0.6313937 0.2669659
0.0082893 0.7499918 0.2499995
0.1249404 0.7496563 0.2499373
0.2464104 0.7458622 0.2472823
0.3444780 0.7257088 0.2090462
0.5274861 0.7107393 0.2632771
0.6400946 0.7296143 0.2744365
0.7921940 0.6778499 0.3328823
0.9290651 0.6750482 0.3470329
0.9959580 0.6878863 0.3512354
0.0082859 0.8750000 0.2500000
0.1250000 0.8749987 0.2499997
0.2499877 0.8749375 0.2499675
0.3747225 0.8726493 0.2489394
0.5098414 0.8469621 0.2503158
0.6375139 0.7914752 0.2861168
0.7399349 0.8003384 0.2889819
0.9031056 0.7968330 0.3036888
0.9958298 0.7307306 0.3122880
0.0082859 0.9917141 0.2500000
0.1250000 0.9917141 0.2500000
0.2500000 0.9917140 0.2500000
0.3750108 0.9916930 0.2499986
0.5004632 0.9906932 0.2501734
0.6262906 0.9790201 0.2525626
0.7491714 0.9793521 0.2533563
0.8896422 0.9618224 0.2614585
0.9964967 0.8153318 0.3169345
0.0086173 0.0362658 0.3871736
0.1575466 0.0489083 0.4230531
0.2515383 0.0296001 0.3924866
0.4023720 0.0259639 0.3975545
0.5386100 0.0433921 0.4297733
0.6315998 0.0192105 0.3908503
0.7516761 0.0109045 0.3755229
0.8750859 0.0085860 0.3748348
0.9916937 0.0083976 0.3749344
0.0103062 0.1532688 0.4672088
0.1732073 0.1594982 0.4794941
0.2885325 0.1657596 0.4448276
0.4633772 0.1656473 0.4593254
0.5904200 0.1647410 0.4935154
0.6849179 0.1685186 0.4522096
0.7945801 0.1594501 0.4030755
0.8793694 0.1381963 0.3700405
0.9898926 0.1306624 0.3708774
0.0286889 0.2483278 0.4275433
0.1061502 0.2669747 0.4187790
0.2851288 0.2956022 0.4345749
0.4590937 0.3067836 0.4703316
0.5807724 0.2723909 0.4215534
0.7151543 0.2813972 0.4172568
0.8430582 0.2986086 0.4387646
0.9033651 0.2939919 0.3830079
0.9726187 0.2894619 0.3576975
0.0162632 0.3655516 0.3921953
0.1080246 0.3739670 0.3955343
0.2133790 0.4337353 0.4606263
0.4519207 0.4580362 0.4667880
0.5664055 0.4164355 0.4120888
0.6941990 0.4059537 0.3948075
0.8077944 0.4018840 0.4080205
0.8845943 0.3903147 0.4035287
0.9692652 0.3834988 0.3864522
0.0098165 0.5004447 0.3728102
0.0957644 0.5249013 0.3379417
0.1536455 0.5212324 0.3197206
0.3430777 0.5164765 0.3374231
0.5499187 0.5546335 0.4204875
0.6449017 0.5022091 0.3557099
0.7702817 0.5004930 0.3592920
0.8788717 0.5222051 0.3805920
0.9765399 0.4934133 0.3931820
0.0086440 0.6246763 0.3744172
0.1143925 0.6169203 0.3561760
0.1492473 0.6166515 0.2992406
0.2395390 0.6306035 0.2679911
0.4552588 0.6355768 0.3377719
0.6474786 0.6471006 0.4002294
0.8120196 0.6212348 0.4361329
0.9248580 0.6228330 0.4147590
0.9896432 0.6690068 0.4205450
0.0082915 0.7499866 0.3749920
0.1247164 0.7491439 0.3744529
0.2411200 0.7413260 0.3621715
0.3342194 0.7243121 0.3325217
0.3715498 0.7173979 0.2808122
0.6214933 0.7308000 0.3831490
0.7294672 0.7162350 0.3557215
0.9101670 0.6861938 0.4747033
0.9953457 0.7057323 0.4294364
0.0082859 0.8750000 0.3750000
0.1250000 0.8749972 0.3749980
0.2499499 0.8748780 0.3749013
0.3740632 0.8711531 0.3722587
0.4730514 0.8433291 0.3559437
0.6582041 0.8157993 0.4501473
0.7498504 0.8101650 0.4346946
0.8067195 0.7766654 0.2704448
0.9835052 0.7587554 0.4347473
0.0082859 0.9917141 0.3750000
0.1250000 0.9917141 0.3750000
0.2500001 0.9917139 0.3749999
0.3749991 0.9916540 0.3749798
0.5001199 0.9905689 0.3751041
0.6314749 0.9793043 0.3854524
0.7519104 0.9629318 0.3973014
0.8792691 0.9530053 0.3779388
0.9972894 0.8273808 0.4478996
0.0086027 0.0162100 0.5037715
0.1313097 0.0200516 0.5077887
0.2554119 0.0206327 0.5092989
0.4004443 0.0296272 0.5190207
0.5271149 0.0332852 0.5203843
0.6350113 0.0240879 0.5131662
0.7504545 0.0104630 0.5014731
0.8749961 0.0083675 0.5000455
0.9917137 0.0082880 0.4999992
0.0127504 0.1926349 0.5907601
0.1706938 0.1984130 0.6232939
0.3171935 0.1799989 0.6187212
0.5025365 0.1884811 0.6303701
0.6434501 0.1760321 0.6212591
0.7214912 0.1786281 0.6115850
0.7754981 0.1645780 0.5441644
0.8754913 0.1313506 0.5065481
0.9914558 0.1258421 0.4997232
0.0235360 0.2876308 0.5945020
0.1265076 0.3027481 0.6467064
0.3163216 0.2927300 0.6332651
0.4615838 0.2961971 0.5986850
0.6148480 0.2937020 0.6195897
0.7374657 0.2932892 0.6374830
0.8247880 0.2994129 0.6009888
0.8825414 0.2783232 0.5201375
0.9823512 0.2727373 0.4954016
0.0261707 0.3692783 0.5560194
0.0854447 0.4054773 0.5708244
0.2520528 0.4091519 0.5552687
0.4367616 0.4616081 0.5901425
0.5731536 0.4265140 0.5565133
0.7030474 0.4118035 0.5226611
0.8193989 0.4105753 0.5502147
0.8623305 0.4105669 0.5026769
0.9634398 0.4061971 0.5031732
0.0102847 0.4972322 0.5056797
0.1188074 0.5003241 0.4934047
0.1829044 0.5055336 0.4732623
0.3917195 0.5528203 0.5855107
0.5756568 0.5821744 0.6036207
0.6586201 0.5372590 0.5362172
0.7504867 0.5036895 0.4948535
0.8686401 0.5060280 0.5172241
0.9159149 0.4929849 0.5357997
0.0083695 0.6248977 0.4999036
0.1235696 0.6226907 0.4937134
0.2310170 0.6162792 0.4741955
0.3491735 0.6166048 0.4812408
0.4746982 0.6292152 0.4852155
0.6393390 0.6437615 0.5486522
0.6675741 0.5478516 0.4258614
0.8188406 0.5831822 0.4572417
0.8966516 0.5960684 0.4577791
0.0082868 0.7499980 0.4999972
0.1249514 0.7498570 0.4997999
0.2488992 0.7484666 0.4977816
0.3717475 0.7403826 0.4785666
0.4347873 0.7228692 0.4372906
0.5774648 0.7328048 0.4606376
0.7279677 0.7213574 0.5115793
0.8800947 0.6929307 0.5499069
0.9465167 0.6964852 0.5221108
0.0082859 0.8750000 0.5000000
0.1250000 0.8749997 0.4999997
0.2500122 0.8749742 0.4999782
0.3749779 0.8725725 0.4978553
0.4864212 0.8459492 0.4746256
0.5501909 0.8077177 0.4288481
0.7380762 0.8237945 0.5251920
0.8107762 0.8025832 0.4514534
0.9950046 0.7786300 0.5433739
0.0082859 0.9917141 0.5000000
0.1250000 0.9917141 0.5000000
0.2500001 0.9917140 0.4999999
0.3750045 0.9916699 0.4999697
0.5000861 0.9896120 0.4989722
0.6202094 0.9770772 0.4948351
0.7439669 0.9607821 0.4961409
0.8593288 0.9376816 0.4996567
0.9973897 0.8443919 0.4990724
0.0085663 0.0096657 0.6256056
0.1257202 0.0099805 0.6256126
0.2509017 0.0102978 0.6254995
0.3768265 0.0104798 0.6255847
0.5022746 0.0107879 0.6255323
0.6263900 0.0107189 0.6255471
0.7501660 0.0089404 0.6251905
0.8750038 0.0083688 0.6250311
0.9917138 0.0082871 0.6250004
0.0118949 0.1696567 0.6595528
0.1399437 0.1665010 0.6594879
0.2633639 0.1555988 0.6457534
0.4047018 0.1547214 0.6440141
0.5483895 0.1643682 0.6473854
0.6540586 0.1582596 0.6425182
0.7672047 0.1538990 0.6431253
0.8760213 0.1339370 0.6303694
0.9916536 0.1251310 0.6250760
0.0193283 0.3244535 0.7746022
0.1650778 0.3035745 0.7522059
0.3133951 0.3038023 0.7277333
0.4666131 0.3085315 0.7296191
0.5898745 0.2960898 0.7102131
0.7141700 0.2950961 0.6906623
0.8382751 0.3156944 0.7176723
0.8845041 0.2890123 0.6713090
0.9907767 0.2524253 0.6249657
0.0286619 0.4024856 0.7007846
0.1085754 0.4365583 0.7191992
0.2367686 0.4245506 0.7038118
0.4395985 0.4245235 0.7161615
0.5716780 0.4238522 0.6981086
0.6980107 0.4202619 0.7099112
0.8327708 0.4261476 0.7273239
0.8888324 0.4051533 0.6792228
0.9705279 0.4025165 0.6009308
0.0179281 0.4981271 0.6604342
0.1046724 0.5065112 0.6527807
0.2661540 0.5046028 0.6701208
0.3932317 0.5365691 0.6761229
0.5665061 0.5739096 0.6933222
0.6693150 0.5355315 0.6575816
0.7871073 0.5225445 0.6344228
0.8447956 0.5134756 0.5949392
0.9149492 0.5035960 0.5868665
0.0087267 0.6241685 0.6263806
0.1250817 0.6210513 0.6263956
0.2471143 0.6070194 0.6376637
0.3377423 0.6034340 0.5935373
0.5183043 0.6414627 0.6482897
0.6585343 0.6673529 0.6910946
0.7428795 0.6298779 0.6327274
0.8099813 0.5889488 0.5897599
0.9188524 0.6015293 0.5872578
0.0082875 0.7499958 0.6250033
0.1250705 0.7498812 0.6250327
0.2548277 0.7470966 0.6259061
0.3742100 0.7327992 0.6185356
0.4812222 0.7235240 0.5731403
0.5817189 0.7227484 0.5947648
0.7479466 0.7478881 0.6580404
0.7122241 0.5937634 0.4874688
0.8985865 0.6633375 0.5509093
0.0082859 0.8750000 0.6250000
0.1250070 0.8749962 0.6250010
0.2504165 0.8746925 0.6250803
0.3759116 0.8737180 0.6244838
0.4991451 0.8500568 0.6095695
0.5915302 0.8202726 0.5591967
0.6665145 0.8092732 0.5491235
0.8327065 0.8211320 0.6808674
0.9609402 0.7787524 0.6195441
0.0082859 0.9917141 0.6250000
0.1250000 0.9917141 0.6250000
0.2500020 0.9917120 0.6250005
0.3750107 0.9916918 0.6249946
0.5001371 0.9904875 0.6245646
0.6231743 0.9757252 0.6159788
0.7158039 0.9286782 0.5900212
0.8727686 0.9465072 0.6727189
0.9954520 0.8572606 0.5820755
0.0082901 0.0083904 0.7500148
0.1250151 0.0083817 0.7500082
0.2500056 0.0083461 0.7499956
0.3750204 0.0083305 0.7499988
0.5000505 0.0083643 0.7499850
0.6250268 0.0083547 0.7499834
0.7500072 0.0083068 0.7499992
0.8750004 0.0082918 0.7500001
0.9917141 0.0082860 0.7500000
0.0088910 0.1374526 0.7546408
0.1269572 0.1343127 0.7520341
0.2511562 0.1293682 0.7502992
0.3783782 0.1313952 0.7505988
0.5022875 0.1291725 0.7496862
0.6263970 0.1271102 0.7495790
0.7511702 0.1274094 0.7499593
0.8751162 0.1259633 0.7501069
0.9917035 0.1250316 0.7500051
0.0130228 0.3244550 0.8155746
0.1402038 0.3002790 0.7818587
0.2880259 0.3049248 0.7707129
0.4155744 0.3012733 0.7668896
0.5333845 0.2922605 0.7581402
0.6650206 0.2847602 0.7504550
0.7798678 0.2896785 0.7502654
0.8797922 0.2720537 0.7578766
0.9909982 0.2516784 0.7507163
0.0286661 0.4398839 0.8442208
0.1502661 0.4363943 0.8308735
0.2988649 0.4264328 0.8138956
0.4288348 0.4118628 0.7905219
0.5825163 0.4196432 0.7751903
0.6924835 0.4353455 0.7808304
0.8287225 0.4368166 0.8051356
0.9019011 0.4276875 0.8061158
0.9873079 0.3932462 0.7606491
0.0279439 0.5046228 0.8065202
0.1018012 0.5214328 0.7906675
0.2513241 0.5321710 0.7595946
0.3861221 0.5257936 0.7757068
0.5628983 0.5420442 0.7968302
0.6802824 0.5443775 0.8012284
0.8009568 0.5414445 0.8074827
0.9120464 0.5288295 0.8077480
0.9655798 0.5144042 0.7466920
0.0104796 0.6204150 0.7560073
0.1279248 0.6094384 0.7594028
0.2369068 0.6033606 0.7502913
0.3479640 0.6220680 0.7390338
0.5033669 0.6377943 0.7645869
0.6545902 0.6629917 0.7721882
0.7657526 0.6360793 0.7612171
0.8524167 0.6181375 0.7277110
0.8796440 0.6036567 0.6806290
0.0083166 0.7499135 0.7500545
0.1259362 0.7488658 0.7501268
0.3298402 0.7181497 0.7382010
0.4890497 0.6736238 0.7205937
0.4839844 0.7152099 0.7344449
0.6382480 0.7387658 0.7438146
0.7190028 0.7292154 0.7482525
0.8023376 0.6953957 0.6983691
0.8906465 0.6686234 0.6640315
0.0082860 0.8749998 0.7500001
0.1251853 0.8749009 0.7499846
0.2612590 0.8670071 0.7488082
0.3986714 0.8518822 0.7486353
0.4962765 0.8403538 0.7524081
0.5714090 0.8014777 0.7035250
0.6847857 0.8108001 0.6710755
0.8050434 0.7987162 0.7291643
0.9004544 0.7530316 0.6532772
0.0082859 0.9917141 0.7500000
0.1250018 0.9917127 0.7499999
0.2502357 0.9914852 0.7499933
0.3759117 0.9903966 0.7499658
0.5004093 0.9874199 0.7494905
0.6187751 0.9661995 0.7399336
0.7270346 0.9278022 0.7034221
0.7992677 0.8894254 0.7288285
0.9570825 0.8639101 0.7260479
0.0082859 0.0082887 0.8749998
0.1250001 0.0082872 0.8749998
0.2500001 0.0082862 0.8749999
0.3750002 0.0082866 0.8749998
0.5000001 0.0082862 0.8749999
0.6250001 0.0082860 0.8749999
0.7500000 0.0082860 0.8749999
0.8750000 0.0082859 0.8750000
0.9917141 0.0082859 0.8750000
0.0083092 0.1257931 0.8749338
0.1249715 0.1253041 0.8749442
0.2500775 0.1252226 0.8749440
0.3750880 0.1252277 0.8749194
0.5000092 0.1250890 0.8749639
0.6250362 0.1250621 0.8749700
0.7500266 0.1250705 0.8749653
0.8750028 0.1250255 0.8749962
0.9917138 0.1250010 0.8749999
0.0104245 0.2675900 0.8753709
0.1238795 0.2645467 0.8747481
0.2535605 0.2595724 0.8724100
0.3760281 0.2558211 0.8729141
0.5024837 0.2537101 0.8731220
0.6257294 0.2525238 0.8736915
0.7523437 0.2538747 0.8735654
0.8753142 0.2523759 0.8749065
0.9916568 0.2502780 0.8749944
0.0281495 0.4370835 0.8915335
0.1281325 0.4255043 0.8787823
0.2571902 0.4131123 0.8704565
0.3914043 0.4034939 0.8645753
0.5184410 0.3934856 0.8627626
0.6369822 0.3985601 0.8646081
0.7794916 0.4227683 0.8803354
0.8876364 0.4209315 0.8842834
0.9889926 0.3881744 0.8759390
0.0301592 0.5328380 0.9098265
0.1108192 0.5484183 0.8979201
0.2584904 0.5307915 0.8839249
0.4058688 0.5161853 0.8610110
0.5356432 0.5334646 0.8566678
0.6666577 0.5304152 0.8433748
0.8031383 0.5543429 0.9017040
0.9260635 0.5560846 0.9102405
0.9801172 0.5223948 0.8918572
0.0183113 0.6084726 0.8854091
0.1147931 0.6054424 0.8795446
0.2647488 0.6466025 0.9293482
0.3783868 0.6431304 0.8684304
0.4864537 0.6367376 0.8563598
0.6564410 0.6239465 0.8447623
0.7656346 0.6468212 0.8814471
0.8855036 0.6303154 0.8849812
0.9545985 0.6377352 0.8640674
0.0093494 0.7487924 0.8760079
0.1278466 0.7444125 0.8814992
0.3007059 0.7235158 0.8665445
0.4155638 0.6993130 0.8507177
0.4744772 0.7214112 0.8488506
0.6681315 0.7893969 0.8949026
0.7441663 0.7534786 0.8557255
0.8440366 0.7193362 0.8413154
0.9157126 0.7182460 0.8267649
0.0083010 0.8749727 0.8750131
0.1252528 0.8746065 0.8751624
0.2894307 0.8495042 0.8611643
0.5285585 0.7285454 0.7955529
0.4919031 0.8268921 0.8412304
0.6098996 0.8193707 0.8269874
0.7232887 0.8188041 0.8217868
0.7883102 0.8011363 0.8194621
0.8741695 0.7615891 0.7639886
0.0082859 0.9917141 0.8750000
0.1250220 0.9916978 0.8749940
0.2532032 0.9885755 0.8738413
0.3874960 0.9735864 0.8683078
0.5006878 0.9871786 0.8727492
0.6281862 0.9798982 0.8714063
0.7352231 0.9264953 0.8343210
0.7741411 0.8691032 0.7853711
0.9039307 0.8574237 0.7994572
0.0082859 0.0082859 0.9917141
0.1250000 0.0082859 0.9917141
0.2500000 0.0082859 0.9917141
0.3750000 0.0082859 0.9917141
0.5000000 0.0082859 0.9917141
0.6250000 0.0082859 0.9917141
0.7500000 0.0082859 0.9917141
0.8750000 0.0082859 0.9917141
0.9917141 0.0082859 0.9917141
0.0082863 0.1250055 0.9917117
0.1249996 0.1250042 0.9917126
0.2500002 0.1250012 0.9917134
0.3750001 0.1250007 0.9917136
0.5000001 0.1250002 0.9917139
0.6250000 0.1250001 0.9917140
0.7500001 0.1250002 0.9917140
0.8750000 0.1250001 0.9917141
0.9917141 0.1250000 0.9917141
0.0084039 0.2507867 0.9914063
0.1249320 0.2505277 0.9914204
0.2500144 0.2502120 0.9915816
0.3750081 0.2500933 0.9916384
0.5000188 0.2500487 0.9916713
0.6250093 0.2500387 0.9916837
0.7500303 0.2500896 0.9916789
0.8750129 0.2500846 0.9916866
0.9917119 0.2500183 0.9917098
0.0115771 0.3949409 0.9823346
0.1218677 0.3910044 0.9858312
0.2492623 0.3830331 0.9882880
0.3755859 0.3801931 0.9883543
0.4999838 0.3760845 0.9904085
0.6256318 0.3766765 0.9900385
0.7520740 0.3780869 0.9900428
0.8768232 0.3801379 0.9895989
0.9913964 0.3770458 0.9910083
0.0289891 0.5414834 0.9597912
0.1122149 0.5451823 0.9470816
0.2406951 0.5419322 0.9542307
0.3745501 0.5176746 0.9542095
0.5005530 0.5073509 0.9857242
0.6335148 0.5085489 0.9700888
0.7582387 0.5146381 0.9811235
0.8953596 0.5244613 0.9764321
0.9869972 0.5117918 0.9847990
0.0422966 0.6118488 0.9822201
0.1275918 0.6199791 0.9775262
0.2313419 0.6438391 0.9829993
0.3744391 0.6500356 0.9474314
0.4988836 0.6438161 0.9580761
0.6325175 0.6409278 0.9550984
0.7513150 0.6381241 0.9366804
0.8922740 0.6419764 0.9534684
0.9583536 0.6398512 0.9647377
0.0146657 0.7431685 0.9913166
0.1414240 0.7175640 0.9918364
0.2483027 0.6967754 0.9930487
0.3752672 0.7277995 0.9839091
0.4908646 0.7322631 0.9653150
0.5889158 0.7377715 0.9360096
0.7356313 0.7204616 0.8983849
0.8560931 0.7270955 0.9463379
0.9418220 0.7408018 0.9466856
0.0083760 0.8748372 0.9917116
0.1259467 0.8728601 0.9917403
0.2607889 0.8598875 0.9844038
0.4441946 0.8061447 0.9221646
0.5055113 0.8312764 0.9865585
0.6424539 0.8420535 0.9926414
0.7497738 0.8567452 0.9473894
0.8231484 0.8345996 0.9280279
0.9218912 0.8028927 0.9166439
0.0082859 0.9917140 0.9917141
0.1250083 0.9917042 0.9917108
0.2515239 0.9902208 0.9906760
0.3809454 0.9830892 0.9857174
0.5015063 0.9888854 0.9912486
0.6540987 0.9753713 0.9932856
0.7690548 0.9376311 0.9958928
0.8271244 0.9157957 0.9585883
0.9077181 0.9194800 0.9381499
