looks/fujifilm_velvia.cube
TITLE "Fujifilm velvia pooled norm (16 pairs)"
LUT_3D_SIZE 33
0.0104089 0.0087607 0.0082540
0.0239367 0.0132497 0.0115710
0.0460905 0.0137249 0.0116662
0.0705929 0.0131825 0.0112781
0.0976079 0.0129378 0.0113366
0.1310396 0.0132070 0.0115878
0.1703752 0.0130424 0.0116798
0.1985431 0.0127036 0.0113688
0.2103062 0.0140949 0.0107502
0.2553036 0.0191903 0.0127652
0.3341988 0.0214926 0.0165808
0.4242279 0.0211647 0.0163547
0.4800653 0.0216109 0.0155607
0.5198858 0.0224510 0.0152734
0.5469141 0.0230461 0.0156643
0.5686589 0.0240153 0.0168338
0.6067989 0.0271676 0.0195332
0.6410761 0.0290631 0.0216389
0.6687019 0.0298112 0.0228759
0.6910204 0.0307767 0.0226488
0.7039432 0.0313059 0.0205137
0.7179399 0.0300029 0.0209016
0.7470166 0.0285187 0.0250557
0.7692472 0.0283083 0.0280903
0.7926976 0.0302973 0.0324363
0.8104737 0.0285240 0.0311814
0.8260633 0.0229129 0.0248697
0.8472707 0.0168783 0.0180253
0.8747599 0.0126599 0.0132583
0.9055564 0.0105243 0.0108758
0.9369984 0.0095067 0.0097037
0.9679074 0.0088950 0.0089631
0.9914908 0.0085607 0.0085787
0.0105725 0.0125891 0.0080874
0.0224777 0.0194545 0.0114291
0.0431112 0.0240708 0.0126662
0.0680172 0.0246006 0.0120705
0.0968011 0.0235790 0.0113800
0.1301594 0.0233705 0.0113845
0.1686926 0.0231471 0.0120181
0.2063442 0.0228091 0.0121045
0.2410248 0.0268058 0.0111826
0.2998812 0.0350255 0.0122731
0.3466371 0.0339940 0.0160781
0.4035220 0.0319144 0.0177607
0.4569595 0.0298469 0.0187979
0.5040978 0.0291692 0.0184553
0.5440651 0.0296964 0.0183406
0.5796701 0.0307825 0.0192656
0.6129448 0.0329059 0.0210858
0.6429319 0.0341510 0.0225251
0.6696492 0.0346794 0.0235303
0.6932748 0.0357509 0.0233256
0.7071210 0.0369816 0.0214215
0.7219563 0.0376523 0.0224957
0.7519476 0.0388040 0.0278355
0.7767727 0.0410412 0.0325192
0.8022107 0.0453989 0.0383559
0.8176270 0.0453723 0.0368588
0.8295283 0.0418599 0.0292258
0.8484298 0.0382413 0.0212080
0.8749793 0.0358580 0.0157352
0.9053817 0.0345619 0.0128216
0.9366005 0.0335488 0.0109451
0.9675753 0.0326480 0.0095607
0.9912934 0.0321378 0.0088354
0.0109752 0.0226096 0.0080941
0.0215638 0.0336387 0.0103592
0.0407033 0.0417528 0.0124196
0.0667083 0.0426406 0.0123046
0.0970309 0.0414809 0.0111354
0.1310741 0.0414053 0.0102958
0.1719650 0.0424562 0.0105044
0.2207512 0.0441532 0.0106459
0.2745690 0.0483479 0.0100159
0.3318564 0.0540547 0.0103765
0.3684986 0.0539442 0.0121448
0.4080801 0.0517717 0.0147424
0.4442845 0.0461041 0.0192507
0.4847733 0.0447199 0.0199994
0.5254186 0.0441456 0.0197445
0.5709287 0.0415786 0.0207962
0.6021716 0.0417958 0.0220327
0.6296816 0.0424858 0.0224239
0.6542493 0.0427534 0.0230571
0.6797254 0.0447337 0.0240539
0.6995312 0.0475964 0.0241067
0.7220443 0.0499743 0.0258648
0.7544346 0.0533434 0.0320142
0.7834490 0.0571042 0.0380386
0.8088180 0.0615683 0.0428518
0.8219352 0.0633870 0.0405255
0.8321174 0.0642196 0.0329988
0.8499393 0.0652771 0.0253135
0.8755721 0.0658972 0.0196931
0.9051649 0.0658296 0.0161348
0.9360045 0.0647529 0.0129712
0.9670761 0.0635924 0.0104933
0.9909908 0.0629776 0.0092377
0.0116145 0.0409258 0.0072343
0.0208753 0.0539830 0.0083041
0.0378059 0.0647232 0.0104634
0.0622323 0.0650329 0.0112382
0.0948682 0.0625841 0.0106809
0.1330090 0.0626407 0.0098454
0.1770329 0.0641878 0.0093520
0.2298808 0.0665013 0.0090220
0.2869231 0.0698967 0.0082868
0.3409704 0.0736751 0.0079740
0.3870519 0.0751305 0.0086515
0.4275122 0.0741724 0.0101562
0.4579746 0.0711238 0.0128402
0.4924082 0.0716353 0.0132193
0.5225565 0.0706261 0.0139965
0.5627994 0.0652938 0.0172327
0.5897367 0.0636763 0.0194700
0.6164923 0.0652858 0.0198380
0.6382774 0.0650723 0.0216950
0.6588532 0.0648935 0.0268751
0.6820214 0.0673604 0.0301043
0.7125605 0.0689760 0.0299037
0.7468095 0.0715981 0.0324645
0.7773064 0.0747949 0.0369144
0.8030787 0.0790324 0.0408566
0.8186185 0.0827067 0.0393209
0.8320258 0.0877298 0.0343709
0.8511301 0.0925368 0.0285729
0.8764004 0.0954349 0.0235764
0.9050410 0.0962147 0.0193147
0.9354563 0.0954669 0.0148498
0.9666256 0.0945857 0.0113791
0.9907236 0.0941414 0.0096515
0.0136378 0.0693654 0.0056775
0.0218508 0.0780518 0.0065800
0.0394448 0.0961516 0.0092431
0.0601281 0.0995374 0.0104074
0.0899003 0.0930901 0.0099102
0.1311963 0.0894985 0.0091716
0.1798508 0.0889624 0.0086663
0.2349138 0.0904699 0.0086353
0.2932483 0.0938421 0.0082923
0.3502115 0.0975529 0.0073717
0.4026634 0.1008853 0.0068612
0.4500486 0.1028449 0.0070114
0.4899124 0.1022163 0.0077329
0.5203518 0.1001369 0.0078862
0.5411522 0.1003831 0.0088207
0.5712222 0.1038508 0.0112258
0.5902808 0.1061233 0.0134642
0.6177877 0.1123960 0.0141940
0.6375480 0.1119090 0.0173207
0.6528119 0.1036992 0.0248264
0.6699338 0.0984453 0.0288413
0.6943926 0.0967371 0.0296420
0.7290123 0.0990944 0.0305114
0.7604633 0.1015664 0.0327298
0.7880290 0.1055556 0.0366476
0.8093519 0.1094140 0.0362166
0.8291264 0.1148493 0.0330308
0.8511350 0.1200448 0.0287605
0.8770158 0.1239075 0.0253803
0.9051403 0.1252571 0.0208611
0.9352672 0.1253148 0.0156969
0.9664843 0.1252439 0.0118737
0.9906477 0.1252138 0.0099845
0.0201643 0.1117829 0.0064989
0.0306543 0.1210492 0.0074535
0.0497935 0.1467608 0.0101302
0.0662483 0.1512243 0.0111916
0.0876417 0.1367865 0.0099948
0.1246463 0.1270658 0.0086937
0.1747830 0.1218737 0.0082139
0.2340081 0.1202166 0.0084360
0.2982301 0.1228304 0.0084938
0.3594719 0.1259541 0.0078363
0.4147882 0.1297482 0.0068174
0.4662551 0.1333380 0.0060084
0.5122511 0.1360876 0.0060166
0.5491520 0.1356220 0.0066136
0.5738741 0.1326964 0.0076374
0.5968021 0.1323669 0.0084578
0.6138970 0.1355488 0.0090276
0.6427568 0.1464299 0.0091308
0.6561294 0.1535039 0.0101872
0.6622226 0.1542747 0.0133519
0.6714762 0.1483144 0.0172356
0.6878836 0.1410346 0.0222892
0.7159213 0.1386671 0.0262047
0.7442212 0.1371993 0.0292760
0.7734039 0.1385555 0.0332859
0.7985575 0.1411340 0.0326190
0.8238649 0.1449333 0.0290224
0.8499000 0.1491393 0.0258961
0.8770467 0.1523929 0.0237471
0.9054200 0.1541131 0.0198341
0.9356614 0.1552282 0.0153309
0.9668012 0.1560011 0.0120157
0.9907970 0.1563298 0.0102789
0.0338815 0.1825416 0.0095369
0.0464143 0.1889684 0.0100605
0.0607499 0.2013845 0.0112311
0.0731540 0.2002519 0.0117314
0.0887602 0.1833002 0.0105750
0.1191807 0.1719459 0.0091057
0.1645558 0.1617435 0.0082363
0.2221240 0.1578519 0.0081162
0.2922160 0.1607230 0.0083062
0.3593906 0.1577822 0.0083179
0.4167362 0.1601958 0.0078244
0.4692273 0.1654190 0.0066292
0.5186560 0.1695503 0.0057669
0.5625101 0.1731734 0.0058508
0.5980150 0.1725249 0.0065938
0.6272576 0.1659387 0.0073026
0.6484324 0.1617257 0.0071683
0.6723176 0.1696091 0.0067429
0.6843762 0.1817445 0.0065112
0.6884356 0.1928679 0.0068152
0.6896045 0.1991131 0.0080783
0.6963415 0.1988797 0.0111836
0.7151959 0.1921152 0.0158833
0.7399341 0.1832153 0.0208542
0.7673559 0.1790393 0.0248191
0.7928149 0.1775241 0.0254410
0.8197290 0.1783129 0.0239583
0.8482375 0.1807202 0.0219659
0.8769188 0.1827165 0.0202694
0.9061440 0.1844245 0.0176778
0.9365758 0.1860027 0.0146426
0.9673678 0.1870473 0.0121050
0.9910198 0.1874931 0.0106108
0.0359863 0.2199974 0.0104200
0.0513535 0.2227508 0.0105832
0.0666949 0.2278924 0.0109330
0.0781654 0.2292564 0.0111809
0.0900263 0.2226182 0.0106417
0.1146783 0.2170598 0.0098987
0.1536880 0.2071950 0.0091010
0.2070808 0.2038085 0.0087648
0.2758642 0.2073511 0.0087678
0.3408568 0.1936594 0.0084814
0.4007425 0.1938675 0.0086202
0.4560787 0.2073608 0.0084535
0.5093605 0.2053305 0.0067546
0.5574938 0.2043111 0.0058346
0.6007690 0.2070393 0.0058352
0.6415222 0.2061213 0.0062802
0.6715958 0.2001303 0.0060179
0.6974026 0.2049087 0.0054363
0.7139582 0.2131307 0.0052047
0.7151800 0.2237685 0.0051025
0.7136708 0.2399966 0.0050032
0.7184994 0.2477316 0.0057469
0.7336747 0.2480824 0.0078263
0.7532847 0.2433955 0.0104219
0.7721008 0.2344045 0.0128664
0.7931536 0.2239008 0.0156183
0.8188153 0.2171334 0.0175392
0.8472251 0.2152417 0.0173691
0.8770664 0.2152664 0.0170653
0.9071437 0.2161962 0.0160927
0.9374053 0.2172537 0.0140143
0.9677495 0.2180706 0.0119099
0.9911500 0.2185341 0.0107120
0.0296108 0.2419583 0.0098526
0.0495125 0.2418678 0.0099891
0.0699267 0.2429207 0.0103613
0.0814630 0.2440000 0.0104281
0.0905234 0.2471147 0.0101347
0.1103666 0.2561986 0.0103079
0.1436711 0.2599407 0.0104205
0.1926769 0.2522464 0.0102446
0.2548570 0.2454112 0.0097791
0.3163652 0.2384501 0.0092044
0.3813520 0.2423649 0.0096737
0.4421980 0.2606593 0.0107737
0.4982111 0.2385518 0.0081386
0.5437065 0.2222537 0.0062313
0.5910749 0.2308248 0.0061422
0.6394883 0.2378883 0.0063269
0.6814687 0.2380677 0.0057994
0.7180742 0.2477445 0.0050530
0.7379273 0.2546028 0.0043009
0.7399825 0.2612407 0.0038745
0.7414960 0.2743820 0.0037876
0.7521435 0.2868401 0.0041968
0.7685961 0.2962084 0.0049906
0.7790107 0.2940517 0.0058995
0.7857716 0.2826026 0.0071504
0.7991709 0.2700566 0.0090445
0.8207572 0.2603728 0.0108169
0.8475388 0.2537026 0.0122249
0.8771139 0.2498091 0.0135716
0.9072971 0.2485984 0.0136552
0.9376310 0.2486598 0.0125094
0.9679502 0.2491790 0.0111842
0.9912679 0.2495607 0.0103944
0.0228920 0.2705353 0.0091203
0.0459435 0.2672168 0.0093870
0.0696909 0.2627086 0.0096508
0.0845208 0.2602222 0.0096198
0.0953207 0.2666510 0.0097754
0.1106291 0.2842081 0.0104191
0.1350344 0.3006994 0.0110871
0.1780286 0.3056833 0.0116586
0.2446937 0.2963134 0.0118322
0.3139660 0.2938911 0.0115033
0.3661985 0.2959821 0.0112705
0.4256884 0.2995367 0.0118498
0.4803888 0.2723995 0.0102290
0.5269251 0.2540484 0.0083542
0.5825968 0.2664092 0.0083816
0.6319914 0.2713810 0.0078832
0.6799051 0.2747035 0.0069715
0.7275901 0.2858708 0.0061375
0.7503039 0.2867251 0.0044095
0.7590860 0.2905013 0.0033961
0.7662774 0.3002033 0.0032353
0.7812014 0.3138409 0.0035083
0.8003352 0.3279228 0.0039210
0.8050807 0.3282224 0.0045832
0.8050193 0.3207646 0.0056603
0.8122630 0.3120319 0.0068128
0.8278724 0.3022799 0.0077521
0.8504826 0.2934340 0.0087359
0.8777137 0.2868707 0.0097637
0.9071693 0.2828656 0.0104074
0.9376002 0.2810196 0.0104548
0.9680667 0.2806939 0.0101134
0.9914077 0.2807748 0.0097627
0.0173330 0.3033981 0.0086963
0.0411044 0.2984142 0.0088574
0.0680536 0.2912428 0.0089762
0.0893378 0.2876950 0.0092041
0.1055405 0.2931957 0.0097589
0.1175294 0.3049681 0.0103813
0.1328595 0.3237329 0.0111866
0.1624837 0.3458044 0.0125557
0.2153573 0.3500846 0.0137576
0.2827634 0.3359317 0.0137327
0.3348439 0.3290690 0.0125443
0.3998095 0.3279152 0.0129139
0.4517851 0.3213639 0.0147918
0.5029106 0.3076662 0.0130794
0.5688155 0.3116436 0.0122533
0.6167347 0.3169599 0.0114885
0.6630797 0.3222134 0.0095080
0.7111324 0.3226278 0.0077191
0.7410641 0.3163019 0.0058927
0.7601410 0.3168311 0.0048318
0.7803733 0.3268411 0.0039658
0.8030900 0.3388689 0.0035101
0.8216535 0.3493738 0.0035530
0.8267048 0.3532260 0.0041233
0.8281467 0.3542913 0.0050997
0.8316485 0.3501496 0.0060327
0.8412086 0.3420763 0.0068035
0.8579227 0.3326297 0.0074589
0.8807932 0.3242110 0.0080220
0.9078534 0.3178228 0.0085102
0.9375994 0.3141508 0.0088393
0.9680818 0.3126707 0.0090137
0.9915109 0.3122466 0.0090428
0.0129927 0.3375596 0.0084627
0.0370817 0.3331432 0.0085187
0.0670111 0.3271403 0.0086687
0.0940625 0.3234400 0.0090502
0.1152644 0.3240086 0.0096122
0.1300575 0.3305181 0.0102845
0.1421700 0.3454853 0.0113386
0.1616686 0.3708042 0.0130390
0.1986237 0.3845990 0.0144798
0.2544060 0.3740703 0.0143226
0.3110372 0.3669750 0.0129835
0.3813891 0.3577211 0.0131336
0.4377169 0.3584476 0.0160734
0.4864705 0.3482912 0.0154551
0.5405278 0.3419966 0.0145079
0.5762846 0.3472698 0.0148821
0.6197672 0.3581091 0.0121413
0.6691490 0.3639567 0.0099894
0.7181609 0.3623209 0.0090422
0.7528021 0.3551966 0.0085590
0.7803000 0.3549539 0.0064398
0.8071852 0.3608138 0.0045753
0.8318071 0.3700831 0.0040365
0.8453543 0.3769725 0.0042725
0.8509729 0.3814273 0.0047645
0.8551159 0.3827903 0.0053810
0.8602816 0.3784195 0.0061238
0.8702400 0.3701167 0.0068661
0.8860481 0.3597647 0.0074973
0.9090901 0.3512826 0.0079496
0.9376479 0.3465102 0.0082329
0.9680170 0.3444701 0.0084222
0.9915376 0.3438061 0.0085271
0.0104177 0.3715423 0.0083426
0.0346794 0.3688366 0.0083899
0.0662135 0.3649243 0.0085477
0.0971479 0.3617845 0.0089227
0.1255798 0.3623726 0.0096152
0.1481705 0.3691169 0.0106482
0.1633607 0.3816728 0.0120721
0.1763948 0.3976403 0.0135605
0.1991667 0.4171856 0.0151959
0.2311406 0.4281839 0.0156490
0.2801184 0.4218371 0.0145373
0.3636038 0.3995613 0.0133099
0.4377201 0.3901807 0.0137672
0.4825181 0.3746764 0.0138222
0.5139385 0.3737755 0.0159289
0.5444161 0.3792101 0.0182113
0.5828522 0.3858960 0.0155668
0.6266257 0.3908257 0.0122521
0.6825525 0.3956535 0.0104620
0.7336294 0.3881125 0.0109702
0.7696029 0.3751860 0.0109550
0.7969431 0.3770984 0.0084821
0.8298643 0.3888178 0.0056023
0.8543283 0.3960919 0.0045995
0.8710575 0.4032183 0.0045312
0.8783489 0.4078792 0.0048917
0.8817044 0.4080688 0.0055380
0.8829711 0.4008224 0.0063698
0.8907982 0.3903164 0.0071934
0.9101948 0.3821507 0.0077924
0.9376640 0.3776993 0.0081290
0.9679205 0.3758619 0.0082681
0.9915252 0.3753182 0.0083241
0.0092081 0.4047022 0.0083064
0.0334197 0.4034295 0.0083504
0.0657458 0.4015406 0.0084919
0.1003223 0.4013289 0.0089510
0.1361576 0.4055107 0.0100248
0.1659345 0.4115335 0.0114632
0.1859435 0.4188559 0.0130173
0.1992282 0.4282444 0.0145224
0.2138436 0.4473920 0.0164407
0.2333730 0.4694965 0.0179248
0.2663673 0.4736575 0.0177321
0.3306755 0.4518114 0.0158429
0.4146011 0.4192375 0.0137194
0.4670971 0.4048608 0.0147533
0.5023622 0.4225479 0.0210678
0.5270377 0.4325466 0.0247274
0.5541834 0.4266122 0.0213630
0.6006144 0.4119307 0.0138636
0.6476517 0.4132112 0.0101541
0.6958153 0.4123935 0.0124002
0.7488492 0.3985221 0.0175294
0.7787981 0.3976430 0.0158056
0.8138257 0.4062313 0.0089685
0.8492091 0.4110163 0.0053908
0.8800559 0.4194011 0.0045836
0.8938705 0.4261315 0.0047339
0.8933142 0.4267338 0.0052958
0.8883790 0.4217244 0.0062271
0.8925532 0.4153389 0.0072361
0.9104874 0.4105884 0.0078805
0.9375886 0.4081851 0.0082261
0.9679644 0.4074057 0.0082962
0.9915935 0.4071909 0.0082968
0.0087184 0.4369674 0.0082982
0.0329162 0.4365985 0.0083416
0.0657190 0.4361693 0.0084984
0.1008620 0.4363132 0.0089244
0.1367782 0.4378033 0.0098101
0.1687443 0.4398622 0.0110768
0.1950100 0.4449953 0.0128493
0.2165160 0.4575422 0.0154017
0.2316611 0.4776862 0.0181361
0.2480192 0.4968505 0.0201243
0.2771816 0.5081833 0.0207968
0.3204447 0.4988292 0.0194702
0.3803622 0.4702364 0.0169452
0.4281342 0.4590537 0.0172371
0.4833941 0.4659240 0.0221120
0.5154211 0.4620934 0.0249551
0.5422651 0.4506820 0.0215523
0.5930635 0.4324946 0.0132507
0.6342288 0.4285606 0.0098989
0.6756956 0.4287120 0.0126294
0.7311163 0.4185775 0.0184885
0.7626239 0.4198848 0.0182430
0.7950076 0.4302251 0.0138230
0.8345745 0.4332628 0.0082153
0.8674494 0.4362288 0.0059704
0.8849863 0.4391640 0.0053780
0.8867036 0.4396233 0.0056545
0.8840834 0.4389299 0.0068060
0.8904557 0.4385252 0.0080493
0.9100392 0.4386269 0.0084282
0.9382931 0.4396433 0.0084645
0.9687278 0.4402977 0.0083768
0.9918028 0.4400373 0.0083244
0.0085344 0.4686160 0.0082958
0.0325242 0.4684921 0.0083277
0.0647368 0.4682322 0.0084382
0.0984841 0.4676655 0.0087082
0.1326337 0.4669331 0.0092606
0.1659107 0.4674425 0.0103028
0.1970722 0.4726154 0.0122712
0.2215883 0.4827614 0.0152704
0.2348614 0.4942327 0.0181829
0.2484343 0.5071418 0.0204310
0.2798658 0.5252144 0.0222963
0.3190483 0.5321385 0.0223105
0.3581769 0.5252395 0.0207529
0.3996281 0.5220942 0.0199861
0.4623198 0.5209985 0.0214215
0.5024797 0.4987059 0.0217137
0.5324428 0.4794322 0.0187311
0.5810212 0.4628937 0.0131643
0.6284703 0.4557008 0.0111837
0.6688144 0.4540485 0.0130618
0.7148662 0.4474117 0.0170416
0.7526928 0.4463727 0.0198901
0.7862561 0.4528279 0.0209666
0.8142490 0.4571600 0.0130942
0.8392521 0.4606614 0.0091708
0.8592962 0.4592930 0.0075312
0.8690044 0.4585321 0.0072062
0.8746722 0.4602244 0.0084139
0.8875948 0.4641161 0.0093526
0.9121243 0.4694534 0.0090720
0.9421006 0.4738210 0.0086152
0.9708085 0.4746299 0.0084353
0.9921376 0.4736424 0.0083842
0.0084121 0.4999591 0.0082917
0.0321327 0.4998650 0.0083077
0.0636002 0.4995944 0.0083619
0.0962295 0.4991122 0.0085122
0.1298358 0.4986302 0.0089153
0.1643001 0.4986050 0.0098876
0.1969330 0.4997476 0.0117301
0.2219617 0.5017490 0.0143503
0.2373000 0.5051818 0.0171012
0.2533503 0.5163867 0.0199435
0.2818817 0.5370266 0.0228083
0.3167223 0.5502006 0.0238419
0.3498363 0.5537609 0.0232188
0.3929610 0.5586661 0.0224695
0.4569011 0.5672094 0.0227859
0.4940189 0.5563304 0.0215955
0.5189018 0.5313656 0.0179845
0.5589921 0.5079986 0.0141840
0.6112613 0.4951776 0.0130454
0.6536608 0.4907395 0.0142545
0.6937581 0.4852682 0.0173946
0.7407476 0.4769020 0.0228177
0.7751365 0.4745988 0.0234763
0.7971001 0.4779941 0.0147675
0.8184590 0.4846844 0.0118591
0.8369829 0.4871541 0.0118952
0.8539079 0.4886086 0.0123359
0.8697190 0.4908856 0.0123650
0.8913258 0.4957832 0.0105259
0.9213086 0.5037297 0.0090926
0.9497519 0.5078741 0.0086560
0.9742122 0.5076530 0.0085513
0.9926571 0.5061776 0.0084947
0.0083340 0.5312296 0.0082882
0.0318958 0.5311777 0.0082948
0.0629913 0.5310392 0.0083220
0.0951015 0.5307585 0.0084182
0.1282129 0.5301521 0.0087147
0.1621780 0.5288106 0.0094474
0.1946401 0.5263306 0.0108066
0.2222148 0.5236791 0.0128273
0.2457618 0.5254843 0.0156376
0.2692108 0.5362507 0.0192601
0.2923922 0.5513776 0.0225316
0.3200507 0.5669637 0.0247622
0.3517352 0.5784591 0.0256536
0.3946970 0.5871759 0.0254758
0.4556293 0.5970153 0.0252992
0.4920877 0.5907762 0.0232145
0.5130225 0.5637180 0.0188027
0.5408548 0.5413971 0.0154452
0.5818157 0.5311666 0.0140779
0.6242654 0.5262142 0.0145651
0.6636505 0.5206366 0.0164904
0.7154984 0.5094428 0.0209124
0.7532889 0.5043501 0.0210985
0.7806055 0.5075470 0.0159140
0.8065852 0.5148012 0.0159009
0.8289002 0.5208452 0.0185084
0.8521854 0.5269743 0.0210756
0.8757237 0.5300910 0.0188471
0.9041215 0.5313538 0.0120073
0.9349904 0.5340887 0.0090726
0.9594363 0.5354425 0.0087999
0.9786193 0.5351104 0.0087370
0.9933476 0.5343535 0.0086503
0.0083014 0.5624922 0.0082867
0.0318003 0.5624712 0.0082896
0.0627324 0.5623994 0.0083042
0.0944857 0.5621608 0.0083612
0.1268615 0.5614207 0.0085370
0.1597232 0.5596485 0.0089634
0.1920520 0.5565804 0.0098035
0.2233119 0.5538173 0.0113487
0.2539710 0.5546532 0.0139662
0.2821309 0.5600732 0.0174532
0.3070806 0.5697714 0.0212162
0.3317645 0.5827125 0.0246287
0.3628139 0.5978002 0.0272558
0.3987343 0.6077088 0.0280697
0.4433201 0.6139880 0.0274876
0.4828247 0.6069811 0.0248917
0.5065006 0.5805826 0.0201260
0.5299082 0.5670550 0.0169281
0.5644712 0.5618660 0.0149883
0.6074795 0.5552610 0.0142322
0.6450844 0.5509385 0.0146250
0.6901919 0.5454682 0.0168806
0.7318355 0.5434617 0.0183381
0.7688634 0.5464108 0.0183772
0.8003764 0.5498086 0.0202468
0.8292648 0.5535232 0.0234696
0.8568703 0.5575545 0.0255032
0.8824133 0.5587819 0.0216214
0.9152797 0.5568375 0.0126373
0.9468052 0.5547059 0.0091722
0.9680594 0.5538716 0.0089857
0.9826592 0.5547535 0.0089405
0.9939902 0.5563321 0.0088750
0.0082910 0.5937474 0.0082862
0.0317652 0.5937381 0.0082875
0.0626068 0.5936936 0.0082943
0.0940896 0.5935208 0.0083209
0.1258703 0.5929884 0.0084033
0.1579632 0.5917425 0.0086131
0.1904268 0.5897331 0.0091100
0.2235453 0.5877077 0.0101979
0.2569026 0.5867110 0.0122371
0.2884718 0.5879007 0.0154655
0.3153518 0.5922675 0.0196397
0.3389582 0.5996409 0.0239474
0.3606417 0.6076079 0.0268954
0.3907659 0.6154886 0.0283527
0.4286862 0.6219007 0.0285928
0.4590101 0.6176802 0.0264246
0.4802879 0.6051221 0.0226004
0.5097169 0.6031657 0.0196955
0.5475363 0.5998440 0.0167966
0.5930644 0.5908853 0.0144018
0.6299549 0.5865484 0.0131481
0.6681983 0.5848358 0.0132959
0.7142503 0.5827971 0.0149818
0.7555143 0.5817605 0.0172153
0.7905227 0.5815766 0.0200743
0.8250797 0.5821717 0.0230227
0.8543610 0.5825970 0.0238918
0.8818542 0.5816430 0.0196427
0.9186820 0.5766073 0.0119574
0.9514722 0.5704953 0.0091838
0.9716133 0.5678799 0.0091121
0.9843596 0.5706285 0.0093091
0.9943113 0.5755653 0.0096933
0.0082876 0.6249990 0.0082860
0.0317502 0.6249946 0.0082865
0.0625433 0.6249723 0.0082890
0.0938773 0.6248849 0.0082990
0.1253406 0.6246192 0.0083315
0.1570569 0.6240150 0.0084298
0.1893292 0.6229676 0.0087109
0.2225165 0.6214812 0.0094180
0.2566352 0.6198879 0.0110634
0.2892504 0.6183604 0.0141974
0.3152145 0.6164654 0.0184091
0.3336011 0.6155511 0.0226677
0.3466932 0.6160352 0.0257017
0.3664120 0.6194144 0.0276044
0.3988416 0.6223336 0.0283301
0.4325893 0.6201981 0.0271521
0.4601416 0.6188583 0.0250978
0.4917659 0.6250128 0.0229368
0.5311660 0.6297293 0.0194685
0.5760251 0.6305934 0.0160893
0.6133222 0.6287249 0.0136332
0.6515983 0.6252056 0.0121338
0.6983420 0.6198859 0.0127601
0.7408512 0.6160584 0.0157527
0.7780290 0.6143287 0.0194474
0.8133775 0.6123471 0.0205408
0.8441516 0.6107012 0.0192106
0.8757223 0.6080486 0.0147487
0.9138975 0.6001377 0.0103211
0.9468256 0.5911104 0.0091317
0.9681697 0.5873804 0.0094002
0.9828671 0.5916649 0.0104869
0.9942380 0.5991125 0.0121096
0.0082864 0.6562496 0.0082859
0.0317441 0.6562480 0.0082861
0.0625169 0.6562396 0.0082868
0.0937899 0.6562067 0.0082900
0.1251258 0.6561079 0.0083024
0.1566335 0.6558695 0.0083491
0.1885991 0.6553500 0.0085150
0.2214608 0.6542351 0.0090155
0.2550807 0.6520164 0.0102495
0.2872624 0.6480916 0.0126039
0.3141622 0.6423374 0.0158914
0.3340847 0.6362805 0.0195811
0.3487979 0.6320167 0.0231475
0.3638499 0.6314822 0.0260902
0.3876578 0.6341557 0.0281683
0.4210140 0.6351980 0.0288132
0.4560903 0.6351677 0.0279347
0.4837454 0.6399661 0.0256615
0.5180997 0.6484034 0.0218818
0.5602461 0.6563510 0.0180420
0.6004391 0.6586836 0.0149132
0.6404240 0.6575316 0.0124069
0.6843311 0.6547518 0.0120938
0.7282078 0.6511952 0.0152760
0.7662508 0.6483895 0.0185335
0.8000666 0.6458715 0.0181867
0.8321217 0.6437083 0.0153201
0.8665026 0.6398878 0.0114448
0.9035220 0.6315469 0.0096895
0.9359223 0.6225485 0.0097815
0.9600580 0.6188942 0.0105893
0.9792933 0.6229852 0.0126511
0.9938359 0.6295995 0.0149094
0.0082860 0.6874999 0.0082859
0.0317422 0.6874994 0.0082859
0.0625084 0.6874970 0.0082861
0.0937619 0.6874874 0.0082871
0.1250506 0.6874567 0.0082925
0.1564432 0.6873576 0.0083168
0.1881322 0.6870427 0.0084130
0.2203904 0.6861367 0.0087170
0.2530352 0.6839429 0.0094488
0.2848812 0.6797927 0.0108342
0.3141053 0.6734552 0.0129976
0.3392808 0.6654851 0.0159853
0.3601323 0.6577719 0.0196678
0.3785926 0.6527259 0.0236451
0.3969122 0.6510020 0.0271729
0.4232274 0.6520156 0.0295855
0.4558978 0.6537527 0.0297414
0.4804204 0.6576134 0.0279588
0.5094958 0.6652412 0.0247690
0.5475178 0.6738031 0.0205779
0.5899377 0.6800546 0.0167784
0.6329319 0.6841225 0.0136417
0.6763871 0.6860815 0.0120983
0.7190448 0.6849372 0.0130883
0.7572727 0.6824071 0.0151559
0.7905291 0.6806709 0.0153976
0.8228034 0.6790671 0.0134644
0.8571969 0.6755750 0.0111001
0.8926145 0.6691208 0.0108160
0.9247088 0.6623652 0.0116491
0.9516993 0.6593489 0.0127452
0.9755046 0.6611772 0.0146556
0.9932030 0.6643254 0.0163116
0.0082859 0.7187500 0.0082859
0.0317417 0.7187499 0.0082859
0.0625063 0.7187493 0.0082860
0.0937540 0.7187467 0.0082863
0.1250212 0.7187356 0.0082887
0.1563405 0.7186854 0.0083004
0.1878027 0.7184911 0.0083461
0.2195221 0.7178930 0.0084878
0.2514513 0.7164224 0.0088356
0.2832278 0.7134350 0.0095511
0.3141522 0.7082384 0.0108584
0.3433386 0.7006223 0.0130240
0.3700109 0.6912889 0.0162304
0.3930234 0.6814758 0.0203610
0.4136030 0.6730816 0.0248301
0.4360282 0.6684564 0.0282119
0.4634013 0.6681310 0.0296823
0.4860510 0.6706401 0.0290925
0.5101700 0.6776500 0.0264638
0.5448892 0.6884210 0.0222236
0.5865997 0.6996027 0.0182281
0.6304938 0.7093456 0.0151506
0.6735398 0.7154728 0.0130097
0.7137742 0.7169416 0.0118558
0.7515039 0.7158713 0.0121415
0.7853213 0.7148777 0.0127023
0.8175846 0.7138242 0.0126519
0.8507715 0.7115426 0.0118243
0.8846429 0.7074568 0.0117450
0.9165355 0.7032217 0.0127040
0.9456013 0.7008444 0.0139898
0.9726267 0.7003086 0.0158593
0.9926328 0.7007645 0.0178852
0.0082859 0.7500000 0.0082859
0.0317416 0.7500000 0.0082859
0.0625058 0.7499998 0.0082859
0.0937514 0.7499990 0.0082860
0.1250078 0.7499942 0.0082869
