looks/fujifilm_velvia.cube
TITLE "Fujifilm velvia pooled norm (16 pairs)"
LUT_3D_SIZE 5
0.0104089 0.0087607 0.0082540
0.2103062 0.0140949 0.0107502
0.6067989 0.0271676 0.0195332
0.7926976 0.0302973 0.0324363
0.9914908 0.0085607 0.0085787
0.0296108 0.2419583 0.0098526
0.2548570 0.2454112 0.0097791
0.6814687 0.2380677 0.0057994
0.7857716 0.2826026 0.0071504
0.9912679 0.2495607 0.0103944
0.0084121 0.4999591 0.0082917
0.2373000 0.5051818 0.0171012
0.5189018 0.5313656 0.0179845
0.8184590 0.4846844 0.0118591
0.9926571 0.5061776 0.0084947
0.0082859 0.7500000 0.0082859
0.2506102 0.7488119 0.0085050
0.4748891 0.6873864 0.0269218
0.7480316 0.7482429 0.0111090
0.9922794 0.7360809 0.0164285
0.0082859 0.9917141 0.0082859
0.2500000 0.9917141 0.0082859
0.5000601 0.9915450 0.0083290
0.7499326 0.9914896 0.0084246
0.9917222 0.9913204 0.0085902
0.0190021 0.0516140 0.2523250
0.2615428 0.0354112 0.2503149
0.5142476 0.0227662 0.2389526
0.7597253 0.0212262 0.2429866
0.9914297 0.0091880 0.2496599
0.0216634 0.2459363 0.2624039
0.3008282 0.3115625 0.3151797
0.5959861 0.2550883 0.2475570
0.8351703 0.2620715 0.2634564
0.9637539 0.2651107 0.2617812
0.0110472 0.5016276 0.2474270
0.1565877 0.5337362 0.1682353
0.5600495 0.5409511 0.2476957
0.8550266 0.5324568 0.2702737
0.9935638 0.5253645 0.2505497
0.0082893 0.7499918 0.2499995
0.2464104 0.7458622 0.2472823
0.5274861 0.7107393 0.2632771
0.7921940 0.6778499 0.3328823
0.9959580 0.6878863 0.3512354
0.0082859 0.9917141 0.2500000
0.2500000 0.9917140 0.2500000
0.5004632 0.9906932 0.2501734
0.7491714 0.9793521 0.2533563
0.9964967 0.8153318 0.3169345
0.0086027 0.0162100 0.5037715
0.2554119 0.0206327 0.5092989
0.5271149 0.0332852 0.5203843
0.7504545 0.0104630 0.5014731
0.9917137 0.0082880 0.4999992
0.0235360 0.2876308 0.5945020
0.3163216 0.2927300 0.6332651
0.6148480 0.2937020 0.6195897
0.8247880 0.2994129 0.6009888
0.9823512 0.2727373 0.4954016
0.0102847 0.4972322 0.5056797
0.1829044 0.5055336 0.4732623
0.5756568 0.5821744 0.6036207
0.7504867 0.5036895 0.4948535
0.9159149 0.4929849 0.5357997
0.0082868 0.7499980 0.4999972
0.2488992 0.7484666 0.4977816
0.4347873 0.7228692 0.4372906
0.7279677 0.7213574 0.5115793
0.9465167 0.6964852 0.5221108
0.0082859 0.9917141 0.5000000
0.2500001 0.9917140 0.4999999
0.5000861 0.9896120 0.4989722
0.7439669 0.9607821 0.4961409
0.9973897 0.8443919 0.4990724
0.0082901 0.0083904 0.7500148
0.2500056 0.0083461 0.7499956
0.5000505 0.0083643 0.7499850
0.7500072 0.0083068 0.7499992
0.9917141 0.0082860 0.7500000
0.0130228 0.3244550 0.8155746
0.2880259 0.3049248 0.7707129
0.5333845 0.2922605 0.7581402
0.7798678 0.2896785 0.7502654
0.9909982 0.2516784 0.7507163
0.0279439 0.5046228 0.8065202
0.2513241 0.5321710 0.7595946
0.5628983 0.5420442 0.7968302
0.8009568 0.5414445 0.8074827
0.9655798 0.5144042 0.7466920
0.0083166 0.7499135 0.7500545
0.3298402 0.7181497 0.7382010
0.4839844 0.7152099 0.7344449
0.7190028 0.7292154 0.7482525
0.8906465 0.6686234 0.6640315
0.0082859 0.9917141 0.7500000
0.2502357 0.9914852 0.7499933
0.5004093 0.9874199 0.7494905
0.7270346 0.9278022 0.7034221
0.9570825 0.8639101 0.7260479
0.0082859 0.0082859 0.9917141
0.2500000 0.0082859 0.9917141
0.5000000 0.0082859 0.9917141
0.7500000 0.0082859 0.9917141
0.9917141 0.0082859 0.9917141
0.0084039 0.2507867 0.9914063
0.2500144 0.2502120 0.9915816
0.5000188 0.2500487 0.9916713
0.7500303 0.2500896 0.9916789
0.9917119 0.2500183 0.9917098
0.0289891 0.5414834 0.9597912
0.2406951 0.5419322 0.9542307
0.5005530 0.5073509 0.9857242
0.7582387 0.5146381 0.9811235
0.9869972 0.5117918 0.9847990
0.0146657 0.7431685 0.9913166
0.2483027 0.6967754 0.9930487
0.4908646 0.7322631 0.9653150
0.7356313 0.7204616 0.8983849
0.9418220 0.7408018 0.9466856
0.0082859 0.9917140 0.9917141
0.2515239 0.9902208 0.9906760
0.5015063 0.9888854 0.9912486
0.7690548 0.9376311 0.9958928
0.9077181 0.9194800 0.9381499
