looks/lab_noir.cube
TITLE "Latent Lab noir (34 scenes)"
LUT_3D_SIZE 5
0.0001891 0.0001891 0.0001891
0.1193453 0.1193453 0.1193453
0.3590398 0.3590398 0.3590398
0.2556671 0.2556671 0.2556671
0.3360953 0.3360953 0.3360953
0.0782077 0.0782077 0.0782077
0.2816510 0.2816510 0.2816510
0.4562382 0.4562382 0.4562382
0.4269011 0.4269011 0.4269011
0.4166797 0.4166797 0.4166797
0.1722270 0.1722270 0.1722270
0.3395816 0.3395816 0.3395816
0.5463485 0.5463485 0.5463485
0.6419004 0.6419004 0.6419004
0.5003237 0.5003237 0.5003237
0.2555239 0.2555239 0.2555239
0.3361246 0.3361246 0.3361246
0.4608734 0.4608734 0.4608734
0.6587558 0.6587558 0.6587558
0.5839630 0.5839630 0.5839630
0.3360953 0.3360953 0.3360953
0.4166667 0.4166667 0.4166667
0.5000904 0.5000904 0.5000904
0.5837503 0.5837503 0.5837503
0.6639048 0.6639048 0.6639048
0.0106495 0.0106495 0.0106495
0.1813112 0.1813112 0.1813112
0.2636019 0.2636019 0.2636019
0.3361748 0.3361748 0.3361748
0.4166667 0.4166667 0.4166667
0.0828690 0.0828690 0.0828690
0.2393253 0.2393253 0.2393253
0.4259732 0.4259732 0.4259732
0.4976704 0.4976704 0.4976704
0.4980350 0.4980350 0.4980350
0.2504839 0.2504839 0.2504839
0.4078570 0.4078570 0.4078570
0.6305243 0.6305243 0.6305243
0.6997070 0.6997070 0.6997070
0.6563230 0.6563230 0.6563230
0.3360951 0.3360951 0.3360951
0.4167841 0.4167841 0.4167841
0.6901169 0.6901169 0.6901169
0.7924843 0.7924843 0.7924843
0.8559878 0.8559878 0.8559878
0.4166667 0.4166667 0.4166667
0.4972380 0.4972380 0.4972380
0.5876933 0.5876933 0.5876933
0.6946162 0.6946162 0.6946162
0.7446015 0.7446015 0.7446015
0.1021370 0.1021370 0.1021370
0.2529580 0.2529580 0.2529580
0.3361964 0.3361964 0.3361964
0.4194288 0.4194288 0.4194288
0.5000000 0.5000000 0.5000000
0.0916595 0.0916595 0.0916595
0.3046902 0.3046902 0.3046902
0.5554467 0.5554467 0.5554467
0.5016704 0.5016704 0.5016704
0.5806535 0.5806535 0.5806535
0.2787994 0.2787994 0.2787994
0.4217701 0.4217701 0.4217701
0.5590962 0.5590962 0.5590962
0.7417994 0.7417994 0.7417994
0.6996558 0.6996558 0.6996558
0.4180031 0.4180031 0.4180031
0.5027133 0.5027133 0.5027133
0.8377036 0.8377036 0.8377036
0.8781369 0.8781369 0.8781369
0.9436512 0.9436512 0.9436512
0.4999995 0.4999995 0.4999995
0.5805712 0.5805712 0.5805712
0.6716517 0.6716517 0.6716517
0.8193309 0.8193309 0.8193309
0.8305136 0.8305136 0.8305136
0.2554506 0.2554506 0.2554506
0.3360924 0.3360924 0.3360924
0.4194286 0.4194286 0.4194286
0.5027620 0.5027620 0.5027620
0.5833333 0.5833333 0.5833333
0.2135554 0.2135554 0.2135554
0.3916359 0.3916359 0.3916359
0.5039179 0.5039179 0.5039179
0.5834513 0.5834513 0.5834513
0.6639047 0.6639047 0.6639047
0.2430781 0.2430781 0.2430781
0.4949763 0.4949763 0.4949763
0.6750404 0.6750404 0.6750404
0.7641681 0.7641681 0.7641681
0.7473013 0.7473013 0.7473013
0.4258231 0.4258231 0.4258231
0.6527139 0.6527139 0.6527139
0.8779801 0.8779801 0.8779801
0.8723390 0.8723390 0.8723390
0.8746429 0.8746429 0.8746429
0.5832970 0.5832970 0.5832970
0.6637732 0.6637732 0.6637732
0.7527875 0.7527875 0.7527875
0.8892786 0.8892786 0.8892786
0.9217576 0.9217576 0.9217576
0.3360953 0.3360953 0.3360953
0.4166667 0.4166667 0.4166667
0.5000000 0.5000000 0.5000000
0.5833333 0.5833333 0.5833333
0.6639047 0.6639047 0.6639047
0.4065570 0.4065570 0.4065570
0.4966460 0.4966460 0.4966460
0.5805723 0.5805723 0.5805723
0.6639047 0.6639047 0.6639047
0.7444761 0.7444761 0.7444761
0.2455484 0.2455484 0.2455484
0.5038215 0.5038215 0.5038215
0.6633847 0.6633847 0.6633847
0.7480964 0.7480964 0.7480964
0.8278100 0.8278100 0.8278100
0.3396426 0.3396426 0.3396426
0.6597502 0.6597502 0.6597502
0.8323748 0.8323748 0.8323748
0.8830793 0.8830793 0.8830793
0.9122492 0.9122492 0.9122492
0.6140271 0.6140271 0.6140271
0.7438124 0.7438124 0.7438124
0.8529590 0.8529590 0.8529590
0.9363395 0.9363395 0.9363395
0.9835584 0.9835584 0.9835584
