looks/lab_infrared.cube
TITLE "Latent Lab infrared (34 scenes)"
LUT_3D_SIZE 5
0.0580910 0.0580910 0.0580910
0.1878242 0.1878242 0.1878242
0.2988636 0.2988636 0.2988636
0.2977976 0.2977976 0.2977976
0.3360955 0.3360955 0.3360955
0.1731482 0.1731482 0.1731482
0.3577851 0.3577851 0.3577851
0.5581486 0.5581486 0.5581486
0.5862715 0.5862715 0.5862715
0.4169251 0.4169251 0.4169251
0.1727445 0.1727445 0.1727445
0.3915621 0.3915621 0.3915621
0.6163737 0.6163737 0.6163737
0.7413194 0.7413194 0.7413194
0.5015327 0.5015327 0.5015327
0.2555239 0.2555239 0.2555239
0.3372273 0.3372273 0.3372273
0.6647754 0.6647754 0.6647754
0.8291374 0.8291374 0.8291374
0.6025496 0.6025496 0.6025496
0.3360953 0.3360953 0.3360953
0.4166667 0.4166667 0.4166667
0.5041516 0.5041516 0.5041516
0.8034142 0.8034142 0.8034142
0.6829386 0.6829386 0.6829386
0.0371069 0.0371069 0.0371069
0.1315739 0.1315739 0.1315739
0.2452935 0.2452935 0.2452935
0.3361995 0.3361995 0.3361995
0.4166667 0.4166667 0.4166667
0.0738203 0.0738203 0.0738203
0.2554702 0.2554702 0.2554702
0.3847548 0.3847548 0.3847548
0.4626199 0.4626199 0.4626199
0.4973073 0.4973073 0.4973073
0.2458064 0.2458064 0.2458064
0.3820173 0.3820173 0.3820173
0.5372454 0.5372454 0.5372454
0.7250635 0.7250635 0.7250635
0.5911024 0.5911024 0.5911024
0.3360902 0.3360902 0.3360902
0.4197341 0.4197341 0.4197341
0.6319139 0.6319139 0.6319139
0.8241783 0.8241783 0.8241783
0.6911602 0.6911602 0.6911602
0.4166667 0.4166667 0.4166667
0.4972381 0.4972381 0.4972381
0.5818092 0.5818092 0.5818092
0.8189476 0.8189476 0.8189476
0.7975093 0.7975093 0.7975093
0.0819420 0.0819420 0.0819420
0.2519373 0.2519373 0.2519373
0.3356279 0.3356279 0.3356279
0.4194285 0.4194285 0.4194285
0.5000000 0.5000000 0.5000000
0.0317839 0.0317839 0.0317839
0.1838547 0.1838547 0.1838547
0.3280692 0.3280692 0.3280692
0.4993377 0.4993377 0.4993377
0.5805718 0.5805718 0.5805718
0.1937448 0.1937448 0.1937448
0.2224728 0.2224728 0.2224728
0.4774340 0.4774340 0.4774340
0.5960962 0.5960962 0.5960962
0.6670290 0.6670290 0.6670290
0.3748964 0.3748964 0.3748964
0.4733467 0.4733467 0.4733467
0.5879225 0.5879225 0.5879225
0.7738775 0.7738775 0.7738775
0.7606715 0.7606715 0.7606715
0.4997915 0.4997915 0.4997915
0.5803564 0.5803564 0.5803564
0.6635055 0.6635055 0.6635055
0.9012225 0.9012225 0.9012225
0.8774996 0.8774996 0.8774996
0.2209078 0.2209078 0.2209078
0.3360557 0.3360557 0.3360557
0.4194286 0.4194286 0.4194286
0.5027620 0.5027620 0.5027620
0.5833333 0.5833333 0.5833333
0.1766574 0.1766574 0.1766574
0.3776247 0.3776247 0.3776247
0.4945854 0.4945854 0.4945854
0.5832164 0.5832164 0.5832164
0.6639047 0.6639047 0.6639047
0.0770084 0.0770084 0.0770084
0.1130844 0.1130844 0.1130844
0.3543328 0.3543328 0.3543328
0.5567598 0.5567598 0.5567598
0.7423726 0.7423726 0.7423726
0.2159115 0.2159115 0.2159115
0.3424137 0.3424137 0.3424137
0.4188972 0.4188972 0.4188972
0.6960820 0.6960820 0.6960820
0.7895582 0.7895582 0.7895582
0.5661269 0.5661269 0.5661269
0.5234321 0.5234321 0.5234321
0.6515645 0.6515645 0.6515645
0.7962277 0.7962277 0.7962277
0.9021824 0.9021824 0.9021824
0.3356328 0.3356328 0.3356328
0.4166662 0.4166662 0.4166662
0.5000000 0.5000000 0.5000000
0.5833333 0.5833333 0.5833333
0.6639047 0.6639047 0.6639047
0.4003842 0.4003842 0.4003842
0.4922324 0.4922324 0.4922324
0.5805559 0.5805559 0.5805559
0.6639039 0.6639039 0.6639039
0.7444761 0.7444761 0.7444761
0.0771600 0.0771600 0.0771600
0.1804497 0.1804497 0.1804497
0.5662390 0.5662390 0.5662390
0.6802315 0.6802315 0.6802315
0.8255905 0.8255905 0.8255905
0.0673795 0.0673795 0.0673795
0.4041931 0.4041931 0.4041931
0.3449353 0.3449353 0.3449353
0.5880570 0.5880570 0.5880570
0.7426859 0.7426859 0.7426859
0.2014849 0.2014849 0.2014849
0.7231430 0.7231430 0.7231430
0.5966436 0.5966436 0.5966436
0.6890962 0.6890962 0.6890962
0.9481853 0.9481853 0.9481853
