looks/lab_velvia_punch.cube
TITLE "Fujifilm lab_velvia_punch pooled norm (16 pairs)"
LUT_3D_SIZE 33
0.0087854 0.0068010 0.0063780
0.0221083 0.0092520 0.0073092
0.0446462 0.0072752 0.0049948
0.0680207 0.0049568 0.0029274
0.0975464 0.0041041 0.0023841
0.1335166 0.0042531 0.0021804
0.1635040 0.0044296 0.0017821
0.1786956 0.0052002 0.0013783
0.2208611 0.0091605 0.0016325
0.3158651 0.0110632 0.0021061
0.4200938 0.0095359 0.0022527
0.4755861 0.0092970 0.0020087
0.5049126 0.0098609 0.0019046
0.5522131 0.0106304 0.0020173
0.5947849 0.0109511 0.0021723
0.6226805 0.0108111 0.0024009
0.6404728 0.0102788 0.0027696
0.6712209 0.0100867 0.0030592
0.6995459 0.0108641 0.0031791
0.7156305 0.0123713 0.0033098
0.7264286 0.0110947 0.0039277
0.7532644 0.0070338 0.0053677
0.7778407 0.0054482 0.0070507
0.7859681 0.0057046 0.0077066
0.7884818 0.0064041 0.0079246
0.7985950 0.0071010 0.0081662
0.8194160 0.0075893 0.0083441
0.8463953 0.0079406 0.0083741
0.8756889 0.0081411 0.0083353
0.9062641 0.0082335 0.0083043
0.9374330 0.0082724 0.0082913
0.9682264 0.0082858 0.0082867
0.9916970 0.0082885 0.0082853
0.0088014 0.0106566 0.0062833
0.0203654 0.0165660 0.0083017
0.0403461 0.0189964 0.0077507
0.0634983 0.0171435 0.0048006
0.0921917 0.0152932 0.0029666
0.1258133 0.0152650 0.0022236
0.1599098 0.0157830 0.0017892
0.1973220 0.0181070 0.0013863
0.2576185 0.0270501 0.0014219
0.3290031 0.0283273 0.0016847
0.3904104 0.0211840 0.0019744
0.4466470 0.0193845 0.0019874
0.4882773 0.0192441 0.0020210
0.5422690 0.0168981 0.0021630
0.5875975 0.0160007 0.0023138
0.6202197 0.0159976 0.0024834
0.6477737 0.0154050 0.0026949
0.6781649 0.0145833 0.0028766
0.7045339 0.0151133 0.0029740
0.7205884 0.0169943 0.0031113
0.7321988 0.0169811 0.0037917
0.7595752 0.0144381 0.0053989
0.7839236 0.0138364 0.0072088
0.7907411 0.0160740 0.0078762
0.7924747 0.0201714 0.0080920
0.8034753 0.0240986 0.0083792
0.8236493 0.0269708 0.0084993
0.8482363 0.0290873 0.0084430
0.8760945 0.0305128 0.0083584
0.9062951 0.0312750 0.0083063
0.9374182 0.0315940 0.0082858
0.9682058 0.0317003 0.0082819
0.9916768 0.0317286 0.0082831
0.0081797 0.0194388 0.0053945
0.0179717 0.0301122 0.0075126
0.0368461 0.0373960 0.0098420
0.0618431 0.0366718 0.0073552
0.0914211 0.0346885 0.0044324
0.1245271 0.0339649 0.0025977
0.1649873 0.0353751 0.0016852
0.2164719 0.0394167 0.0013834
0.2790117 0.0458303 0.0014422
0.3374172 0.0467720 0.0015849
0.3785838 0.0441389 0.0019592
0.4226188 0.0448741 0.0021598
0.4642686 0.0443702 0.0022853
0.5228729 0.0383736 0.0025499
0.5669325 0.0352883 0.0027537
0.6006649 0.0361045 0.0028926
0.6317589 0.0341313 0.0030176
0.6638402 0.0284115 0.0031737
0.6912541 0.0265695 0.0032828
0.7112297 0.0276624 0.0034619
0.7301663 0.0273938 0.0042443
0.7595871 0.0259715 0.0059609
0.7841725 0.0264896 0.0077701
0.7918550 0.0309147 0.0083450
0.7964162 0.0382580 0.0084287
0.8107236 0.0448306 0.0086529
0.8288072 0.0505278 0.0086575
0.8502092 0.0556197 0.0085034
0.8766302 0.0592551 0.0083655
0.9064405 0.0612102 0.0082866
0.9374512 0.0620303 0.0082651
0.9681756 0.0623280 0.0082716
0.9916363 0.0624330 0.0082792
0.0081130 0.0367183 0.0044655
0.0156427 0.0484276 0.0050989
0.0318159 0.0585592 0.0068214
0.0572144 0.0599001 0.0075117
0.0901035 0.0574309 0.0067143
0.1271377 0.0558943 0.0042784
0.1706014 0.0566966 0.0024172
0.2239227 0.0602549 0.0016351
0.2820184 0.0646278 0.0014270
0.3385050 0.0678716 0.0015104
0.3867315 0.0691863 0.0018646
0.4273477 0.0705190 0.0021029
0.4642107 0.0735800 0.0023345
0.5115932 0.0749119 0.0027688
0.5437373 0.0751087 0.0030640
0.5760438 0.0798224 0.0032895
0.6040007 0.0774623 0.0034892
0.6374371 0.0658390 0.0037805
0.6648259 0.0590395 0.0039530
0.6876446 0.0558665 0.0041923
0.7163166 0.0498129 0.0050752
0.7473204 0.0465259 0.0065201
0.7724581 0.0468136 0.0080504
0.7854100 0.0515589 0.0085616
0.7973436 0.0591289 0.0085934
0.8143317 0.0661904 0.0087629
0.8311038 0.0742300 0.0086993
0.8512515 0.0822996 0.0084870
0.8771959 0.0881118 0.0083166
0.9067976 0.0912454 0.0082323
0.9375436 0.0926349 0.0082332
0.9681305 0.0932665 0.0082589
0.9915802 0.0935444 0.0082742
0.0099763 0.0648429 0.0031481
0.0165689 0.0714382 0.0028253
0.0318974 0.0871935 0.0035243
0.0545454 0.0935417 0.0062547
0.0858706 0.0888476 0.0082755
0.1262664 0.0835533 0.0057398
0.1743052 0.0822415 0.0036821
0.2289887 0.0842058 0.0026740
0.2865843 0.0876415 0.0019660
0.3457124 0.0926914 0.0016345
0.4017699 0.0974025 0.0016357
0.4500950 0.0999982 0.0017500
0.4909933 0.1017042 0.0020091
0.5278695 0.1026197 0.0024439
0.5543206 0.1055757 0.0027816
0.5852233 0.1134365 0.0032804
0.6065769 0.1182846 0.0037740
0.6349509 0.1199452 0.0042574
0.6522599 0.1157528 0.0044924
0.6668183 0.1110637 0.0046784
0.6956750 0.1014952 0.0055212
0.7242575 0.0921773 0.0067260
0.7504499 0.0833393 0.0080638
0.7718911 0.0827116 0.0086939
0.7927070 0.0868714 0.0087764
0.8118321 0.0928016 0.0087659
0.8297218 0.1016024 0.0085998
0.8512460 0.1107344 0.0083739
0.8777442 0.1173483 0.0082214
0.9072444 0.1210391 0.0081746
0.9376518 0.1229704 0.0082066
0.9680873 0.1240717 0.0082480
0.9915290 0.1246018 0.0082696
0.0156188 0.1062410 0.0031800
0.0242705 0.1124942 0.0023354
0.0400889 0.1334808 0.0022267
0.0590097 0.1414448 0.0039924
0.0834739 0.1328589 0.0056311
0.1212709 0.1226257 0.0044688
0.1740742 0.1183898 0.0041067
0.2333788 0.1179270 0.0040912
0.2925554 0.1183826 0.0034852
0.3542406 0.1223347 0.0027184
0.4143881 0.1280714 0.0021322
0.4689472 0.1325794 0.0018539
0.5162496 0.1353134 0.0018637
0.5562478 0.1352371 0.0020614
0.5869160 0.1348346 0.0023323
0.6129507 0.1357416 0.0028657
0.6320019 0.1405260 0.0034061
0.6592149 0.1514533 0.0037939
0.6698876 0.1583401 0.0040326
0.6771626 0.1685340 0.0042718
0.6935470 0.1772109 0.0050063
0.7081889 0.1653308 0.0061941
0.7292767 0.1395058 0.0075758
0.7547964 0.1270838 0.0083612
0.7809647 0.1243671 0.0085637
0.8040512 0.1273987 0.0085589
0.8260030 0.1344054 0.0084068
0.8504049 0.1418880 0.0082421
0.8780661 0.1475651 0.0081377
0.9075170 0.1510762 0.0081399
0.9377015 0.1533908 0.0081956
0.9680723 0.1549201 0.0082434
0.9915122 0.1556733 0.0082677
0.0267881 0.1737400 0.0042544
0.0371039 0.1770384 0.0030500
0.0497710 0.1867166 0.0022803
0.0664131 0.1921466 0.0025469
0.0876356 0.1860914 0.0033352
0.1192990 0.1733514 0.0035612
0.1692712 0.1646426 0.0035812
0.2310563 0.1619682 0.0042699
0.2937626 0.1599233 0.0050301
0.3580257 0.1597399 0.0049553
0.4190823 0.1617037 0.0039257
0.4753442 0.1655182 0.0029120
0.5275469 0.1705264 0.0023844
0.5750556 0.1761220 0.0022615
0.6157678 0.1795415 0.0023018
0.6455603 0.1735868 0.0025175
0.6679292 0.1690428 0.0028327
0.6894611 0.1743549 0.0030101
0.7008851 0.1861916 0.0030823
0.7087665 0.2052114 0.0032807
0.7141993 0.2258380 0.0040475
0.7157101 0.2225107 0.0052753
0.7235146 0.2019180 0.0064804
0.7425610 0.1834372 0.0073123
0.7690287 0.1718725 0.0079073
0.7957640 0.1702926 0.0082178
0.8217809 0.1729589 0.0082298
0.8489123 0.1760683 0.0081696
0.8778650 0.1792876 0.0081226
0.9074960 0.1820578 0.0081478
0.9376966 0.1843784 0.0082043
0.9681041 0.1860252 0.0082479
0.9915434 0.1868398 0.0082700
0.0286226 0.2108003 0.0051778
0.0416577 0.2108405 0.0040009
0.0566746 0.2170299 0.0028522
0.0743164 0.2291228 0.0021901
0.0943836 0.2341494 0.0022735
0.1208017 0.2282684 0.0030001
0.1647343 0.2174442 0.0032070
0.2237061 0.2109081 0.0032755
0.2865480 0.2066989 0.0045854
0.3523604 0.2029038 0.0062823
0.4135220 0.1991819 0.0064920
0.4701999 0.2003130 0.0054716
0.5242742 0.2048764 0.0042231
0.5775195 0.2132518 0.0034963
0.6271420 0.2206786 0.0030843
0.6671626 0.2198618 0.0028033
0.6950762 0.2143717 0.0026339
0.7163758 0.2131595 0.0025769
0.7324185 0.2190310 0.0025696
0.7378151 0.2331913 0.0027475
0.7416359 0.2564239 0.0036009
0.7424136 0.2636448 0.0048266
0.7403473 0.2526512 0.0059896
0.7485604 0.2381164 0.0069943
0.7691837 0.2270832 0.0077240
0.7937092 0.2219580 0.0080705
0.8196013 0.2179163 0.0081536
0.8475691 0.2142399 0.0081613
0.8771586 0.2134292 0.0081581
0.9071908 0.2144573 0.0081862
0.9376670 0.2161015 0.0082277
0.9681703 0.2174437 0.0082593
0.9915983 0.2181276 0.0082750
0.0238441 0.2352004 0.0061936
0.0424349 0.2350218 0.0051561
0.0647415 0.2415556 0.0036736
0.0827271 0.2522838 0.0024474
0.0989007 0.2638898 0.0018975
0.1218524 0.2732115 0.0022184
0.1607005 0.2706903 0.0027474
0.2154544 0.2630720 0.0026233
0.2763042 0.2553239 0.0030849
0.3394511 0.2487185 0.0051643
0.4005532 0.2426562 0.0077055
0.4594775 0.2416135 0.0085622
0.5165184 0.2403497 0.0076724
0.5740473 0.2454600 0.0063575
0.6272559 0.2549529 0.0054251
0.6726887 0.2592635 0.0045481
0.7087780 0.2584341 0.0037133
0.7364325 0.2593887 0.0032033
0.7568250 0.2646786 0.0030098
0.7664685 0.2740960 0.0031350
0.7768314 0.2912351 0.0039194
0.7767170 0.2981186 0.0049532
0.7693990 0.2940910 0.0061505
0.7718195 0.2888393 0.0072895
0.7866866 0.2834910 0.0080089
0.8033316 0.2743064 0.0082339
0.8229418 0.2636014 0.0082680
0.8480659 0.2553669 0.0082688
0.8767840 0.2505312 0.0082489
0.9069246 0.2485635 0.0082490
0.9376435 0.2485729 0.0082611
0.9682214 0.2491533 0.0082725
0.9916421 0.2495370 0.0082795
0.0193900 0.2674552 0.0069551
0.0429803 0.2666864 0.0060133
0.0699869 0.2678924 0.0046017
0.0899414 0.2719741 0.0032470
0.1040556 0.2825764 0.0023060
0.1216062 0.3000430 0.0019498
0.1524570 0.3109977 0.0022804
0.2026582 0.3135963 0.0026144
0.2658994 0.3075346 0.0024563
0.3266405 0.2958337 0.0033178
0.3846711 0.2864652 0.0058648
0.4435360 0.2803005 0.0087722
0.5066226 0.2720937 0.0106483
0.5708591 0.2765491 0.0103310
0.6271561 0.2897163 0.0094841
0.6719928 0.2976323 0.0083686
0.7109601 0.2990129 0.0068794
0.7407243 0.2975851 0.0054056
0.7672336 0.3010453 0.0045556
0.7912915 0.3098413 0.0043716
0.8069919 0.3202516 0.0046434
0.8073459 0.3265740 0.0053821
0.8034073 0.3319568 0.0065461
0.8054373 0.3343953 0.0075814
0.8138661 0.3316498 0.0082037
0.8203290 0.3197539 0.0083970
0.8319504 0.3060598 0.0084725
0.8521833 0.2955999 0.0084859
0.8781863 0.2883148 0.0084286
0.9072180 0.2839002 0.0083592
0.9376462 0.2817875 0.0083099
0.9682021 0.2811716 0.0082886
0.9916459 0.2810825 0.0082848
0.0161484 0.3033610 0.0074356
0.0411524 0.3006470 0.0067559
0.0707899 0.2973303 0.0056821
0.0947206 0.2975973 0.0044475
0.1126388 0.3055834 0.0032423
0.1279110 0.3185381 0.0023484
0.1486889 0.3341757 0.0020399
0.1862154 0.3489464 0.0022961
0.2474545 0.3549840 0.0023998
0.3081641 0.3447622 0.0024503
0.3629361 0.3293737 0.0034382
0.4234265 0.3155760 0.0059150
0.4910838 0.3033327 0.0096157
0.5540959 0.3069391 0.0118823
0.6138580 0.3202403 0.0135810
0.6652771 0.3317249 0.0131304
0.7087489 0.3385542 0.0117102
0.7398180 0.3350887 0.0096832
0.7672744 0.3328693 0.0078455
0.8015803 0.3399244 0.0068305
0.8211620 0.3455985 0.0061472
0.8290102 0.3523621 0.0063369
0.8312085 0.3601975 0.0070549
0.8399677 0.3697570 0.0079758
0.8428636 0.3687189 0.0084675
0.8416103 0.3588057 0.0087441
0.8469560 0.3472226 0.0089300
0.8609339 0.3357782 0.0089049
0.8821290 0.3260806 0.0087306
0.9082837 0.3189563 0.0085173
0.9376356 0.3148974 0.0083769
0.9680581 0.3132226 0.0083155
0.9915675 0.3126892 0.0082951
0.0130229 0.3383258 0.0078166
0.0379829 0.3351987 0.0074128
0.0692502 0.3312936 0.0066881
0.0977444 0.3299588 0.0056724
0.1223517 0.3345561 0.0044447
0.1434585 0.3469821 0.0032145
0.1587592 0.3613664 0.0023421
0.1802042 0.3791583 0.0020913
0.2199027 0.3893611 0.0022653
0.2745630 0.3844163 0.0022146
0.3379872 0.3715579 0.0023246
0.4087464 0.3562784 0.0034252
0.4720696 0.3482359 0.0060643
0.5212237 0.3505003 0.0101240
0.5846280 0.3574325 0.0157764
0.6442880 0.3601994 0.0167427
0.6964845 0.3688433 0.0165542
0.7391489 0.3727067 0.0150673
0.7693370 0.3662884 0.0124011
0.8012435 0.3644801 0.0101221
0.8171021 0.3644299 0.0084415
0.8325572 0.3708584 0.0078684
0.8445895 0.3807414 0.0081513
0.8607424 0.3927684 0.0088058
0.8661619 0.3952582 0.0091484
0.8661652 0.3927892 0.0095528
0.8675635 0.3858770 0.0097727
0.8743819 0.3752758 0.0096251
0.8879117 0.3628560 0.0091607
0.9094930 0.3529929 0.0087245
0.9374378 0.3475022 0.0084742
0.9677746 0.3450806 0.0083571
0.9914086 0.3442127 0.0083124
0.0106557 0.3720663 0.0080713
0.0352918 0.3699799 0.0078552
0.0675915 0.3673925 0.0074089
0.1000585 0.3663249 0.0066585
0.1323314 0.3722658 0.0055472
0.1612049 0.3898855 0.0041871
0.1771440 0.4042225 0.0029298
0.1897730 0.4159393 0.0022469
0.2135910 0.4262465 0.0021303
0.2513723 0.4308553 0.0021468
0.3116455 0.4200301 0.0021458
0.3904616 0.3968317 0.0023668
0.4498855 0.3876599 0.0032591
0.4943289 0.3905054 0.0060407
0.5566084 0.3939874 0.0117752
0.6156564 0.3916968 0.0169962
0.6719178 0.3964276 0.0206477
0.7218240 0.3987370 0.0197369
0.7581263 0.3917038 0.0167725
0.7885228 0.3850629 0.0140274
0.8051541 0.3875781 0.0132046
0.8267576 0.3944968 0.0122951
0.8492907 0.4045856 0.0115865
0.8713599 0.4155207 0.0111782
0.8850240 0.4194922 0.0107794
0.8893356 0.4201308 0.0107701
0.8897226 0.4180142 0.0108869
0.8877035 0.4079876 0.0103891
0.8925830 0.3947949 0.0095986
0.9101657 0.3849168 0.0089917
0.9371851 0.3794832 0.0086317
0.9676205 0.3770051 0.0084556
0.9913455 0.3760023 0.0083824
0.0093503 0.4049535 0.0082008
0.0337361 0.4039859 0.0080936
0.0667916 0.4032502 0.0078313
0.1023765 0.4046082 0.0072829
0.1375984 0.4089091 0.0063094
0.1671307 0.4177807 0.0049984
0.1860425 0.4265329 0.0037037
0.2023667 0.4387392 0.0028203
0.2247912 0.4565643 0.0023584
0.2510165 0.4697855 0.0021998
0.2968638 0.4673624 0.0022171
0.3729844 0.4462879 0.0022784
0.4329129 0.4270740 0.0024935
0.4798673 0.4261243 0.0036848
0.5381935 0.4292109 0.0069215
0.5923806 0.4254066 0.0120851
0.6442190 0.4214740 0.0181132
0.6938789 0.4220632 0.0223229
0.7425821 0.4245691 0.0223372
0.7800636 0.4208211 0.0203031
0.8030974 0.4284410 0.0213619
0.8243535 0.4302905 0.0206050
0.8482938 0.4299673 0.0174734
0.8721627 0.4365887 0.0147867
0.8928172 0.4400863 0.0130825
0.9036453 0.4407543 0.0123064
0.9013109 0.4380199 0.0117620
0.8930917 0.4294351 0.0108779
0.8943915 0.4202368 0.0100026
0.9110644 0.4144441 0.0093705
0.9382811 0.4119655 0.0090444
0.9684546 0.4103352 0.0088232
0.9916632 0.4090250 0.0086568
0.0088042 0.4370972 0.0082545
0.0330989 0.4368577 0.0081998
0.0660369 0.4366219 0.0080366
0.1011574 0.4369237 0.0076509
0.1356276 0.4371930 0.0069332
0.1659591 0.4384701 0.0059236
0.1929267 0.4461029 0.0048108
0.2192685 0.4648378 0.0037852
0.2393436 0.4843808 0.0029905
0.2597416 0.5007617 0.0025026
0.2966717 0.5054408 0.0023322
0.3604072 0.4994045 0.0024107
0.4158059 0.4866500 0.0025616
0.4607874 0.4795733 0.0029226
0.5248936 0.4804093 0.0041622
0.5778630 0.4719539 0.0065137
0.6216864 0.4525751 0.0113503
0.6673654 0.4450963 0.0178623
0.7210346 0.4565630 0.0215511
0.7721478 0.4652900 0.0251203
0.8050110 0.4703676 0.0270379
0.8239128 0.4635804 0.0263619
0.8430225 0.4573554 0.0232466
0.8658048 0.4577679 0.0201085
0.8896815 0.4588907 0.0186600
0.9020615 0.4590736 0.0171123
0.8996896 0.4551342 0.0144471
0.8923171 0.4466850 0.0119190
0.8964819 0.4434112 0.0107039
0.9160513 0.4461584 0.0104305
0.9434140 0.4485512 0.0103329
0.9709693 0.4465798 0.0098529
0.9921860 0.4436232 0.0093347
0.0085624 0.4686450 0.0082735
0.0325740 0.4685261 0.0082444
0.0647115 0.4681200 0.0081505
0.0982055 0.4672230 0.0079242
0.1319077 0.4661599 0.0074984
0.1658013 0.4675243 0.0068324
0.2013665 0.4785515 0.0059305
0.2342576 0.5023885 0.0049023
0.2545297 0.5221982 0.0038624
0.2704986 0.5340927 0.0030468
0.2986271 0.5383611 0.0025467
0.3500471 0.5453892 0.0024983
0.4110425 0.5544993 0.0026336
0.4619777 0.5540899 0.0028561
0.5186506 0.5387129 0.0033329
0.5622675 0.5060837 0.0035566
0.5966935 0.4837862 0.0052198
0.6360124 0.4774367 0.0084769
0.6815758 0.4865405 0.0125994
0.7404507 0.4939798 0.0205193
0.7932767 0.4970860 0.0256903
0.8190424 0.4869610 0.0281429
0.8397675 0.4820193 0.0277098
0.8683788 0.4863726 0.0274780
0.8950862 0.4914352 0.0294957
0.9054053 0.4927297 0.0279129
0.9031704 0.4867173 0.0217346
0.8977659 0.4737735 0.0155042
0.9078313 0.4749953 0.0133211
0.9307606 0.4856929 0.0133781
0.9534178 0.4883605 0.0129885
0.9748711 0.4836184 0.0117488
0.9928561 0.4786435 0.0106029
0.0084150 0.4999532 0.0082807
0.0321342 0.4998400 0.0082671
0.0635774 0.4995055 0.0082234
0.0961162 0.4988555 0.0081155
0.1300637 0.4990126 0.0078925
0.1668738 0.5027570 0.0074625
0.2046592 0.5115822 0.0067174
0.2378222 0.5261790 0.0057024
0.2618273 0.5399588 0.0045409
0.2812310 0.5506178 0.0034892
0.3046315 0.5594451 0.0028290
0.3453104 0.5719698 0.0026331
0.4059424 0.5906360 0.0027121
0.4635369 0.6009012 0.0028385
0.5056682 0.5836194 0.0028881
0.5423994 0.5420094 0.0026631
0.5767205 0.5175256 0.0028289
0.6141229 0.5119823 0.0036133
0.6481356 0.5146393 0.0054873
0.6917836 0.5148991 0.0117461
0.7589231 0.5104259 0.0226891
0.7978528 0.4997986 0.0304268
0.8314424 0.5006681 0.0312324
0.8705073 0.5118170 0.0314938
0.8973628 0.5174712 0.0322559
0.9128057 0.5201740 0.0317382
0.9141795 0.5164203 0.0276242
0.9161493 0.5094818 0.0211865
0.9339436 0.5146909 0.0186443
0.9528693 0.5231260 0.0179187
0.9661364 0.5228664 0.0166130
0.9798662 0.5171074 0.0145446
0.9937679 0.5121723 0.0129341
0.0083345 0.5312257 0.0082840
0.0318975 0.5311694 0.0082789
0.0630172 0.5310686 0.0082622
0.0952486 0.5310066 0.0082146
0.1289720 0.5314816 0.0080889
0.1649320 0.5335569 0.0077994
0.2012653 0.5371062 0.0072428
0.2350046 0.5424056 0.0063777
0.2648373 0.5496127 0.0052617
0.2900498 0.5587299 0.0041532
0.3122960 0.5695292 0.0033549
0.3462393 0.5862870 0.0029305
0.4030124 0.6102157 0.0028634
0.4624672 0.6260329 0.0029039
0.5011020 0.6188341 0.0028246
0.5274641 0.5877298 0.0026150
0.5621873 0.5528502 0.0025051
0.6049727 0.5366822 0.0027121
0.6386923 0.5312215 0.0035019
0.6662046 0.5282916 0.0082295
0.7166372 0.5216807 0.0225067
0.7610632 0.5145199 0.0365035
0.8095151 0.5190524 0.0373963
0.8522905 0.5261327 0.0358842
0.8801153 0.5290362 0.0356238
0.9036993 0.5327112 0.0362874
0.9196123 0.5335841 0.0340336
0.9398773 0.5350431 0.0264086
0.9606593 0.5399364 0.0232347
0.9725198 0.5456906 0.0220280
0.9778711 0.5461772 0.0203978
0.9851460 0.5439151 0.0184825
0.9949393 0.5421492 0.0169181
0.0083016 0.5624909 0.0082854
0.0318040 0.5624752 0.0082837
0.0627663 0.5624611 0.0082772
0.0946513 0.5624710 0.0082542
0.1274589 0.5625074 0.0081835
0.1614745 0.5626439 0.0080091
0.1962714 0.5629629 0.0076511
0.2311819 0.5639437 0.0070293
0.2648495 0.5665172 0.0061478
0.2951488 0.5726811 0.0051278
0.3214827 0.5840003 0.0041210
0.3477832 0.5997054 0.0033740
0.3906595 0.6231285 0.0030461
0.4417396 0.6380134 0.0030074
0.4840935 0.6373529 0.0029491
0.5083470 0.6162264 0.0027454
0.5418664 0.5802392 0.0026296
0.5860423 0.5575095 0.0028932
0.6257513 0.5463693 0.0035944
0.6471136 0.5443445 0.0072098
0.6795579 0.5417532 0.0198377
0.7289292 0.5343396 0.0362051
0.7752578 0.5350810 0.0408833
0.8163624 0.5374711 0.0435992
0.8498793 0.5415801 0.0463091
0.8832725 0.5465230 0.0481159
0.9160216 0.5490424 0.0442889
0.9500309 0.5495706 0.0321076
0.9723998 0.5513033 0.0262921
0.9825048 0.5572272 0.0251227
0.9855943 0.5607941 0.0243968
0.9898278 0.5634658 0.0233851
0.9961680 0.5646290 0.0212891
0.0082913 0.5937478 0.0082858
0.0317681 0.5937436 0.0082852
0.0626255 0.5937303 0.0082825
0.0941725 0.5936791 0.0082718
0.1261671 0.5935177 0.0082381
0.1588590 0.5931372 0.0081491
0.1925276 0.5924805 0.0079484
0.2272877 0.5918496 0.0075680
0.2626887 0.5922912 0.0069469
0.2974817 0.5969439 0.0060371
0.3259877 0.6076545 0.0049107
0.3441348 0.6176592 0.0038589
0.3623093 0.6271949 0.0032336
0.3917841 0.6327974 0.0030032
0.4332775 0.6348736 0.0029554
0.4687195 0.6248210 0.0028295
0.5063656 0.6058992 0.0027909
0.5453651 0.5935622 0.0031322
0.5931647 0.5828347 0.0039427
0.6234050 0.5805720 0.0082096
0.6589950 0.5763125 0.0208361
0.7126474 0.5638108 0.0347764
0.7555421 0.5577595 0.0400310
0.7956589 0.5573491 0.0439689
0.8301124 0.5616069 0.0477329
0.8658095 0.5647887 0.0516134
0.9050150 0.5663761 0.0504217
0.9426632 0.5646474 0.0396018
0.9678100 0.5638033 0.0304893
0.9824769 0.5688902 0.0281834
0.9884694 0.5728030 0.0281905
0.9921693 0.5765782 0.0269852
0.9968047 0.5800430 0.0247726
0.0082878 0.6249995 0.0082859
0.0317515 0.6249973 0.0082857
0.0625505 0.6249867 0.0082846
0.0939096 0.6249450 0.0082806
0.1254638 0.6248162 0.0082669
0.1574323 0.6245053 0.0082273
0.1901894 0.6238977 0.0081288
0.2243725 0.6233071 0.0079109
0.2606008 0.6235430 0.0074594
0.2963716 0.6248592 0.0066564
0.3251430 0.6278650 0.0055656
0.3421569 0.6302725 0.0044653
0.3508821 0.6325873 0.0036540
0.3648106 0.6360660 0.0031765
0.3990234 0.6389840 0.0030010
0.4421452 0.6365423 0.0029294
0.4772322 0.6341611 0.0029187
0.5093168 0.6356804 0.0031414
0.5529953 0.6348411 0.0036749
0.5911574 0.6344944 0.0069864
0.6364394 0.6239326 0.0185661
0.6927675 0.6044768 0.0345567
0.7405267 0.5933123 0.0411715
0.7835519 0.5883505 0.0421560
0.8180586 0.5858542 0.0435907
0.8542010 0.5844166 0.0481325
0.8912800 0.5846391 0.0509765
0.9272339 0.5844800 0.0475965
0.9547569 0.5826710 0.0375768
0.9738363 0.5836791 0.0308552
0.9844396 0.5857464 0.0307624
0.9910224 0.5895635 0.0301523
0.9966803 0.5943233 0.0293299
0.0082865 0.6562498 0.0082859
0.0317445 0.6562488 0.0082858
0.0625192 0.6562439 0.0082855
0.0938007 0.6562245 0.0082842
0.1251691 0.6561638 0.0082793
0.1567877 0.6560236 0.0082633
0.1890333 0.6557055 0.0082149
0.2225707 0.6550815 0.0080801
0.2577390 0.6540384 0.0077612
0.2922996 0.6519171 0.0071659
0.3217405 0.6489261 0.0063156
0.3422127 0.6460557 0.0053342
0.3545166 0.6449096 0.0043789
0.3678550 0.6467571 0.0036525
0.3951491 0.6510481 0.0032270
0.4343528 0.6536573 0.0030615
0.4684794 0.6558087 0.0029845
0.4972058 0.6578415 0.0030379
0.5346333 0.6594286 0.0034932
0.5732804 0.6624172 0.0053845
0.6175765 0.6590669 0.0128951
0.6689274 0.6462162 0.0285444
0.7247751 0.6329730 0.0417591
0.7685611 0.6242826 0.0433841
0.8032230 0.6176698 0.0418979
0.8438988 0.6114717 0.0454409
0.8789886 0.6080590 0.0481146
0.9112994 0.6079634 0.0497619
0.9373350 0.6058649 0.0437053
0.9604536 0.6046455 0.0352996
0.9773095 0.6046906 0.0356716
0.9885426 0.6069729 0.0355221
0.9962583 0.6105779 0.0365251
0.0082860 0.6874999 0.0082859
0.0317423 0.6874996 0.0082859
0.0625091 0.6874980 0.0082858
0.0937650 0.6874913 0.0082854
0.1250643 0.6874686 0.0082837
0.1565066 0.6874012 0.0082769
0.1883537 0.6871758 0.0082516
0.2210029 0.6864784 0.0081739
0.2545173 0.6848177 0.0079863
0.2877334 0.6816730 0.0076280
0.3181653 0.6769575 0.0070575
0.3434124 0.6712661 0.0062650
0.3642782 0.6661965 0.0053276
0.3847372 0.6637191 0.0044080
0.4074883 0.6642556 0.0037232
0.4379242 0.6671590 0.0033382
0.4697542 0.6698603 0.0031375
0.4999159 0.6721877 0.0030589
0.5348502 0.6754598 0.0034746
0.5700305 0.6802216 0.0047017
0.6077507 0.6825534 0.0081930
0.6526799 0.6793632 0.0183294
0.7102197 0.6688993 0.0353031
0.7542024 0.6595792 0.0440549
0.7869828 0.6547701 0.0452998
0.8281319 0.6482611 0.0482102
0.8640862 0.6431761 0.0483954
0.8948109 0.6420858 0.0518476
0.9211501 0.6385313 0.0491056
0.9489983 0.6337872 0.0413999
0.9707389 0.6299964 0.0397729
0.9859728 0.6283903 0.0394125
0.9957151 0.6284392 0.0422507
0.0082859 0.7187500 0.0082859
0.0317417 0.7187499 0.0082859
0.0625065 0.7187495 0.0082859
0.0937549 0.7187474 0.0082858
0.1250261 0.7187378 0.0082851
0.1563646 0.7186956 0.0082821
0.1878949 0.7185306 0.0082704
0.2198015 0.7180185 0.0082340
0.2521295 0.7167625 0.0081441
0.2844652 0.7142266 0.0079561
0.3158410 0.7098651 0.0076107
0.3456262 0.7035714 0.0070546
0.3740692 0.6960590 0.0062797
0.4006715 0.6886503 0.0053725
0.4255232 0.6833651 0.0045235
0.4496657 0.6816164 0.0039495
0.4819309 0.6828104 0.0035658
0.5167195 0.6870556 0.0032932
0.5474822 0.6938417 0.0034803
0.5722626 0.6993814 0.0043700
0.6042120 0.7042403 0.0064507
0.6429741 0.7082267 0.0114943
0.6891758 0.7048199 0.0232021
0.7374011 0.6952343 0.0365441
0.7741221 0.6901956 0.0428254
0.8127708 0.6882380 0.0489846
0.8515537 0.6845937 0.0522258
0.8826404 0.6809207 0.0558854
0.9099619 0.6755259 0.0549223
0.9389325 0.6697783 0.0491766
0.9637788 0.6639571 0.0458503
0.9833326 0.6561761 0.0447169
0.9949856 0.6506701 0.0467252
0.0082859 0.7500000 0.0082859
0.0317416 0.7500000 0.0082859
0.0625058 0.7499999 0.0082859
0.0937517 0.7499992 0.0082858
0.1250096 0.7499948 0.0082856
