looks/lab_velvia_punch.cube
TITLE "Fujifilm lab_velvia_punch pooled norm (16 pairs)"
LUT_3D_SIZE 5
0.0087854 0.0068010 0.0063780
0.2208611 0.0091605 0.0016325
0.6404728 0.0102788 0.0027696
0.7884818 0.0064041 0.0079246
0.9916970 0.0082885 0.0082853
0.0238441 0.2352004 0.0061936
0.2763042 0.2553239 0.0030849
0.7087780 0.2584341 0.0037133
0.7866866 0.2834910 0.0080089
0.9916421 0.2495370 0.0082795
0.0084150 0.4999532 0.0082807
0.2618273 0.5399588 0.0045409
0.5767205 0.5175256 0.0028289
0.8973628 0.5174712 0.0322559
0.9937679 0.5121723 0.0129341
0.0082859 0.7500000 0.0082859
0.2508502 0.7489232 0.0082288
0.5009525 0.7054223 0.0043344
0.7595556 0.7291799 0.0327390
0.9944422 0.6781735 0.0466553
0.0082859 0.9917141 0.0082859
0.2500000 0.9917141 0.0082859
0.5000982 0.9914312 0.0082838
0.7499384 0.9905760 0.0091618
0.9924705 0.9581180 0.0297029
0.0081665 0.0467556 0.2544587
0.2625154 0.0118354 0.2448283
0.5190002 0.0082758 0.2267449
0.7640448 0.0077964 0.2244367
0.9916083 0.0083245 0.2492278
0.0037483 0.2367889 0.2735783
0.2940507 0.3034981 0.2973536
0.6749203 0.1387962 0.0887443
0.8848941 0.0737414 0.0678964
0.9803525 0.1745342 0.1703351
0.0076571 0.5027038 0.2456592
0.0854936 0.5596590 0.0550309
0.5711031 0.5434320 0.2564228
0.8651553 0.4594713 0.2117575
0.9931921 0.5173993 0.2432195
0.0082854 0.7499958 0.2499991
0.2438872 0.7476304 0.2418562
0.5076330 0.7362849 0.2132315
0.7401552 0.7300901 0.1654801
0.9974784 0.6630165 0.3230213
0.0082859 0.9917141 0.2500000
0.2500000 0.9917141 0.2500000
0.5001281 0.9915429 0.2500872
0.7522720 0.9796795 0.2488539
0.9976116 0.8305148 0.4475983
0.0080147 0.0198157 0.5074939
0.2536540 0.0095743 0.5144146
0.5368961 0.0092369 0.5210695
0.7504963 0.0083718 0.5002300
0.9917133 0.0082871 0.4999923
0.0026301 0.2889252 0.5737411
0.1994559 0.1828482 0.6282583
0.6617773 0.1543078 0.6279537
0.8350333 0.1557746 0.5337651
0.9864179 0.2231642 0.4421447
0.0080028 0.4985383 0.5036953
0.1203268 0.5113365 0.4754521
0.5837458 0.5898563 0.6143156
0.7718450 0.4120858 0.3942857
0.9497499 0.4505507 0.4296817
0.0082857 0.7499981 0.4999966
0.2489506 0.7494137 0.4977474
0.3589819 0.7506830 0.3207415
0.7432254 0.7172849 0.4186335
0.9291703 0.6015756 0.3654350
0.0082859 0.9917141 0.5000000
0.2500000 0.9917140 0.4999998
0.4994358 0.9905095 0.4982608
0.7548788 0.9763378 0.5192833
0.9928123 0.8350813 0.5140518
0.0082820 0.0085166 0.7500569
0.2499640 0.0083117 0.7500005
0.5000676 0.0082996 0.7499828
0.7500068 0.0082894 0.7499963
0.9917141 0.0082859 0.7500000
0.0044788 0.3405237 0.8400351
0.1930988 0.2246959 0.7857237
0.5337943 0.2331060 0.7717664
0.7913947 0.2217992 0.7405041
0.9916580 0.2500214 0.7499527
0.0055456 0.5015935 0.7961319
0.0812138 0.4825841 0.7798046
0.5019490 0.4937293 0.7932096
0.8548872 0.4230900 0.8020366
0.9519706 0.4888758 0.6858942
0.0082848 0.7499732 0.7500181
0.3096417 0.7168514 0.7443561
0.4212801 0.7464675 0.7547316
0.7242519 0.7421098 0.7655694
0.9086860 0.6168894 0.5952868
0.0082859 0.9917141 0.7500000
0.2500697 0.9916210 0.7499973
0.4994444 0.9893445 0.7489710
0.7107118 0.9332863 0.6759109
0.9381422 0.8538280 0.5257677
0.0082859 0.0082859 0.9917141
0.2500000 0.0082859 0.9917141
0.5000000 0.0082859 0.9917141
0.7500000 0.0082859 0.9917141
0.9917141 0.0082859 0.9917141
0.0082487 0.2514817 0.9911144
0.2494833 0.2501761 0.9914416
0.4999876 0.2500110 0.9916389
0.7500576 0.2500363 0.9916822
0.9917136 0.2500055 0.9917104
0.0043589 0.5412080 0.9656870
0.1419954 0.4802996 0.9648811
0.4864485 0.4986477 0.9850881
0.7756514 0.4878911 0.9831908
0.9901596 0.4985013 0.9899076
0.0080466 0.7413337 0.9916767
0.1843226 0.7008014 0.9920775
0.3369225 0.6585597 0.9836152
0.6177838 0.7234240 0.9088877
0.9846348 0.6939261 0.9242886
0.0082859 0.9917141 0.9917141
0.2503750 0.9912258 0.9914255
0.5007236 0.9899979 0.9917101
0.6950878 0.9157830 0.9959300
0.8918654 0.9098799 0.9357327
