looks/lab_noir.cube
TITLE "Latent Lab noir (34 scenes)"
LUT_3D_SIZE 9
0.0001891 0.0001891 0.0001891
0.0423175 0.0423175 0.0423175
0.1193453 0.1193453 0.1193453
0.2330110 0.2330110 0.2330110
0.3590398 0.3590398 0.3590398
0.2439149 0.2439149 0.2439149
0.2556671 0.2556671 0.2556671
0.2971919 0.2971919 0.2971919
0.3360953 0.3360953 0.3360953
0.0143810 0.0143810 0.0143810
0.0683967 0.0683967 0.0683967
0.1932778 0.1932778 0.1932778
0.2808528 0.2808528 0.2808528
0.3290383 0.3290383 0.3290383
0.3046873 0.3046873 0.3046873
0.3016171 0.3016171 0.3016171
0.3365986 0.3365986 0.3365986
0.3750011 0.3750011 0.3750011
0.0782077 0.0782077 0.0782077
0.1561712 0.1561712 0.1561712
0.2816510 0.2816510 0.2816510
0.3356499 0.3356499 0.3356499
0.4562382 0.4562382 0.4562382
0.4570151 0.4570151 0.4570151
0.4269011 0.4269011 0.4269011
0.3839926 0.3839926 0.3839926
0.4166797 0.4166797 0.4166797
0.1308636 0.1308636 0.1308636
0.2048738 0.2048738 0.2048738
0.3747972 0.3747972 0.3747972
0.4184189 0.4184189 0.4184189
0.4470911 0.4470911 0.4470911
0.5392303 0.5392303 0.5392303
0.5459854 0.5459854 0.5459854
0.4310462 0.4310462 0.4310462
0.4583843 0.4583843 0.4583843
0.1722270 0.1722270 0.1722270
0.2155050 0.2155050 0.2155050
0.3395816 0.3395816 0.3395816
0.5729564 0.5729564 0.5729564
0.5463485 0.5463485 0.5463485
0.6441774 0.6441774 0.6441774
0.6419004 0.6419004 0.6419004
0.4965856 0.4965856 0.4965856
0.5003237 0.5003237 0.5003237
0.2138574 0.2138574 0.2138574
0.2528400 0.2528400 0.2528400
0.2995941 0.2995941 0.2995941
0.4141228 0.4141228 0.4141228
0.4759544 0.4759544 0.4759544
0.7223212 0.7223212 0.7223212
0.7066047 0.7066047 0.7066047
0.5816641 0.5816641 0.5816641
0.5426492 0.5426492 0.5426492
0.2555239 0.2555239 0.2555239
0.2944288 0.2944288 0.2944288
0.3361246 0.3361246 0.3361246
0.3787191 0.3787191 0.3787191
0.4608734 0.4608734 0.4608734
0.7181779 0.7181779 0.7181779
0.6587558 0.6587558 0.6587558
0.5957959 0.5957959 0.5957959
0.5839630 0.5839630 0.5839630
0.2971906 0.2971906 0.2971906
0.3360953 0.3360953 0.3360953
0.3777620 0.3777620 0.3777620
0.4194663 0.4194663 0.4194663
0.4678359 0.4678359 0.4678359
0.5724934 0.5724934 0.5724934
0.5707062 0.5707062 0.5707062
0.5888349 0.5888349 0.5888349
0.6250331 0.6250331 0.6250331
0.3360953 0.3360953 0.3360953
0.3750000 0.3750000 0.3750000
0.4166667 0.4166667 0.4166667
0.4583336 0.4583336 0.4583336
0.5000904 0.5000904 0.5000904
0.5427949 0.5427949 0.5427949
0.5837503 0.5837503 0.5837503
0.6250152 0.6250152 0.6250152
0.6639048 0.6639048 0.6639048
0.0017300 0.0017300 0.0017300
0.0508246 0.0508246 0.0508246
0.1385406 0.1385406 0.1385406
0.1805452 0.1805452 0.1805452
0.2689685 0.2689685 0.2689685
0.2642931 0.2642931 0.2642931
0.2945932 0.2945932 0.2945932
0.3360977 0.3360977 0.3360977
0.3750000 0.3750000 0.3750000
0.0305745 0.0305745 0.0305745
0.0834345 0.0834345 0.0834345
0.1688548 0.1688548 0.1688548
0.2656477 0.2656477 0.2656477
0.3410388 0.3410388 0.3410388
0.3581997 0.3581997 0.3581997
0.3481001 0.3481001 0.3481001
0.3759498 0.3759498 0.3759498
0.4139066 0.4139066 0.4139066
0.0937467 0.0937467 0.0937467
0.1543857 0.1543857 0.1543857
0.2239178 0.2239178 0.2239178
0.2862040 0.2862040 0.2862040
0.4230136 0.4230136 0.4230136
0.5648313 0.5648313 0.5648313
0.5625831 0.5625831 0.5625831
0.4285333 0.4285333 0.4285333
0.4556065 0.4556065 0.4556065
0.1612863 0.1612863 0.1612863
0.2415294 0.2415294 0.2415294
0.3730371 0.3730371 0.3730371
0.4406471 0.4406471 0.4406471
0.4773231 0.4773231 0.4773231
0.5528691 0.5528691 0.5528691
0.5979641 0.5979641 0.5979641
0.4771323 0.4771323 0.4771323
0.4982014 0.4982014 0.4982014
0.2111382 0.2111382 0.2111382
0.2531547 0.2531547 0.2531547
0.3565791 0.3565791 0.3565791
0.5505415 0.5505415 0.5505415
0.5540461 0.5540461 0.5540461
0.6492331 0.6492331 0.6492331
0.6480598 0.6480598 0.6480598
0.5510183 0.5510183 0.5510183
0.5512055 0.5512055 0.5512055
0.2527621 0.2527621 0.2527621
0.2917384 0.2917384 0.2917384
0.3371330 0.3371330 0.3371330
0.4223075 0.4223075 0.4223075
0.5830246 0.5830246 0.5830246
0.7762136 0.7762136 0.7762136
0.7196347 0.7196347 0.7196347
0.6353594 0.6353594 0.6353594
0.6021425 0.6021425 0.6021425
0.2944286 0.2944286 0.2944286
0.3333335 0.3333335 0.3333335
0.3750191 0.3750191 0.3750191
0.4191129 0.4191129 0.4191129
0.5406258 0.5406258 0.5406258
0.8131584 0.8131584 0.8131584
0.7904831 0.7904831 0.7904831
0.6646656 0.6646656 0.6646656
0.6376363 0.6376363 0.6376363
0.3360953 0.3360953 0.3360953
0.3750000 0.3750000 0.3750000
0.4166668 0.4166668 0.4166668
0.4585553 0.4585553 0.4585553
0.5178531 0.5178531 0.5178531
0.7184948 0.7184948 0.7184948
0.6718233 0.6718233 0.6718233
0.6445277 0.6445277 0.6445277
0.6649351 0.6649351 0.6649351
0.3750000 0.3750000 0.3750000
0.4139047 0.4139047 0.4139047
0.4555714 0.4555714 0.4555714
0.4972443 0.4972443 0.4972443
0.5398402 0.5398402 0.5398402
0.5920718 0.5920718 0.5920718
0.6265357 0.6265357 0.6265357
0.6644540 0.6644540 0.6644540
0.7028170 0.7028170 0.7028170
0.0106495 0.0106495 0.0106495
0.1106570 0.1106570 0.1106570
0.1813112 0.1813112 0.1813112
0.2348539 0.2348539 0.2348539
0.2636019 0.2636019 0.2636019
0.2966641 0.2966641 0.2966641
0.3361748 0.3361748 0.3361748
0.3777651 0.3777651 0.3777651
0.4166667 0.4166667 0.4166667
0.0388595 0.0388595 0.0388595
0.1118625 0.1118625 0.1118625
0.2211007 0.2211007 0.2211007
0.2940404 0.2940404 0.2940404
0.3529671 0.3529671 0.3529671
0.3606274 0.3606274 0.3606274
0.3854647 0.3854647 0.3854647
0.4177679 0.4177679 0.4177679
0.4555803 0.4555803 0.4555803
0.0828690 0.0828690 0.0828690
0.1680857 0.1680857 0.1680857
0.2393253 0.2393253 0.2393253
0.3757966 0.3757966 0.3757966
0.4259732 0.4259732 0.4259732
0.4374055 0.4374055 0.4374055
0.4976704 0.4976704 0.4976704
0.4790952 0.4790952 0.4790952
0.4980350 0.4980350 0.4980350
0.1754835 0.1754835 0.1754835
0.2091946 0.2091946 0.2091946
0.3735855 0.3735855 0.3735855
0.4207152 0.4207152 0.4207152
0.4702893 0.4702893 0.4702893
0.5102138 0.5102138 0.5102138
0.5589532 0.5589532 0.5589532
0.5743635 0.5743635 0.5743635
0.5501832 0.5501832 0.5501832
0.2504839 0.2504839 0.2504839
0.2910743 0.2910743 0.2910743
0.4078570 0.4078570 0.4078570
0.6182158 0.6182158 0.6182158
0.6305243 0.6305243 0.6305243
0.6652250 0.6652250 0.6652250
0.6997070 0.6997070 0.6997070
0.6940558 0.6940558 0.6940558
0.6563230 0.6563230 0.6563230
0.2944033 0.2944033 0.2944033
0.3333790 0.3333790 0.3333790
0.3877788 0.3877788 0.3877788
0.4947902 0.4947902 0.4947902
0.6738569 0.6738569 0.6738569
0.7826557 0.7826557 0.7826557
0.7406228 0.7406228 0.7406228
0.7699570 0.7699570 0.7699570
0.8144010 0.8144010 0.8144010
0.3360951 0.3360951 0.3360951
0.3750006 0.3750006 0.3750006
0.4167841 0.4167841 0.4167841
0.4651245 0.4651245 0.4651245
0.6901169 0.6901169 0.6901169
0.8590624 0.8590624 0.8590624
0.7924843 0.7924843 0.7924843
0.7077067 0.7077067 0.7077067
0.8559878 0.8559878 0.8559878
0.3777620 0.3777620 0.3777620
0.4166667 0.4166667 0.4166667
0.4583340 0.4583340 0.4583340
0.5010921 0.5010921 0.5010921
0.6214777 0.6214777 0.6214777
0.8476480 0.8476480 0.8476480
0.8029664 0.8029664 0.8029664
0.7265574 0.7265574 0.7265574
0.7287911 0.7287911 0.7287911
0.4166667 0.4166667 0.4166667
0.4555714 0.4555714 0.4555714
0.4972380 0.4972380 0.4972380
0.5389452 0.5389452 0.5389452
0.5876933 0.5876933 0.5876933
0.7047376 0.7047376 0.7047376
0.6946162 0.6946162 0.6946162
0.7097417 0.7097417 0.7097417
0.7446015 0.7446015 0.7446015
0.0308805 0.0308805 0.0308805
0.1500667 0.1500667 0.1500667
0.2128914 0.2128914 0.2128914
0.2739879 0.2739879 0.2739879
0.3003276 0.3003276 0.3003276
0.3361755 0.3361755 0.3361755
0.3777829 0.3777829 0.3777829
0.4194297 0.4194297 0.4194297
0.4583333 0.4583333 0.4583333
0.0352166 0.0352166 0.0352166
0.1325354 0.1325354 0.1325354
0.2829001 0.2829001 0.2829001
0.3501627 0.3501627 0.3501627
0.3648832 0.3648832 0.3648832
0.3816670 0.3816670 0.3816670
0.4195008 0.4195008 0.4195008
0.4586858 0.4586858 0.4586858
0.4972466 0.4972466 0.4972466
0.0699994 0.0699994 0.0699994
0.1800662 0.1800662 0.1800662
0.2805533 0.2805533 0.2805533
0.4541217 0.4541217 0.4541217
0.4572961 0.4572961 0.4572961
0.4883297 0.4883297 0.4883297
0.4968426 0.4968426 0.4968426
0.5198845 0.5198845 0.5198845
0.5404171 0.5404171 0.5404171
0.1757580 0.1757580 0.1757580
0.2428073 0.2428073 0.2428073
0.3282413 0.3282413 0.3282413
0.4011328 0.4011328 0.4011328
0.5713605 0.5713605 0.5713605
0.6119758 0.6119758 0.6119758
0.5927370 0.5927370 0.5927370
0.6492051 0.6492051 0.6492051
0.6047462 0.6047462 0.6047462
0.2659664 0.2659664 0.2659664
0.3148953 0.3148953 0.3148953
0.3778525 0.3778525 0.3778525
0.5849868 0.5849868 0.5849868
0.6042640 0.6042640 0.6042640
0.6533571 0.6533571 0.6533571
0.7053792 0.7053792 0.7053792
0.7561107 0.7561107 0.7561107
0.7459078 0.7459078 0.7459078
0.3334190 0.3334190 0.3334190
0.3720553 0.3720553 0.3720553
0.4262412 0.4262412 0.4262412
0.5830489 0.5830489 0.5830489
0.7727258 0.7727258 0.7727258
0.8246415 0.8246415 0.8246415
0.8184622 0.8184622 0.8184622
0.8359965 0.8359965 0.8359965
0.8782603 0.8782603 0.8782603
0.3776540 0.3776540 0.3776540
0.4166280 0.4166280 0.4166280
0.4589123 0.4589123 0.4589123
0.5364087 0.5364087 0.5364087
0.7300295 0.7300295 0.7300295
0.8741937 0.8741937 0.8741937
0.8530941 0.8530941 0.8530941
0.8754243 0.8754243 0.8754243
0.9371297 0.9371297 0.9371297
0.4194286 0.4194286 0.4194286
0.4583333 0.4583333 0.4583333
0.5000090 0.5000090 0.5000090
0.5429175 0.5429175 0.5429175
0.6606008 0.6606008 0.6606008
0.8931723 0.8931723 0.8931723
0.8050818 0.8050818 0.8050818
0.7729236 0.7729236 0.7729236
0.7808070 0.7808070 0.7808070
0.4583333 0.4583333 0.4583333
0.4972380 0.4972380 0.4972380
0.5389047 0.5389047 0.5389047
0.5806216 0.5806216 0.5806216
0.6308334 0.6308334 0.6308334
0.7521321 0.7521321 0.7521321
0.7374232 0.7374232 0.7374232
0.7549872 0.7549872 0.7549872
0.7864175 0.7864175 0.7864175
0.1021370 0.1021370 0.1021370
0.1968697 0.1968697 0.1968697
0.2529580 0.2529580 0.2529580
0.2949138 0.2949138 0.2949138
0.3361964 0.3361964 0.3361964
0.3777674 0.3777674 0.3777674
0.4194288 0.4194288 0.4194288
0.4610953 0.4610953 0.4610953
0.5000000 0.5000000 0.5000000
0.0613902 0.0613902 0.0613902
0.1999885 0.1999885 0.1999885
0.3002657 0.3002657 0.3002657
0.3577965 0.3577965 0.3577965
0.3844137 0.3844137 0.3844137
0.4169576 0.4169576 0.4169576
0.4583621 0.4583621 0.4583621
0.5000069 0.5000069 0.5000069
0.5389052 0.5389052 0.5389052
0.0916595 0.0916595 0.0916595
0.1852981 0.1852981 0.1852981
0.3046902 0.3046902 0.3046902
0.5053446 0.5053446 0.5053446
0.5554467 0.5554467 0.5554467
0.4775307 0.4775307 0.4775307
0.5016704 0.5016704 0.5016704
0.5427822 0.5427822 0.5427822
0.5806535 0.5806535 0.5806535
0.1547190 0.1547190 0.1547190
0.2571746 0.2571746 0.2571746
0.3293598 0.3293598 0.3293598
0.4721358 0.4721358 0.4721358
0.6328743 0.6328743 0.6328743
0.6357465 0.6357465 0.6357465
0.5753239 0.5753239 0.5753239
0.5914232 0.5914232 0.5914232
0.6256348 0.6256348 0.6256348
0.2787994 0.2787994 0.2787994
0.3309460 0.3309460 0.3309460
0.4217701 0.4217701 0.4217701
0.5072235 0.5072235 0.5072235
0.5590962 0.5590962 0.5590962
0.7323231 0.7323231 0.7323231
0.7417994 0.7417994 0.7417994
0.6807695 0.6807695 0.6807695
0.6996558 0.6996558 0.6996558
0.3277091 0.3277091 0.3277091
0.3988762 0.3988762 0.3988762
0.4619011 0.4619011 0.4619011
0.6541018 0.6541018 0.6541018
0.7612945 0.7612945 0.7612945
0.7659913 0.7659913 0.7659913
0.8124474 0.8124474 0.8124474
0.8404804 0.8404804 0.8404804
0.8416692 0.8416692 0.8416692
0.4180031 0.4180031 0.4180031
0.4556100 0.4556100 0.4556100
0.5027133 0.5027133 0.5027133
0.5926360 0.5926360 0.5926360
0.8377036 0.8377036 0.8377036
0.9025134 0.9025134 0.9025134
0.8781369 0.8781369 0.8781369
0.9275389 0.9275389 0.9275389
0.9436512 0.9436512 0.9436512
0.4609793 0.4609793 0.4609793
0.4999238 0.4999238 0.4999238
0.5417240 0.5417240 0.5417240
0.5864491 0.5864491 0.5864491
0.6918224 0.6918224 0.6918224
0.9022456 0.9022456 0.9022456
0.8895857 0.8895857 0.8895857
0.8720408 0.8720408 0.8720408
0.8223508 0.8223508 0.8223508
0.4999995 0.4999995 0.4999995
0.5389047 0.5389047 0.5389047
0.5805712 0.5805712 0.5805712
0.6222848 0.6222848 0.6222848
0.6716517 0.6716517 0.6716517
0.7955974 0.7955974 0.7955974
0.8193309 0.8193309 0.8193309
0.8071122 0.8071122 0.8071122
0.8305136 0.8305136 0.8305136
0.2016978 0.2016978 0.2016978
0.2503784 0.2503784 0.2503784
0.2944117 0.2944117 0.2944117
0.3361218 0.3361218 0.3361218
0.3777666 0.3777666 0.3777666
0.4194287 0.4194287 0.4194287
0.4610953 0.4610953 0.4610953
0.5027620 0.5027620 0.5027620
0.5416667 0.5416667 0.5416667
0.2197596 0.2197596 0.2197596
0.2656478 0.2656478 0.2656478
0.3309411 0.3309411 0.3309411
0.3788002 0.3788002 0.3788002
0.4175292 0.4175292 0.4175292
0.4584580 0.4584580 0.4584580
0.5000013 0.5000013 0.5000013
0.5416667 0.5416667 0.5416667
0.5805714 0.5805714 0.5805714
0.1440832 0.1440832 0.1440832
0.2116476 0.2116476 0.2116476
0.3394229 0.3394229 0.3394229
0.4574225 0.4574225 0.4574225
0.5008178 0.5008178 0.5008178
0.5174432 0.5174432 0.5174432
0.5421144 0.5421144 0.5421144
0.5833370 0.5833370 0.5833370
0.6222382 0.6222382 0.6222382
0.1689434 0.1689434 0.1689434
0.2327260 0.2327260 0.2327260
0.3604650 0.3604650 0.3604650
0.5411782 0.5411782 0.5411782
0.6463232 0.6463232 0.6463232
0.6502190 0.6502190 0.6502190
0.6011615 0.6011615 0.6011615
0.6257613 0.6257613 0.6257613
0.6639237 0.6639237 0.6639237
0.2302200 0.2302200 0.2302200
0.3448904 0.3448904 0.3448904
0.5065056 0.5065056 0.5065056
0.5125788 0.5125788 0.5125788
0.6385706 0.6385706 0.6385706
0.7808771 0.7808771 0.7808771
0.7204362 0.7204362 0.7204362
0.6920986 0.6920986 0.6920986
0.7064137 0.7064137 0.7064137
0.3669102 0.3669102 0.3669102
0.4298443 0.4298443 0.4298443
0.5244924 0.5244924 0.5244924
0.5970908 0.5970908 0.5970908
0.6866874 0.6866874 0.6866874
0.7268860 0.7268860 0.7268860
0.8530529 0.8530529 0.8530529
0.8060170 0.8060170 0.8060170
0.7691854 0.7691854 0.7691854
0.4387504 0.4387504 0.4387504
0.4862967 0.4862967 0.4862967
0.5790007 0.5790007 0.5790007
0.6439624 0.6439624 0.6439624
0.7687484 0.7687484 0.7687484
0.8905121 0.8905121 0.8905121
0.8978820 0.8978820 0.8978820
0.9363613 0.9363613 0.9363613
0.8663386 0.8663386 0.8663386
0.4998977 0.4998977 0.4998977
0.5418322 0.5418322 0.5418322
0.5830032 0.5830032 0.5830032
0.6302968 0.6302968 0.6302968
0.7139438 0.7139438 0.7139438
0.9142846 0.9142846 0.9142846
0.9152511 0.9152511 0.9152511
0.9297892 0.9297892 0.9297892
0.9136313 0.9136313 0.9136313
0.5416570 0.5416570 0.5416570
0.5805725 0.5805725 0.5805725
0.6222250 0.6222250 0.6222250
0.6639704 0.6639704 0.6639704
0.7114162 0.7114162 0.7114162
0.8137423 0.8137423 0.8137423
0.8228539 0.8228539 0.8228539
0.8518491 0.8518491 0.8518491
0.8810883 0.8810883 0.8810883
0.2554506 0.2554506 0.2554506
0.2943937 0.2943937 0.2943937
0.3360924 0.3360924 0.3360924
0.3777621 0.3777621 0.3777621
0.4194286 0.4194286 0.4194286
0.4610953 0.4610953 0.4610953
0.5027620 0.5027620 0.5027620
0.5444286 0.5444286 0.5444286
0.5833333 0.5833333 0.5833333
0.2904298 0.2904298 0.2904298
0.3262760 0.3262760 0.3262760
0.3744136 0.3744136 0.3744136
0.4166768 0.4166768 0.4166768
0.4583724 0.4583724 0.4583724
0.5000076 0.5000076 0.5000076
0.5416668 0.5416668 0.5416668
0.5833333 0.5833333 0.5833333
0.6222380 0.6222380 0.6222380
0.2135554 0.2135554 0.2135554
0.3137350 0.3137350 0.3137350
0.3916359 0.3916359 0.3916359
0.4598415 0.4598415 0.4598415
0.5039179 0.5039179 0.5039179
0.5439246 0.5439246 0.5439246
0.5834513 0.5834513 0.5834513
0.6250002 0.6250002 0.6250002
0.6639047 0.6639047 0.6639047
0.1593887 0.1593887 0.1593887
0.2546964 0.2546964 0.2546964
0.3770837 0.3770837 0.3770837
0.5283853 0.5283853 0.5283853
0.6027130 0.6027130 0.6027130
0.6380517 0.6380517 0.6380517
0.6289740 0.6289740 0.6289740
0.6668330 0.6668330 0.6668330
0.7055722 0.7055722 0.7055722
0.2430781 0.2430781 0.2430781
0.3228159 0.3228159 0.3228159
0.4949763 0.4949763 0.4949763
0.5993443 0.5993443 0.5993443
0.6750404 0.6750404 0.6750404
0.8035433 0.8035433 0.8035433
0.7641681 0.7641681 0.7641681
0.7199299 0.7199299 0.7199299
0.7473013 0.7473013 0.7473013
0.3210530 0.3210530 0.3210530
0.4214009 0.4214009 0.4214009
0.6034307 0.6034307 0.6034307
0.7004222 0.7004222 0.7004222
0.6978325 0.6978325 0.6978325
0.8105861 0.8105861 0.8105861
0.9208916 0.9208916 0.9208916
0.7865831 0.7865831 0.7865831
0.7928429 0.7928429 0.7928429
0.4258231 0.4258231 0.4258231
0.5383417 0.5383417 0.5383417
0.6527139 0.6527139 0.6527139
0.7939820 0.7939820 0.7939820
0.8779801 0.8779801 0.8779801
0.8240883 0.8240883 0.8240883
0.8723390 0.8723390 0.8723390
0.9086976 0.9086976 0.9086976
0.8746429 0.8746429 0.8746429
0.5376727 0.5376727 0.5376727
0.5843458 0.5843458 0.5843458
0.6386610 0.6386610 0.6386610
0.7094925 0.7094925 0.7094925
0.7815965 0.7815965 0.7815965
0.9310528 0.9310528 0.9310528
0.9287027 0.9287027 0.9287027
0.9509000 0.9509000 0.9509000
0.9475882 0.9475882 0.9475882
0.5832970 0.5832970 0.5832970
0.6221376 0.6221376 0.6221376
0.6637732 0.6637732 0.6637732
0.7054351 0.7054351 0.7054351
0.7527875 0.7527875 0.7527875
0.8545846 0.8545846 0.8545846
0.8892786 0.8892786 0.8892786
0.9176952 0.9176952 0.9176952
0.9217576 0.9217576 0.9217576
0.2971896 0.2971896 0.2971896
0.3360948 0.3360948 0.3360948
0.3777619 0.3777619 0.3777619
0.4194286 0.4194286 0.4194286
0.4610953 0.4610953 0.4610953
0.5027620 0.5027620 0.5027620
0.5444286 0.5444286 0.5444286
0.5860953 0.5860953 0.5860953
0.6250000 0.6250000 0.6250000
0.3348460 0.3348460 0.3348460
0.3747344 0.3747344 0.3747344
0.4166442 0.4166442 0.4166442
0.4583312 0.4583312 0.4583312
0.5000001 0.5000001 0.5000001
0.5416667 0.5416667 0.5416667
0.5833333 0.5833333 0.5833333
0.6250000 0.6250000 0.6250000
0.6639047 0.6639047 0.6639047
0.3248972 0.3248972 0.3248972
0.4037298 0.4037298 0.4037298
0.4535839 0.4535839 0.4535839
0.4991922 0.4991922 0.4991922
0.5418662 0.5418662 0.5418662
0.5833827 0.5833827 0.5833827
0.6250028 0.6250028 0.6250028
0.6666667 0.6666667 0.6666667
0.7055714 0.7055714 0.7055714
0.2110994 0.2110994 0.2110994
0.3179061 0.3179061 0.3179061
0.4336442 0.4336442 0.4336442
0.5309701 0.5309701 0.5309701
0.5957443 0.5957443 0.5957443
0.6271511 0.6271511 0.6271511
0.6672109 0.6672109 0.6672109
0.7083554 0.7083554 0.7083554
0.7472381 0.7472381 0.7472381
0.2516617 0.2516617 0.2516617
0.3509973 0.3509973 0.3509973
0.5052879 0.5052879 0.5052879
0.5854735 0.5854735 0.5854735
0.6452171 0.6452171 0.6452171
0.7119036 0.7119036 0.7119036
0.7334830 0.7334830 0.7334830
0.7521598 0.7521598 0.7521598
0.7889148 0.7889148 0.7889148
0.2940224 0.2940224 0.2940224
0.3963147 0.3963147 0.3963147
0.5693422 0.5693422 0.5693422
0.7070121 0.7070121 0.7070121
0.7818269 0.7818269 0.7818269
0.8015416 0.8015416 0.8015416
0.8941136 0.8941136 0.8941136
0.8113738 0.8113738 0.8113738
0.8313132 0.8313132 0.8313132
0.4388110 0.4388110 0.4388110
0.5434235 0.5434235 0.5434235
0.5805439 0.5805439 0.5805439
0.7065410 0.7065410 0.7065410
0.8722242 0.8722242 0.8722242
0.8836150 0.8836150 0.8836150
0.9180181 0.9180181 0.9180181
0.8904707 0.8904707 0.8904707
0.8859274 0.8859274 0.8859274
0.5518964 0.5518964 0.5518964
0.6027419 0.6027419 0.6027419
0.6017336 0.6017336 0.6017336
0.6951962 0.6951962 0.6951962
0.8556133 0.8556133 0.8556133
0.9372469 0.9372469 0.9372469
0.9277577 0.9277577 0.9277577
0.9493574 0.9493574 0.9493574
0.9420584 0.9420584 0.9420584
0.6176309 0.6176309 0.6176309
0.6621349 0.6621349 0.6621349
0.7035132 0.7035132 0.7035132
0.7340626 0.7340626 0.7340626
0.7839763 0.7839763 0.7839763
0.8967267 0.8967267 0.8967267
0.9220182 0.9220182 0.9220182
0.9477290 0.9477290 0.9477290
0.9615289 0.9615289 0.9615289
0.3360953 0.3360953 0.3360953
0.3750000 0.3750000 0.3750000
0.4166667 0.4166667 0.4166667
0.4583333 0.4583333 0.4583333
0.5000000 0.5000000 0.5000000
0.5416667 0.5416667 0.5416667
0.5833333 0.5833333 0.5833333
0.6250000 0.6250000 0.6250000
0.6639047 0.6639047 0.6639047
0.3749728 0.3749728 0.3749728
0.4138993 0.4138993 0.4138993
0.4555710 0.4555710 0.4555710
0.4972379 0.4972379 0.4972379
0.5389047 0.5389047 0.5389047
0.5805714 0.5805714 0.5805714
0.6222380 0.6222380 0.6222380
0.6639047 0.6639047 0.6639047
0.7028094 0.7028094 0.7028094
0.4065570 0.4065570 0.4065570
0.4532628 0.4532628 0.4532628
0.4966460 0.4966460 0.4966460
0.5387300 0.5387300 0.5387300
0.5805723 0.5805723 0.5805723
0.6222382 0.6222382 0.6222382
0.6639047 0.6639047 0.6639047
0.7055714 0.7055714 0.7055714
0.7444761 0.7444761 0.7444761
0.2983688 0.2983688 0.2983688
0.4531946 0.4531946 0.4531946
0.5056342 0.5056342 0.5056342
0.5733261 0.5733261 0.5733261
0.6220679 0.6220679 0.6220679
0.6639213 0.6639213 0.6639213
0.7055779 0.7055779 0.7055779
0.7472384 0.7472384 0.7472384
0.7861428 0.7861428 0.7861428
0.2455484 0.2455484 0.2455484
0.3850632 0.3850632 0.3850632
0.5038215 0.5038215 0.5038215
0.5927408 0.5927408 0.5927408
0.6633847 0.6633847 0.6633847
0.7074350 0.7074350 0.7074350
0.7480964 0.7480964 0.7480964
0.7890261 0.7890261 0.7890261
0.8278100 0.8278100 0.8278100
0.2795721 0.2795721 0.2795721
0.4035845 0.4035845 0.4035845
0.5892363 0.5892363 0.5892363
0.6681426 0.6681426 0.6681426
0.7317213 0.7317213 0.7317213
0.7632989 0.7632989 0.7632989
0.8003801 0.8003801 0.8003801
0.8319717 0.8319717 0.8319717
0.8695026 0.8695026 0.8695026
0.3396426 0.3396426 0.3396426
0.4838827 0.4838827 0.4838827
0.6597502 0.6597502 0.6597502
0.7499347 0.7499347 0.7499347
0.8323748 0.8323748 0.8323748
0.8671663 0.8671663 0.8671663
0.8830793 0.8830793 0.8830793
0.8831120 0.8831120 0.8831120
0.9122492 0.9122492 0.9122492
0.3980410 0.3980410 0.3980410
0.6046463 0.6046463 0.6046463
0.6889726 0.6889726 0.6889726
0.7561455 0.7561455 0.7561455
0.8861167 0.8861167 0.8861167
0.9510440 0.9510440 0.9510440
0.9447082 0.9447082 0.9447082
0.9394069 0.9394069 0.9394069
0.9560603 0.9560603 0.9560603
0.6140271 0.6140271 0.6140271
0.6934435 0.6934435 0.6934435
0.7438124 0.7438124 0.7438124
0.7750666 0.7750666 0.7750666
0.8529590 0.8529590 0.8529590
0.9207658 0.9207658 0.9207658
0.9363395 0.9363395 0.9363395
0.9555215 0.9555215 0.9555215
0.9835584 0.9835584 0.9835584
