looks/lab_velvia_punch.cube
TITLE "Fujifilm lab_velvia_punch pooled norm (16 pairs)"
LUT_3D_SIZE 9
0.0087854 0.0068010 0.0063780
0.0975464 0.0041041 0.0023841
0.2208611 0.0091605 0.0016325
0.5049126 0.0098609 0.0019046
0.6404728 0.0102788 0.0027696
0.7264286 0.0110947 0.0039277
0.7884818 0.0064041 0.0079246
0.8756889 0.0081411 0.0083353
0.9916970 0.0082885 0.0082853
0.0099763 0.0648429 0.0031481
0.0858706 0.0888476 0.0082755
0.2865843 0.0876415 0.0019660
0.4909933 0.1017042 0.0020091
0.6065769 0.1182846 0.0037740
0.6956750 0.1014952 0.0055212
0.7927070 0.0868714 0.0087764
0.8777442 0.1173483 0.0082214
0.9915290 0.1246018 0.0082696
0.0238441 0.2352004 0.0061936
0.0989007 0.2638898 0.0018975
0.2763042 0.2553239 0.0030849
0.5165184 0.2403497 0.0076724
0.7087780 0.2584341 0.0037133
0.7768314 0.2912351 0.0039194
0.7866866 0.2834910 0.0080089
0.8767840 0.2505312 0.0082489
0.9916421 0.2495370 0.0082795
0.0106557 0.3720663 0.0080713
0.1323314 0.3722658 0.0055472
0.2135910 0.4262465 0.0021303
0.4498855 0.3876599 0.0032591
0.6719178 0.3964276 0.0206477
0.8051541 0.3875781 0.0132046
0.8850240 0.4194922 0.0107794
0.8925830 0.3947949 0.0095986
0.9913455 0.3760023 0.0083824
0.0084150 0.4999532 0.0082807
0.1300637 0.4990126 0.0078925
0.2618273 0.5399588 0.0045409
0.4059424 0.5906360 0.0027121
0.5767205 0.5175256 0.0028289
0.7589231 0.5104259 0.0226891
0.8973628 0.5174712 0.0322559
0.9339436 0.5146909 0.0186443
0.9937679 0.5121723 0.0129341
0.0082878 0.6249995 0.0082859
0.1254638 0.6248162 0.0082669
0.2606008 0.6235430 0.0074594
0.3508821 0.6325873 0.0036540
0.4772322 0.6341611 0.0029187
0.6364394 0.6239326 0.0185661
0.8180586 0.5858542 0.0435907
0.9547569 0.5826710 0.0375768
0.9966803 0.5943233 0.0293299
0.0082859 0.7500000 0.0082859
0.1250096 0.7499948 0.0082856
0.2508502 0.7489232 0.0082288
0.3790150 0.7311696 0.0070733
0.5009525 0.7054223 0.0043344
0.6147340 0.7279217 0.0066969
0.7595556 0.7291799 0.0327390
0.9032290 0.7120656 0.0537952
0.9944422 0.6781735 0.0466553
0.0082859 0.8750000 0.0082859
0.1250000 0.8750000 0.0082859
0.2500109 0.8749835 0.0082854
0.3755361 0.8737597 0.0082467
0.5070063 0.8621036 0.0079613
0.6259850 0.8455141 0.0084215
0.7431499 0.8593586 0.0130831
0.8829007 0.8581275 0.0329610
0.9935480 0.8098617 0.0479758
0.0082859 0.9917141 0.0082859
0.1250000 0.9917141 0.0082859
0.2500000 0.9917141 0.0082859
0.3750028 0.9917082 0.0082862
0.5000982 0.9914312 0.0082838
0.6251501 0.9901069 0.0083390
0.7499384 0.9905760 0.0091618
0.8772243 0.9860684 0.0119085
0.9924705 0.9581180 0.0297029
0.0028765 0.0360125 0.1040077
0.1206407 0.0147385 0.0856375
0.2743675 0.0205867 0.0793068
0.4473744 0.0059800 0.0573446
0.6024817 0.0073260 0.0559811
0.7233053 0.0059737 0.0566994
0.8097939 0.0057422 0.0741965
0.8800312 0.0079873 0.1146546
0.9915172 0.0083179 0.1245372
0.0018058 0.1044834 0.1155714
0.1109951 0.1193120 0.1158826
0.3041907 0.0762160 0.0573884
0.4712938 0.0325298 0.0208561
0.6320960 0.0312072 0.0209194
0.7823631 0.0216235 0.0202761
0.8795241 0.0190375 0.0241187
0.9122538 0.0630059 0.0571461
0.9896991 0.1182563 0.1171350
0.0037875 0.2201843 0.1411060
0.0723191 0.2334690 0.0355506
0.2653967 0.2928165 0.0487363
0.4640384 0.2441062 0.0372113
0.6787663 0.2484536 0.0101740
0.7757350 0.2697656 0.0174862
0.8187141 0.1752956 0.0678193
0.9033125 0.1749016 0.0839749
0.9894059 0.2342520 0.1166263
0.0081733 0.3685373 0.1303000
0.1223753 0.3666853 0.0698594
0.1993582 0.4136846 0.0336447
0.4249066 0.4116577 0.0738143
0.6488708 0.3809579 0.0958091
0.7871686 0.3801186 0.0446295
0.8390057 0.3957137 0.0494696
0.8874140 0.3888427 0.1013484
0.9911743 0.3737926 0.1234129
0.0082613 0.5001606 0.1250562
0.1241963 0.4990744 0.1184258
0.2225379 0.5056955 0.0639329
0.3695406 0.5436090 0.0395292
0.5793482 0.5355658 0.0622778
0.7652180 0.4943086 0.1579158
0.8948754 0.4789493 0.0966242
0.9458039 0.4917719 0.0610915
0.9943287 0.5092170 0.1171481
0.0082825 0.6249862 0.1250050
0.1243844 0.6248391 0.1247875
0.2494542 0.6251441 0.1128283
0.3830542 0.6335049 0.0584800
0.5074498 0.6598841 0.0456363
0.7140058 0.6070757 0.2393070
0.8665445 0.5703042 0.2536223
0.9846340 0.5606206 0.1720537
0.9963040 0.5916759 0.1337370
0.0082859 0.7499999 0.1250000
0.1249969 0.7499930 0.1249933
0.2504985 0.7494159 0.1241760
0.3833386 0.7403446 0.1088141
0.4938294 0.7204005 0.0707514
0.6426501 0.7426522 0.1433995
0.8029497 0.6791015 0.2175903
0.9481530 0.6568428 0.2706230
0.9974729 0.6547980 0.2576164
0.0082859 0.8750000 0.1250000
0.1250000 0.8750000 0.1250000
0.2500089 0.8749902 0.1249937
0.3758273 0.8736370 0.1240817
0.5043366 0.8570824 0.1199861
0.6181197 0.8133196 0.1076973
0.7746407 0.8316018 0.2585503
0.9279703 0.7811531 0.2564233
0.9960601 0.7078330 0.2211603
0.0082859 0.9917141 0.1250000
0.1250000 0.9917141 0.1250000
0.2500000 0.9917141 0.1250000
0.3750052 0.9917018 0.1249958
0.5002275 0.9909997 0.1248038
0.6268174 0.9866986 0.1307639
0.7524929 0.9824135 0.1377866
0.8902193 0.9572035 0.1352486
0.9967580 0.7903718 0.1779725
0.0081665 0.0467556 0.2544587
0.1042593 0.0117186 0.2831454
0.2625154 0.0118354 0.2448283
0.3883193 0.0094712 0.2416641
0.5190002 0.0082758 0.2267449
0.6488503 0.0076856 0.2163753
0.7640448 0.0077964 0.2244367
0.8776255 0.0083752 0.2407420
0.9916083 0.0083245 0.2492278
0.0017672 0.1209696 0.2821349
0.0907330 0.0954659 0.2743438
0.2895608 0.0661436 0.2682400
0.4464466 0.0499077 0.2462268
0.6308081 0.0557741 0.1722788
0.7472637 0.0433776 0.1145380
0.8460002 0.0439178 0.1179305
0.9152140 0.0724828 0.1353183
0.9889066 0.1128472 0.2263817
0.0037483 0.2367889 0.2735783
0.0241773 0.2842793 0.2859716
0.2940507 0.3034981 0.2973536
0.4980100 0.2400681 0.2150720
0.6749203 0.1387962 0.0887443
0.8034101 0.1220985 0.0639986
0.8848941 0.0737414 0.0678964
0.9406285 0.0647925 0.0576648
0.9803525 0.1745342 0.1703351
0.0081559 0.3724230 0.2502001
0.0482755 0.3961848 0.1934310
0.1375003 0.4108402 0.1057188
0.4653962 0.4799238 0.2250159
0.5787048 0.3851658 0.1501685
0.7255117 0.3054150 0.0727540
0.8739004 0.2997771 0.0498919
0.8971612 0.3016286 0.1916863
0.9889090 0.3227739 0.2182554
0.0076571 0.5027038 0.2456592
0.0504946 0.5342556 0.1950855
0.0854936 0.5596590 0.0550309
0.2917570 0.5821287 0.0893583
0.5711031 0.5434320 0.2564228
0.7339665 0.4958706 0.2778271
0.8651553 0.4594713 0.2117575
0.9443349 0.5052039 0.2020975
0.9931921 0.5173993 0.2432195
0.0082294 0.6247768 0.2497725
0.1132765 0.6229011 0.2403198
0.1714315 0.6307533 0.1587639
0.2237124 0.6597231 0.0446858
0.4865139 0.6434806 0.1638480
0.6758760 0.6598393 0.2528455
0.8589259 0.5882964 0.3514785
0.9571356 0.5603898 0.2406542
0.9974441 0.6166617 0.2776023
0.0082854 0.7499958 0.2499991
0.1247733 0.7498075 0.2497247
0.2438872 0.7476304 0.2418562
0.3425099 0.7409624 0.2063577
0.5076330 0.7362849 0.2132315
0.6103886 0.7498057 0.1789764
0.7401552 0.7300901 0.1654801
0.9446751 0.6593243 0.3611430
0.9974784 0.6630165 0.3230213
0.0082859 0.8750000 0.2500000
0.1249997 0.8749995 0.2499994
0.2499731 0.8749667 0.2499532
0.3742892 0.8744423 0.2491633
0.5030637 0.8700138 0.2494717
0.6437880 0.8465925 0.2837233
0.7545045 0.8306267 0.2066175
0.8731217 0.8053592 0.2633835
0.9924967 0.7443862 0.3804249
0.0082859 0.9917141 0.2500000
0.1250000 0.9917141 0.2500000
0.2500000 0.9917141 0.2500000
0.3749998 0.9917111 0.2499988
0.5001281 0.9915429 0.2500872
0.6273209 0.9873659 0.2546754
0.7522720 0.9796795 0.2488539
0.8883938 0.9598041 0.2765498
0.9976116 0.8305148 0.4475983
0.0066484 0.0352980 0.3880752
0.1248193 0.0109619 0.4241563
0.2488056 0.0114289 0.3963652
0.4471076 0.0094045 0.4323694
0.5371853 0.0090236 0.4204066
0.6301275 0.0085168 0.3771944
0.7523251 0.0083484 0.3729644
0.8751581 0.0083191 0.3742590
0.9917006 0.0082973 0.3748081
0.0020553 0.1467625 0.4632314
0.0877330 0.0619084 0.5074788
0.2600504 0.0591065 0.4690677
0.5151210 0.0502364 0.4697551
0.6113983 0.0480722 0.4642673
0.7329085 0.0768063 0.3813828
0.7998728 0.0895207 0.3482709
0.8852874 0.1115379 0.3366217
0.9901335 0.1199972 0.3600597
0.0028747 0.2399400 0.4196611
0.0387065 0.2432228 0.4027018
0.2235408 0.2639920 0.4324047
0.4757770 0.2543140 0.4599651
0.6249129 0.1659843 0.3430769
0.7650630 0.1410865 0.3053915
0.8663125 0.1232280 0.2594297
0.9341720 0.0983611 0.2040928
0.9826260 0.1559448 0.2438507
0.0073719 0.3669572 0.3866437
0.0441353 0.3845815 0.3787759
0.1248451 0.4283668 0.4597105
0.4572005 0.4612269 0.4635715
0.5900681 0.3830874 0.3660320
0.7243871 0.2907903 0.2483202
0.8518665 0.2520882 0.2267928
0.9323646 0.2270129 0.2301859
0.9808623 0.2104829 0.2083056
0.0075138 0.5033271 0.3677849
0.0342824 0.5428438 0.2867692
0.0496143 0.5601194 0.2376739
0.3000638 0.5401304 0.2518275
0.5633524 0.5656095 0.3576891
0.6281286 0.4637399 0.2740970
0.7719529 0.4238707 0.2183106
0.8518386 0.4601857 0.2667890
0.9672482 0.4795281 0.3245611
0.0081593 0.6245522 0.3737089
0.0992564 0.6209341 0.3486651
0.0968468 0.6334679 0.2309972
0.1646811 0.6566532 0.1587418
0.3865811 0.6583672 0.1666379
0.6633105 0.6619643 0.4270280
0.8057342 0.5804706 0.3816660
0.8981365 0.5448591 0.3209015
0.9659175 0.5847688 0.3309316
0.0082846 0.7499887 0.3749888
0.1245429 0.7496209 0.3742596
0.2376675 0.7459582 0.3597417
0.3038250 0.7381784 0.2713428
0.2861005 0.7515401 0.1630268
0.6319770 0.7480843 0.3635367
0.7666930 0.7319922 0.2170828
0.9084957 0.6669058 0.4672909
0.9798749 0.6436312 0.3883179
0.0082859 0.8750000 0.3750000
0.1249992 0.8749987 0.3749982
0.2499528 0.8749443 0.3748935
0.3713798 0.8724395 0.3689901
0.4683597 0.8606966 0.3410561
0.6172078 0.8545063 0.3551434
0.7568364 0.8428323 0.3967901
0.8367327 0.8340629 0.3266916
0.9959970 0.7540565 0.4424872
0.0082859 0.9917141 0.3750000
0.1250000 0.9917141 0.3750000
0.2500000 0.9917139 0.3749998
0.3749844 0.9916853 0.3749678
0.4996940 0.9913426 0.3746256
0.6251870 0.9896525 0.3743083
0.7540288 0.9733319 0.3706190
0.8606066 0.9423431 0.3578730
0.9974917 0.7949482 0.3212951
0.0080147 0.0198157 0.5074939
0.1198569 0.0105183 0.5152277
0.2536540 0.0095743 0.5144146
0.4168335 0.0096113 0.5232443
0.5368961 0.0092369 0.5210695
0.6344305 0.0088499 0.5080436
0.7504963 0.0083718 0.5002300
0.8750051 0.0082937 0.4999791
0.9917133 0.0082871 0.4999923
0.0043271 0.2044037 0.6198463
0.0636088 0.0718715 0.6465824
0.2450143 0.0511971 0.6239280
0.5233273 0.0454841 0.6420134
0.6917832 0.0375430 0.6180665
0.7431768 0.0569472 0.5824918
0.7724154 0.1103747 0.5224378
0.8763364 0.1238037 0.4941740
0.9914662 0.1246754 0.4976822
0.0026301 0.2889252 0.5737411
0.0146820 0.2672336 0.6505663
0.1994559 0.1828482 0.6282583
0.4444003 0.1811832 0.5968342
0.6617773 0.1543078 0.6279537
0.7927890 0.1037829 0.5990833
0.8350333 0.1557746 0.5337651
0.8980477 0.2084030 0.4227114
0.9864179 0.2231642 0.4421447
0.0051640 0.3686645 0.5418445
0.0360787 0.3823498 0.5593595
0.1449283 0.3693184 0.5646850
0.3919290 0.4443518 0.5914879
0.5920378 0.3902440 0.5275705
0.7201733 0.3532082 0.4866112
0.8293518 0.2813050 0.4112232
0.9009351 0.2542137 0.3598481
0.9814728 0.2310049 0.3510990
0.0080028 0.4985383 0.5036953
0.0871951 0.5048074 0.4863246
0.1203268 0.5113365 0.4754521
0.3370200 0.5546334 0.5824678
0.5837458 0.5898563 0.6143156
0.6755635 0.5113503 0.5090313
0.7718450 0.4120858 0.3942857
0.8801677 0.4036378 0.3816370
0.9497499 0.4505507 0.4296817
0.0082676 0.6249582 0.4997632
0.1204424 0.6237195 0.4924609
0.2148867 0.6238606 0.4624263
0.2994454 0.6393448 0.4366545
0.4536250 0.6609592 0.4074242
0.6467208 0.6479272 0.4763223
0.6603956 0.5142177 0.3490093
0.8287174 0.5169804 0.3413505
0.9082292 0.5214773 0.3227892
0.0082857 0.7499981 0.4999966
0.1249313 0.7499385 0.4998633
0.2489506 0.7494137 0.4977474
0.3398682 0.7442093 0.4396288
0.3589819 0.7506830 0.3207415
0.5451587 0.7599044 0.3158871
0.7432254 0.7172849 0.4186335
0.8282890 0.6379209 0.4307517
0.9291703 0.6015756 0.3654350
0.0082859 0.8750000 0.5000000
0.1249999 0.8749999 0.4999998
0.2499885 0.8749725 0.4999439
0.3734896 0.8731851 0.4940649
0.4612415 0.8539879 0.4223542
0.5270433 0.8361349 0.3539366
0.7797871 0.8341298 0.6552978
0.8784916 0.8443623 0.7106234
0.9482211 0.7281270 0.5819874
0.0082859 0.9917141 0.5000000
0.1250000 0.9917141 0.5000000
0.2500000 0.9917140 0.4999998
0.3749864 0.9916657 0.4999229
0.4994358 0.9905095 0.4982608
0.6194976 0.9834162 0.4901315
0.7548788 0.9763378 0.5192833
0.9014978 0.9519183 0.6476176
0.9928123 0.8350813 0.5140518
0.0082579 0.0101168 0.6261875
0.1237856 0.0092699 0.6264347
0.2495545 0.0086824 0.6259661
0.3773344 0.0088250 0.6261258
0.5047692 0.0087460 0.6261058
0.6284594 0.0085269 0.6253474
0.7501312 0.0083238 0.6250484
0.8750018 0.0082891 0.6250029
0.9917141 0.0082859 0.6249999
0.0066805 0.1782708 0.6827556
0.0857814 0.1259039 0.6761509
0.2274908 0.1030778 0.6609532
0.4112056 0.1050137 0.6615844
0.5666925 0.0964229 0.6494473
0.6815103 0.1010036 0.6351330
0.7669548 0.1195047 0.6319702
0.8754068 0.1247419 0.6255560
0.9917040 0.1250116 0.6249114
0.0031410 0.3303828 0.7940794
0.0243768 0.2061193 0.7698945
0.1936600 0.1484952 0.7539278
0.4311957 0.1488279 0.7428939
0.6345816 0.1423605 0.7056366
0.7925413 0.1261845 0.6819060
0.8666089 0.1518694 0.6810198
0.8816120 0.2384139 0.6280828
0.9899608 0.2489672 0.6153328
0.0035343 0.3976301 0.6975341
0.0187689 0.4094149 0.7174714
0.0766150 0.3777967 0.7176836
0.3506313 0.3630495 0.7307461
0.5764045 0.3570897 0.7176345
0.7543222 0.3016553 0.7190028
0.8675286 0.2565715 0.6781673
0.8869521 0.3375941 0.5296068
0.9763860 0.3486993 0.5673774
0.0069036 0.4976949 0.6488338
0.0536429 0.5027122 0.6422513
0.1218935 0.4730449 0.6884747
0.3300192 0.5148299 0.6950402
0.5466837 0.5601024 0.7019361
0.6718709 0.5351653 0.6513945
0.8226816 0.4284386 0.5715421
0.8590741 0.4399447 0.5304704
0.9478982 0.4680126 0.5800477
0.0082454 0.6245409 0.6255149
0.1190394 0.6200771 0.6272368
0.2124651 0.6103852 0.6275001
0.2797466 0.6256613 0.5773901
0.5194303 0.6661253 0.6729348
0.6699769 0.6784897 0.7114135
0.7531731 0.6100557 0.6129839
0.8231815 0.5322307 0.5091310
0.9218384 0.5392310 0.4810741
0.0082858 0.7499981 0.6250004
0.1249598 0.7498944 0.6250446
0.2510845 0.7478630 0.6253020
0.3716751 0.7414925 0.6093630
0.4263244 0.7505229 0.5209486
0.5698964 0.7589191 0.5260004
0.7836516 0.7726221 0.6290223
0.6221454 0.4825681 0.3367922
0.9206237 0.6024106 0.4385749
0.0082859 0.8750000 0.6250000
0.1250049 0.8749967 0.6250011
0.2502810 0.8747305 0.6250892
0.3751463 0.8738517 0.6236932
0.4836624 0.8575292 0.5969177
0.5611333 0.8383262 0.4746118
0.6447245 0.8390828 0.4454398
0.7927347 0.7490900 0.5930516
0.9687363 0.7346870 0.5388085
0.0082859 0.9917141 0.6250000
0.1250000 0.9917141 0.6250000
0.2500016 0.9917119 0.6250005
0.3750032 0.9916942 0.6249921
0.4999610 0.9908266 0.6242546
0.6197599 0.9777920 0.6015823
0.7134672 0.9491432 0.5718108
0.8872368 0.9342014 0.7620224
0.9560156 0.9131262 0.8706243
0.0082820 0.0085166 0.7500569
0.1249179 0.0084037 0.7500284
0.2499640 0.0083117 0.7500005
0.3750339 0.0083194 0.7500001
0.5000676 0.0082996 0.7499828
0.6250573 0.0082973 0.7499741
0.7500068 0.0082894 0.7499963
0.8750002 0.0082861 0.7499998
0.9917141 0.0082859 0.7500000
0.0077587 0.1448202 0.7591312
0.1175226 0.1307199 0.7538284
0.2471275 0.1253891 0.7511068
0.3770791 0.1247930 0.7511258
0.5036607 0.1248895 0.7497246
0.6297116 0.1243207 0.7487186
0.7514509 0.1249005 0.7494740
0.8750538 0.1250387 0.7500158
0.9917133 0.1250009 0.7500004
0.0044788 0.3405237 0.8400351
0.0597741 0.2595295 0.7972243
0.1930988 0.2246959 0.7857237
0.3687148 0.2075389 0.7698196
0.5337943 0.2331060 0.7717664
0.6836078 0.2298924 0.7482971
0.7913947 0.2217992 0.7405041
0.8787255 0.2468093 0.7531024
0.9916580 0.2500214 0.7499527
0.0034345 0.4599696 0.8585542
0.0173681 0.3861929 0.8445417
0.1170030 0.3033606 0.8172294
0.3402614 0.2989709 0.7928770
0.5620807 0.3098240 0.7984682
0.7278863 0.3320806 0.8118448
0.8841796 0.2903698 0.8301611
0.9192761 0.3444485 0.7650260
0.9896680 0.3739533 0.7476104
0.0055456 0.5015935 0.7961319
0.0328626 0.5056056 0.7894623
0.0812138 0.4825841 0.7798046
0.2482389 0.4956025 0.7914211
0.5019490 0.4937293 0.7932096
0.6621319 0.4905517 0.8169767
0.8548872 0.4230900 0.8020366
0.9035612 0.4417502 0.6973843
0.9519706 0.4888758 0.6858942
0.0080953 0.6226096 0.7528862
0.1081738 0.6121233 0.7559554
0.1488154 0.5846376 0.7842854
0.2510965 0.5947962 0.7608268
0.4768737 0.6214672 0.7567374
0.6584229 0.6576307 0.7754110
0.7878881 0.6231909 0.7502872
0.8535935 0.5784770 0.6761164
0.9239550 0.5777720 0.6655082
0.0082848 0.7499732 0.7500181
0.1253883 0.7492433 0.7503650
0.3096417 0.7168514 0.7443561
0.4331842 0.6774170 0.7454742
0.4212801 0.7464675 0.7547316
0.6249457 0.7753820 0.7740518
0.7242519 0.7421098 0.7655694
0.8126376 0.6876189 0.6837986
0.9086860 0.6168894 0.5952868
0.0082860 0.8749999 0.7500001
0.1251638 0.8748879 0.7499907
0.2593780 0.8660159 0.7492548
0.3872940 0.8540051 0.7487739
0.4724264 0.8466681 0.7385060
0.5385767 0.8287546 0.6552567
0.6747439 0.8433513 0.6296400
0.7734031 0.7413927 0.6480915
0.9025788 0.7181494 0.5821766
0.0082859 0.9917141 0.7500000
0.1250010 0.9917132 0.7499999
0.2500697 0.9916210 0.7499973
0.3751854 0.9912829 0.7499974
0.4994444 0.9893445 0.7489710
0.6201854 0.9796751 0.7393784
0.7107118 0.9332863 0.6759109
0.8601795 0.9439912 0.6857020
0.9381422 0.8538280 0.5257677
0.0082858 0.0082939 0.8750001
0.1249989 0.0082884 0.8749996
0.2499997 0.0082862 0.8749998
0.3750001 0.0082863 0.8749996
0.5000001 0.0082861 0.8749999
0.6250001 0.0082860 0.8749999
0.7500001 0.0082859 0.8749999
0.8750000 0.0082859 0.8750000
0.9917141 0.0082859 0.8750000
0.0082413 0.1272418 0.8751136
0.1246688 0.1255002 0.8749655
0.2497522 0.1251579 0.8749633
0.3749853 0.1250266 0.8749228
0.5000694 0.1250814 0.8749322
0.6250451 0.1250183 0.8749651
0.7500358 0.1250044 0.8749588
0.8750014 0.1250022 0.8749979
0.9917141 0.1250001 0.8750000
0.0072910 0.2822305 0.8804521
0.1111137 0.2618549 0.8750096
0.2313265 0.2495606 0.8732947
0.3735963 0.2495050 0.8737208
0.5032805 0.2493603 0.8721520
0.6276307 0.2507653 0.8743085
0.7538083 0.2506460 0.8747828
0.8758107 0.2505985 0.8748298
0.9916979 0.2500524 0.8749865
0.0047688 0.4493613 0.8978767
0.0452444 0.4006412 0.8914028
0.1569403 0.3542874 0.8801795
0.3455029 0.3644467 0.8712623
0.5213615 0.3647440 0.8619667
0.6537780 0.3707235 0.8797126
0.7961586 0.3651240 0.8867717
0.9064658 0.3646736 0.8767355
0.9912437 0.3741441 0.8751509
0.0040134 0.5289574 0.9158510
0.0116076 0.5289760 0.9022202
0.1218512 0.4634720 0.8946745
0.2612769 0.4531743 0.8569473
0.5217191 0.4715571 0.8463742
0.6310404 0.4813181 0.8769080
0.8337834 0.4374931 0.9149931
0.9473506 0.4221444 0.9124632
0.9873256 0.4957391 0.8767407
0.0075420 0.6163389 0.8825415
0.0844434 0.6017622 0.8837638
0.0798211 0.5698888 0.9453241
0.2055396 0.5784544 0.8844738
0.3876372 0.5962188 0.8780976
0.5810891 0.5962237 0.8516558
0.7909777 0.5681209 0.8851863
0.9099655 0.5544222 0.8585238
0.9489253 0.6239380 0.8275367
0.0082457 0.7485456 0.8760672
0.1210071 0.7445290 0.8787331
0.2268909 0.7022965 0.8798248
0.3655614 0.6506062 0.8316052
0.3561627 0.7200226 0.8580254
0.6133956 0.7586203 0.8871714
0.7150153 0.7677486 0.8725246
0.8515654 0.7032714 0.8178889
0.9501895 0.6873899 0.7988340
0.0082857 0.8749865 0.8750055
0.1251398 0.8748096 0.8749762
0.2732761 0.8537900 0.8658749
0.4555589 0.7550394 0.8245062
0.4612704 0.8448606 0.8571997
0.6226920 0.8359309 0.8541070
0.7239547 0.8392949 0.8293099
0.7694671 0.8085662 0.8273894
0.8839848 0.7433953 0.7318429
0.0082859 0.9917141 0.8750000
0.1250057 0.9917088 0.8749985
0.2507882 0.9906879 0.8746979
0.3777654 0.9857872 0.8732549
0.4997607 0.9904140 0.8744875
0.6267673 0.9825624 0.8719850
0.7290972 0.9393868 0.8077910
0.8044546 0.9086293 0.8055484
0.9136479 0.8361256 0.7157648
0.0082859 0.0082859 0.9917141
0.1250000 0.0082859 0.9917141
0.2500000 0.0082859 0.9917141
0.3750000 0.0082859 0.9917141
0.5000000 0.0082859 0.9917141
0.6250000 0.0082859 0.9917141
0.7500000 0.0082859 0.9917141
0.8750000 0.0082859 0.9917141
0.9917141 0.0082859 0.9917141
0.0082855 0.1250240 0.9917060
0.1249963 0.1250084 0.9917111
0.2499967 0.1250022 0.9917115
0.3749993 0.1250004 0.9917136
0.5000002 0.1250004 0.9917135
0.6250001 0.1250001 0.9917140
0.7500001 0.1250001 0.9917140
0.8750000 0.1250001 0.9917141
0.9917141 0.1250000 0.9917141
0.0082487 0.2514817 0.9911144
0.1244891 0.2507162 0.9913300
0.2494833 0.2501761 0.9914416
0.3749478 0.2500213 0.9916332
0.4999876 0.2500110 0.9916389
0.6250290 0.2500337 0.9916805
0.7500576 0.2500363 0.9916822
0.8750691 0.2500662 0.9916695
0.9917136 0.2500055 0.9917104
0.0070986 0.4112640 0.9798483
0.1020669 0.4007880 0.9833911
0.2313307 0.3805023 0.9864834
0.3660966 0.3737549 0.9884832
0.5014895 0.3750998 0.9897361
0.6253356 0.3751087 0.9898298
0.7540811 0.3751920 0.9899833
0.8805314 0.3743153 0.9882181
0.9916713 0.3749479 0.9914245
0.0043589 0.5412080 0.9656870
0.0277124 0.5250260 0.9615078
0.1419954 0.4802996 0.9648811
0.3160599 0.4816656 0.9695010
0.4864485 0.4986477 0.9850881
0.6277631 0.5004349 0.9738021
0.7756514 0.4878911 0.9831908
0.8985353 0.4835396 0.9784191
0.9901596 0.4985013 0.9899076
0.0060995 0.6078810 0.9883218
0.0237675 0.5880051 0.9877166
0.0856753 0.5861923 0.9897680
0.2197527 0.5864311 0.9453270
0.4113700 0.6227433 0.9433211
0.5157909 0.6220888 0.9241433
0.7649148 0.5999320 0.9621677
0.8955923 0.5773509 0.9662129
0.9821624 0.6191239 0.9856149
0.0080466 0.7413337 0.9916767
0.1009617 0.7186853 0.9921421
0.1843226 0.7008014 0.9920775
0.2278754 0.6511595 0.9861091
0.3369225 0.6585597 0.9836152
0.5131022 0.6930213 0.9428210
0.6177838 0.7234240 0.9088877
0.8629066 0.6728504 0.9414228
0.9846348 0.6939261 0.9242886
0.0082846 0.8749194 0.9917139
0.1247329 0.8743446 0.9917127
0.2608491 0.8650851 0.9833296
0.4088110 0.8176599 0.9461173
0.4604413 0.8202945 0.9920025
0.5949242 0.8486550 0.9955483
0.7231214 0.8531461 0.9642563
0.7613499 0.8389663 0.9276545
0.9350610 0.7929195 0.9252593
0.0082859 0.9917141 0.9917141
0.1250026 0.9917115 0.9917126
0.2503750 0.9912258 0.9914255
0.3763157 0.9888941 0.9900468
0.5007236 0.9899979 0.9917101
0.6292285 0.9679264 0.9933510
0.6950878 0.9157830 0.9959300
0.8031737 0.9123796 0.9668681
0.8918654 0.9098799 0.9357327
