looks/lab_noir.cube
TITLE "Latent Lab noir (34 scenes)"
LUT_3D_SIZE 33
0.0001891 0.0001891 0.0001891
0.0019899 0.0019899 0.0019899
0.0087868 0.0087868 0.0087868
0.0220320 0.0220320 0.0220320
0.0423175 0.0423175 0.0423175
0.0687747 0.0687747 0.0687747
0.0923436 0.0923436 0.0923436
0.1090579 0.1090579 0.1090579
0.1193453 0.1193453 0.1193453
0.1397575 0.1397575 0.1397575
0.1686611 0.1686611 0.1686611
0.1928135 0.1928135 0.1928135
0.2330110 0.2330110 0.2330110
0.2716171 0.2716171 0.2716171
0.2875463 0.2875463 0.2875463
0.3122891 0.3122891 0.3122891
0.3590398 0.3590398 0.3590398
0.3561658 0.3561658 0.3561658
0.3141150 0.3141150 0.3141150
0.2708103 0.2708103 0.2708103
0.2439149 0.2439149 0.2439149
0.2350322 0.2350322 0.2350322
0.2377871 0.2377871 0.2377871
0.2458299 0.2458299 0.2458299
0.2556671 0.2556671 0.2556671
0.2659688 0.2659688 0.2659688
0.2763655 0.2763655 0.2763655
0.2867774 0.2867774 0.2867774
0.2971919 0.2971919 0.2971919
0.3076077 0.3076077 0.3076077
0.3180222 0.3180222 0.3180222
0.3282768 0.3282768 0.3282768
0.3360953 0.3360953 0.3360953
0.0005300 0.0005300 0.0005300
0.0033213 0.0033213 0.0033213
0.0118805 0.0118805 0.0118805
0.0274972 0.0274972 0.0274972
0.0490835 0.0490835 0.0490835
0.0760536 0.0760536 0.0760536
0.1023469 0.1023469 0.1023469
0.1250046 0.1250046 0.1250046
0.1404994 0.1404994 0.1404994
0.1574323 0.1574323 0.1574323
0.1863864 0.1863864 0.1863864
0.2066604 0.2066604 0.2066604
0.2303699 0.2303699 0.2303699
0.2731471 0.2731471 0.2731471
0.3053382 0.3053382 0.3053382
0.3400119 0.3400119 0.3400119
0.3747272 0.3747272 0.3747272
0.3646357 0.3646357 0.3646357
0.3220415 0.3220415 0.3220415
0.2787084 0.2787084 0.2787084
0.2518308 0.2518308 0.2518308
0.2430191 0.2430191 0.2430191
0.2458395 0.2458395 0.2458395
0.2538397 0.2538397 0.2538397
0.2635978 0.2635978 0.2635978
0.2738462 0.2738462 0.2738462
0.2842179 0.2842179 0.2842179
0.2946129 0.2946129 0.2946129
0.3050167 0.3050167 0.3050167
0.3154280 0.3154280 0.3154280
0.3258411 0.3258411 0.3258411
0.3360954 0.3360954 0.3360954
0.3439139 0.3439139 0.3439139
0.0016425 0.0016425 0.0016425
0.0066278 0.0066278 0.0066278
0.0170282 0.0170282 0.0170282
0.0335011 0.0335011 0.0335011
0.0554099 0.0554099 0.0554099
0.0809702 0.0809702 0.0809702
0.1068170 0.1068170 0.1068170
0.1314596 0.1314596 0.1314596
0.1487880 0.1487880 0.1487880
0.1639814 0.1639814 0.1639814
0.1914153 0.1914153 0.1914153
0.2172979 0.2172979 0.2172979
0.2319562 0.2319562 0.2319562
0.2560334 0.2560334 0.2560334
0.2832543 0.2832543 0.2832543
0.3136250 0.3136250 0.3136250
0.3499933 0.3499933 0.3499933
0.3456740 0.3456740 0.3456740
0.3139502 0.3139502 0.3139502
0.2802349 0.2802349 0.2802349
0.2597667 0.2597667 0.2597667
0.2540671 0.2540671 0.2540671
0.2574682 0.2574682 0.2574682
0.2650319 0.2650319 0.2650319
0.2743581 0.2743581 0.2743581
0.2844048 0.2844048 0.2844048
0.2946519 0.2946519 0.2946519
0.3049515 0.3049515 0.3049515
0.3153020 0.3153020 0.3153020
0.3256916 0.3256916 0.3256916
0.3360979 0.3360979 0.3360979
0.3463505 0.3463505 0.3463505
0.3541686 0.3541686 0.3541686
0.0050431 0.0050431 0.0050431
0.0135711 0.0135711 0.0135711
0.0249951 0.0249951 0.0249951
0.0398708 0.0398708 0.0398708
0.0600842 0.0600842 0.0600842
0.0876011 0.0876011 0.0876011
0.1183800 0.1183800 0.1183800
0.1464390 0.1464390 0.1464390
0.1673681 0.1673681 0.1673681
0.1823012 0.1823012 0.1823012
0.2005529 0.2005529 0.2005529
0.2264436 0.2264436 0.2264436
0.2518023 0.2518023 0.2518023
0.2713647 0.2713647 0.2713647
0.2901088 0.2901088 0.2901088
0.3021757 0.3021757 0.3021757
0.3192342 0.3192342 0.3192342
0.3184375 0.3184375 0.3184375
0.3013765 0.3013765 0.3013765
0.2822905 0.2822905 0.2822905
0.2734531 0.2734531 0.2734531
0.2714881 0.2714881 0.2714881
0.2731261 0.2731261 0.2731261
0.2783509 0.2783509 0.2783509
0.2863781 0.2863781 0.2863781
0.2959633 0.2959633 0.2959633
0.3057716 0.3057716 0.3057716
0.3156872 0.3156872 0.3156872
0.3258334 0.3258334 0.3258334
0.3361405 0.3361405 0.3361405
0.3465207 0.3465207 0.3465207
0.3567668 0.3567668 0.3567668
0.3645837 0.3645837 0.3645837
0.0143810 0.0143810 0.0143810
0.0249833 0.0249833 0.0249833
0.0370635 0.0370635 0.0370635
0.0507775 0.0507775 0.0507775
0.0683967 0.0683967 0.0683967
0.0954263 0.0954263 0.0954263
0.1335678 0.1335678 0.1335678
0.1686012 0.1686012 0.1686012
0.1932778 0.1932778 0.1932778
0.2151287 0.2151287 0.2151287
0.2368062 0.2368062 0.2368062
0.2581393 0.2581393 0.2581393
0.2808528 0.2808528 0.2808528
0.3011046 0.3011046 0.3011046
0.3175488 0.3175488 0.3175488
0.3226237 0.3226237 0.3226237
0.3290383 0.3290383 0.3290383
0.3368079 0.3368079 0.3368079
0.3207667 0.3207667 0.3207667
0.3075697 0.3075697 0.3075697
0.3046873 0.3046873 0.3046873
0.2991703 0.2991703 0.2991703
0.2940659 0.2940659 0.2940659
0.2951875 0.2951875 0.2951875
0.3016171 0.3016171 0.3016171
0.3099778 0.3099778 0.3099778
0.3183013 0.3183013 0.3183013
0.3270636 0.3270636 0.3270636
0.3365986 0.3365986 0.3365986
0.3466587 0.3466587 0.3466587
0.3569611 0.3569611 0.3569611
0.3671879 0.3671879 0.3671879
0.3750011 0.3750011 0.3750011
0.0297669 0.0297669 0.0297669
0.0381088 0.0381088 0.0381088
0.0519097 0.0519097 0.0519097
0.0691881 0.0691881 0.0691881
0.0872585 0.0872585 0.0872585
0.1099699 0.1099699 0.1099699
0.1426247 0.1426247 0.1426247
0.1823151 0.1823151 0.1823151
0.2140326 0.2140326 0.2140326
0.2389845 0.2389845 0.2389845
0.2649409 0.2649409 0.2649409
0.2894605 0.2894605 0.2894605
0.3104290 0.3104290 0.3104290
0.3217845 0.3217845 0.3217845
0.3314403 0.3314403 0.3314403
0.3454275 0.3454275 0.3454275
0.3496132 0.3496132 0.3496132
0.3578700 0.3578700 0.3578700
0.3532782 0.3532782 0.3532782
0.3537479 0.3537479 0.3537479
0.3490664 0.3490664 0.3490664
0.3334891 0.3334891 0.3334891
0.3197801 0.3197801 0.3197801
0.3169115 0.3169115 0.3169115
0.3235474 0.3235474 0.3235474
0.3292422 0.3292422 0.3292422
0.3336681 0.3336681 0.3336681
0.3397135 0.3397135 0.3397135
0.3478257 0.3478257 0.3478257
0.3573115 0.3573115 0.3573115
0.3674330 0.3674330 0.3674330
0.3776149 0.3776149 0.3776149
0.3854195 0.3854195 0.3854195
0.0413547 0.0413547 0.0413547
0.0503913 0.0503913 0.0503913
0.0689342 0.0689342 0.0689342
0.0921267 0.0921267 0.0921267
0.1138814 0.1138814 0.1138814
0.1377673 0.1377673 0.1377673
0.1626569 0.1626569 0.1626569
0.1950487 0.1950487 0.1950487
0.2303178 0.2303178 0.2303178
0.2542593 0.2542593 0.2542593
0.2758548 0.2758548 0.2758548
0.3001093 0.3001093 0.3001093
0.3272622 0.3272622 0.3272622
0.3490172 0.3490172 0.3490172
0.3729377 0.3729377 0.3729377
0.4028413 0.4028413 0.4028413
0.4043244 0.4043244 0.4043244
0.3995911 0.3995911 0.3995911
0.3882834 0.3882834 0.3882834
0.3950751 0.3950751 0.3950751
0.3892899 0.3892899 0.3892899
0.3687515 0.3687515 0.3687515
0.3515582 0.3515582 0.3515582
0.3463287 0.3463287 0.3463287
0.3539095 0.3539095 0.3539095
0.3551966 0.3551966 0.3551966
0.3528732 0.3528732 0.3528732
0.3540981 0.3540981 0.3540981
0.3596810 0.3596810 0.3596810
0.3681468 0.3681468 0.3681468
0.3779474 0.3779474 0.3779474
0.3880499 0.3880499 0.3880499
0.3958392 0.3958392 0.3958392
0.0567189 0.0567189 0.0567189
0.0710496 0.0710496 0.0710496
0.0924205 0.0924205 0.0924205
0.1133454 0.1133454 0.1133454
0.1388956 0.1388956 0.1388956
0.1680720 0.1680720 0.1680720
0.1951935 0.1951935 0.1951935
0.2231177 0.2231177 0.2231177
0.2521565 0.2521565 0.2521565
0.2761314 0.2761314 0.2761314
0.2855379 0.2855379 0.2855379
0.2966845 0.2966845 0.2966845
0.3230536 0.3230536 0.3230536
0.3592751 0.3592751 0.3592751
0.3929762 0.3929762 0.3929762
0.4325096 0.4325096 0.4325096
0.4623393 0.4623393 0.4623393
0.4556994 0.4556994 0.4556994
0.4210140 0.4210140 0.4210140
0.4202885 0.4202885 0.4202885
0.4217133 0.4217133 0.4217133
0.4084747 0.4084747 0.4084747
0.3919291 0.3919291 0.3919291
0.3854586 0.3854586 0.3854586
0.3915778 0.3915778 0.3915778
0.3857703 0.3857703 0.3857703
0.3747164 0.3747164 0.3747164
0.3696904 0.3696904 0.3696904
0.3719731 0.3719731 0.3719731
0.3791085 0.3791085 0.3791085
0.3884912 0.3884912 0.3884912
0.3984904 0.3984904 0.3984904
0.4062597 0.4062597 0.4062597
0.0782077 0.0782077 0.0782077
0.0940598 0.0940598 0.0940598
0.1116218 0.1116218 0.1116218
0.1311086 0.1311086 0.1311086
0.1561712 0.1561712 0.1561712
0.1890741 0.1890741 0.1890741
0.2237269 0.2237269 0.2237269
0.2548407 0.2548407 0.2548407
0.2816510 0.2816510 0.2816510
0.3043898 0.3043898 0.3043898
0.3174414 0.3174414 0.3174414
0.3289932 0.3289932 0.3289932
0.3356499 0.3356499 0.3356499
0.3496968 0.3496968 0.3496968
0.3801678 0.3801678 0.3801678
0.4224465 0.4224465 0.4224465
0.4562382 0.4562382 0.4562382
0.4509239 0.4509239 0.4509239
0.4287290 0.4287290 0.4287290
0.4376344 0.4376344 0.4376344
0.4570151 0.4570151 0.4570151
0.4530377 0.4530377 0.4530377
0.4341241 0.4341241 0.4341241
0.4270456 0.4270456 0.4270456
0.4269011 0.4269011 0.4269011
0.4120512 0.4120512 0.4120512
0.3943555 0.3943555 0.3943555
0.3845015 0.3845015 0.3845015
0.3839926 0.3839926 0.3839926
0.3899912 0.3899912 0.3899912
0.3990163 0.3990163 0.3990163
0.4089273 0.4089273 0.4089273
0.4166797 0.4166797 0.4166797
0.0977821 0.0977821 0.0977821
0.1085317 0.1085317 0.1085317
0.1231151 0.1231151 0.1231151
0.1452141 0.1452141 0.1452141
0.1732434 0.1732434 0.1732434
0.2054291 0.2054291 0.2054291
0.2437841 0.2437841 0.2437841
0.2813540 0.2813540 0.2813540
0.3144332 0.3144332 0.3144332
0.3361765 0.3361765 0.3361765
0.3519311 0.3519311 0.3519311
0.3785020 0.3785020 0.3785020
0.3814167 0.3814167 0.3814167
0.3619956 0.3619956 0.3619956
0.3713126 0.3713126 0.3713126
0.4074662 0.4074662 0.4074662
0.4497341 0.4497341 0.4497341
0.4628730 0.4628730 0.4628730
0.4521671 0.4521671 0.4521671
0.4607945 0.4607945 0.4607945
0.4799382 0.4799382 0.4799382
0.4802658 0.4802658 0.4802658
0.4753578 0.4753578 0.4753578
0.4717587 0.4717587 0.4717587
0.4540510 0.4540510 0.4540510
0.4273626 0.4273626 0.4273626
0.4070371 0.4070371 0.4070371
0.3959812 0.3959812 0.3959812
0.3947911 0.3947911 0.3947911
0.4005329 0.4005329 0.4005329
0.4094626 0.4094626 0.4094626
0.4193494 0.4193494 0.4193494
0.4270973 0.4270973 0.4270973
0.1100811 0.1100811 0.1100811
0.1193395 0.1193395 0.1193395
0.1344783 0.1344783 0.1344783
0.1569430 0.1569430 0.1569430
0.1891973 0.1891973 0.1891973
0.2238888 0.2238888 0.2238888
0.2620004 0.2620004 0.2620004
0.3028581 0.3028581 0.3028581
0.3405178 0.3405178 0.3405178
0.3710077 0.3710077 0.3710077
0.3880438 0.3880438 0.3880438
0.4038988 0.4038988 0.4038988
0.4148009 0.4148009 0.4148009
0.3893541 0.3893541 0.3893541
0.3797287 0.3797287 0.3797287
0.4062959 0.4062959 0.4062959
0.4476045 0.4476045 0.4476045
0.4737953 0.4737953 0.4737953
0.4659572 0.4659572 0.4659572
0.4672154 0.4672154 0.4672154
0.4817840 0.4817840 0.4817840
0.4993542 0.4993542 0.4993542
0.5190136 0.5190136 0.5190136
0.5112664 0.5112664 0.5112664
0.4770073 0.4770073 0.4770073
0.4419184 0.4419184 0.4419184
0.4178809 0.4178809 0.4178809
0.4058081 0.4058081 0.4058081
0.4049326 0.4049326 0.4049326
0.4108916 0.4108916 0.4108916
0.4198687 0.4198687 0.4198687
0.4297654 0.4297654 0.4297654
0.4375146 0.4375146 0.4375146
0.1204221 0.1204221 0.1204221
0.1299870 0.1299870 0.1299870
0.1454650 0.1454650 0.1454650
0.1675661 0.1675661 0.1675661
0.1982260 0.1982260 0.1982260
0.2394960 0.2394960 0.2394960
0.2828774 0.2828774 0.2828774
0.3213967 0.3213967 0.3213967
0.3607732 0.3607732 0.3607732
0.3990549 0.3990549 0.3990549
0.4194611 0.4194611 0.4194611
0.4130511 0.4130511 0.4130511
0.4072759 0.4072759 0.4072759
0.3910438 0.3910438 0.3910438
0.3800859 0.3800859 0.3800859
0.4069429 0.4069429 0.4069429
0.4486803 0.4486803 0.4486803
0.4736326 0.4736326 0.4736326
0.4748994 0.4748994 0.4748994
0.4787629 0.4787629 0.4787629
0.4967244 0.4967244 0.4967244
0.5288263 0.5288263 0.5288263
0.5533381 0.5533381 0.5533381
0.5418891 0.5418891 0.5418891
0.5049574 0.5049574 0.5049574
0.4658477 0.4658477 0.4658477
0.4372381 0.4372381 0.4372381
0.4208951 0.4208951 0.4208951
0.4171096 0.4171096 0.4171096
0.4218440 0.4218440 0.4218440
0.4304439 0.4304439 0.4304439
0.4402246 0.4402246 0.4402246
0.4479416 0.4479416 0.4479416
0.1308636 0.1308636 0.1308636
0.1402224 0.1402224 0.1402224
0.1548595 0.1548595 0.1548595
0.1749561 0.1749561 0.1749561
0.2048738 0.2048738 0.2048738
0.2458371 0.2458371 0.2458371
0.2881356 0.2881356 0.2881356
0.3285312 0.3285312 0.3285312
0.3747972 0.3747972 0.3747972
0.4197869 0.4197869 0.4197869
0.4526148 0.4526148 0.4526148
0.4553342 0.4553342 0.4553342
0.4184189 0.4184189 0.4184189
0.3729299 0.3729299 0.3729299
0.3642788 0.3642788 0.3642788
0.3977737 0.3977737 0.3977737
0.4470911 0.4470911 0.4470911
0.4852781 0.4852781 0.4852781
0.5040299 0.5040299 0.5040299
0.5183151 0.5183151 0.5183151
0.5392303 0.5392303 0.5392303
0.5572214 0.5572214 0.5572214
0.5737106 0.5737106 0.5737106
0.5722234 0.5722234 0.5722234
0.5459854 0.5459854 0.5459854
0.5031734 0.5031734 0.5031734
0.4634546 0.4634546 0.4634546
0.4390782 0.4390782 0.4390782
0.4310462 0.4310462 0.4310462
0.4336323 0.4336323 0.4336323
0.4413070 0.4413070 0.4413070
0.4507586 0.4507586 0.4507586
0.4583843 0.4583843 0.4583843
0.1412170 0.1412170 0.1412170
0.1500695 0.1500695 0.1500695
0.1633059 0.1633059 0.1633059
0.1812609 0.1812609 0.1812609
0.2072553 0.2072553 0.2072553
0.2408511 0.2408511 0.2408511
0.2813157 0.2813157 0.2813157
0.3300687 0.3300687 0.3300687
0.3807572 0.3807572 0.3807572
0.4315821 0.4315821 0.4315821
0.4753599 0.4753599 0.4753599
0.5061376 0.5061376 0.5061376
0.4858588 0.4858588 0.4858588
0.4092408 0.4092408 0.4092408
0.3715338 0.3715338 0.3715338
0.3914714 0.3914714 0.3914714
0.4340097 0.4340097 0.4340097
0.4906958 0.4906958 0.4906958
0.5270514 0.5270514 0.5270514
0.5531226 0.5531226 0.5531226
0.5740971 0.5740971 0.5740971
0.5789269 0.5789269 0.5789269
0.5865253 0.5865253 0.5865253
0.5961529 0.5961529 0.5961529
0.5771556 0.5771556 0.5771556
0.5326225 0.5326225 0.5326225
0.4880560 0.4880560 0.4880560
0.4589413 0.4589413 0.4589413
0.4468921 0.4468921 0.4468921
0.4463895 0.4463895 0.4463895
0.4524436 0.4524436 0.4524436
0.4613438 0.4613438 0.4613438
0.4688370 0.4688370 0.4688370
0.1515264 0.1515264 0.1515264
0.1599077 0.1599077 0.1599077
0.1719891 0.1719891 0.1719891
0.1872048 0.1872048 0.1872048
0.2071406 0.2071406 0.2071406
0.2342618 0.2342618 0.2342618
0.2724749 0.2724749 0.2724749
0.3219485 0.3219485 0.3219485
0.3787189 0.3787189 0.3787189
0.4321927 0.4321927 0.4321927
0.4838549 0.4838549 0.4838549
0.5324166 0.5324166 0.5324166
0.5502322 0.5502322 0.5502322
0.5039235 0.5039235 0.5039235
0.4374309 0.4374309 0.4374309
0.4211455 0.4211455 0.4211455
0.4346156 0.4346156 0.4346156
0.4875478 0.4875478 0.4875478
0.5316867 0.5316867 0.5316867
0.5682980 0.5682980 0.5682980
0.5935357 0.5935357 0.5935357
0.5964223 0.5964223 0.5964223
0.5947896 0.5947896 0.5947896
0.6077150 0.6077150 0.6077150
0.5985523 0.5985523 0.5985523
0.5618237 0.5618237 0.5618237
0.5190002 0.5190002 0.5190002
0.4840733 0.4840733 0.4840733
0.4644948 0.4644948 0.4644948
0.4594363 0.4594363 0.4594363
0.4636253 0.4636253 0.4636253
0.4719404 0.4719404 0.4719404
0.4792954 0.4792954 0.4792954
0.1618589 0.1618589 0.1618589
0.1699478 0.1699478 0.1699478
0.1811250 0.1811250 0.1811250
0.1938992 0.1938992 0.1938992
0.2096881 0.2096881 0.2096881
0.2315754 0.2315754 0.2315754
0.2633528 0.2633528 0.2633528
0.3077060 0.3077060 0.3077060
0.3623761 0.3623761 0.3623761
0.4210618 0.4210618 0.4210618
0.4760088 0.4760088 0.4760088
0.5312899 0.5312899 0.5312899
0.5767085 0.5767085 0.5767085
0.5835779 0.5835779 0.5835779
0.5459709 0.5459709 0.5459709
0.5115808 0.5115808 0.5115808
0.4788345 0.4788345 0.4788345
0.4977524 0.4977524 0.4977524
0.5313983 0.5313983 0.5313983
0.5817428 0.5817428 0.5817428
0.6011870 0.6011870 0.6011870
0.5838950 0.5838950 0.5838950
0.5799031 0.5799031 0.5799031
0.6094677 0.6094677 0.6094677
0.6220899 0.6220899 0.6220899
0.5977233 0.5977233 0.5977233
0.5524565 0.5524565 0.5524565
0.5086507 0.5086507 0.5086507
0.4814082 0.4814082 0.4814082
0.4722163 0.4722163 0.4722163
0.4747809 0.4747809 0.4747809
0.4825709 0.4825709 0.4825709
0.4897772 0.4897772 0.4897772
0.1722270 0.1722270 0.1722270
0.1801535 0.1801535 0.1801535
0.1907712 0.1907712 0.1907712
0.2022388 0.2022388 0.2022388
0.2155050 0.2155050 0.2155050
0.2327528 0.2327528 0.2327528
0.2572258 0.2572258 0.2572258
0.2923352 0.2923352 0.2923352
0.3395816 0.3395816 0.3395816
0.3959121 0.3959121 0.3959121
0.4562219 0.4562219 0.4562219
0.5150232 0.5150232 0.5150232
0.5729564 0.5729564 0.5729564
0.6178407 0.6178407 0.6178407
0.6219428 0.6219428 0.6219428
0.5894099 0.5894099 0.5894099
0.5463485 0.5463485 0.5463485
0.5475562 0.5475562 0.5475562
0.5752571 0.5752571 0.5752571
0.6360475 0.6360475 0.6360475
0.6441774 0.6441774 0.6441774
0.6005954 0.6005954 0.6005954
0.5917270 0.5917270 0.5917270
0.6276832 0.6276832 0.6276832
0.6419004 0.6419004 0.6419004
0.6187872 0.6187872 0.6187872
0.5719730 0.5719730 0.5719730
0.5257540 0.5257540 0.5257540
0.4965856 0.4965856 0.4965856
0.4853008 0.4853008 0.4853008
0.4863433 0.4863433 0.4863433
0.4933944 0.4933944 0.4933944
0.5003237 0.5003237 0.5003237
0.1826193 0.1826193 0.1826193
0.1904718 0.1904718 0.1904718
0.2008546 0.2008546 0.2008546
0.2117083 0.2117083 0.2117083
0.2234582 0.2234582 0.2234582
0.2373801 0.2373801 0.2373801
0.2557745 0.2557745 0.2557745
0.2817519 0.2817519 0.2817519
0.3183019 0.3183019 0.3183019
0.3651586 0.3651586 0.3651586
0.4171173 0.4171173 0.4171173
0.4773534 0.4773534 0.4773534
0.5506444 0.5506444 0.5506444
0.6173326 0.6173326 0.6173326
0.6521710 0.6521710 0.6521710
0.6227936 0.6227936 0.6227936
0.5673208 0.5673208 0.5673208
0.5748162 0.5748162 0.5748162
0.6371130 0.6371130 0.6371130
0.6911567 0.6911567 0.6911567
0.6925509 0.6925509 0.6925509
0.6608158 0.6608158 0.6608158
0.6433059 0.6433059 0.6433059
0.6525560 0.6525560 0.6525560
0.6482002 0.6482002 0.6482002
0.6253736 0.6253736 0.6253736
0.5839607 0.5839607 0.5839607
0.5428285 0.5428285 0.5428285
0.5150346 0.5150346 0.5150346
0.5010712 0.5010712 0.5010712
0.4991023 0.4991023 0.4991023
0.5045472 0.5045472 0.5045472
0.5109394 0.5109394 0.5109394
0.1930269 0.1930269 0.1930269
0.2008549 0.2008549 0.2008549
0.2111521 0.2111521 0.2111521
0.2217289 0.2217289 0.2217289
0.2326871 0.2326871 0.2326871
0.2446710 0.2446710 0.2446710
0.2590100 0.2590100 0.2590100
0.2779826 0.2779826 0.2779826
0.3040439 0.3040439 0.3040439
0.3368301 0.3368301 0.3368301
0.3767447 0.3767447 0.3767447
0.4340611 0.4340611 0.4340611
0.5097478 0.5097478 0.5097478
0.5867645 0.5867645 0.5867645
0.6253837 0.6253837 0.6253837
0.6010523 0.6010523 0.6010523
0.5517313 0.5517313 0.5517313
0.5563972 0.5563972 0.5563972
0.6135877 0.6135877 0.6135877
0.6669908 0.6669908 0.6669908
0.7049626 0.7049626 0.7049626
0.7023862 0.7023862 0.7023862
0.6836755 0.6836755 0.6836755
0.6783243 0.6783243 0.6783243
0.6710387 0.6710387 0.6710387
0.6540158 0.6540158 0.6540158
0.6151291 0.6151291 0.6151291
0.5723691 0.5723691 0.5723691
0.5380260 0.5380260 0.5380260
0.5176202 0.5176202 0.5176202
0.5118688 0.5118688 0.5118688
0.5156569 0.5156569 0.5156569
0.5215380 0.5215380 0.5215380
0.2034412 0.2034412 0.2034412
0.2112623 0.2112623 0.2112623
0.2215294 0.2215294 0.2215294
0.2319967 0.2319967 0.2319967
0.2426049 0.2426049 0.2426049
0.2536313 0.2536313 0.2536313
0.2657424 0.2657424 0.2657424
0.2801517 0.2801517 0.2801517
0.2979925 0.2979925 0.2979925
0.3197635 0.3197635 0.3197635
0.3496957 0.3496957 0.3496957
0.3967901 0.3967901 0.3967901
0.4612691 0.4612691 0.4612691
0.5232493 0.5232493 0.5232493
0.5520569 0.5520569 0.5520569
0.5391888 0.5391888 0.5391888
0.5161734 0.5161734 0.5161734
0.5346375 0.5346375 0.5346375
0.5907747 0.5907747 0.5907747
0.6532528 0.6532528 0.6532528
0.7087988 0.7087988 0.7087988
0.7054905 0.7054905 0.7054905
0.6854084 0.6854084 0.6854084
0.6913361 0.6913361 0.6913361
0.7008064 0.7008064 0.7008064
0.6888396 0.6888396 0.6888396
0.6496436 0.6496436 0.6496436
0.6016818 0.6016818 0.6016818
0.5592009 0.5592009 0.5592009
0.5327978 0.5327978 0.5327978
0.5240011 0.5240011 0.5240011
0.5265704 0.5265704 0.5265704
0.5320852 0.5320852 0.5320852
0.2138574 0.2138574 0.2138574
0.2216765 0.2216765 0.2216765
0.2319344 0.2319344 0.2319344
0.2423640 0.2423640 0.2423640
0.2528400 0.2528400 0.2528400
0.2634649 0.2634649 0.2634649
0.2745073 0.2745073 0.2745073
0.2864182 0.2864182 0.2864182
0.2995941 0.2995941 0.2995941
0.3151943 0.3151943 0.3151943
0.3373523 0.3373523 0.3373523
0.3710302 0.3710302 0.3710302
0.4141228 0.4141228 0.4141228
0.4531636 0.4531636 0.4531636
0.4734016 0.4734016 0.4734016
0.4729534 0.4729534 0.4729534
0.4759544 0.4759544 0.4759544
0.5193765 0.5193765 0.5193765
0.6010445 0.6010445 0.6010445
0.6793029 0.6793029 0.6793029
0.7223212 0.7223212 0.7223212
0.7082756 0.7082756 0.7082756
0.6800710 0.6800710 0.6800710
0.6814885 0.6814885 0.6814885
0.7066047 0.7066047 0.7066047
0.7149516 0.7149516 0.7149516
0.6860208 0.6860208 0.6860208
0.6333328 0.6333328 0.6333328
0.5816641 0.5816641 0.5816641
0.5486347 0.5486347 0.5486347
0.5363775 0.5363775 0.5363775
0.5375558 0.5375558 0.5375558
0.5426492 0.5426492 0.5426492
0.2242739 0.2242739 0.2242739
0.2320926 0.2320926 0.2320926
0.2423480 0.2423480 0.2423480
0.2527665 0.2527665 0.2527665
0.2631992 0.2631992 0.2631992
0.2736772 0.2736772 0.2736772
0.2842805 0.2842805 0.2842805
0.2951356 0.2951356 0.2951356
0.3064566 0.3064566 0.3064566
0.3191428 0.3191428 0.3191428
0.3354560 0.3354560 0.3354560
0.3570441 0.3570441 0.3570441
0.3821626 0.3821626 0.3821626
0.4053355 0.4053355 0.4053355
0.4205524 0.4205524 0.4205524
0.4304854 0.4304854 0.4304854
0.4553411 0.4553411 0.4553411
0.5168510 0.5168510 0.5168510
0.6065164 0.6065164 0.6065164
0.6875006 0.6875006 0.6875006
0.7278278 0.7278278 0.7278278
0.7248191 0.7248191 0.7248191
0.6972142 0.6972142 0.6972142
0.6787158 0.6787158 0.6787158
0.7137567 0.7137567 0.7137567
0.7387345 0.7387345 0.7387345
0.7147133 0.7147133 0.7147133
0.6578233 0.6578233 0.6578233
0.6000028 0.6000028 0.6000028
0.5626056 0.5626056 0.5626056
0.5480734 0.5480734 0.5480734
0.5483407 0.5483407 0.5483407
0.5531575 0.5531575 0.5531575
0.2346906 0.2346906 0.2346906
0.2425092 0.2425092 0.2425092
0.2527640 0.2527640 0.2527640
0.2631796 0.2631796 0.2631796
0.2736000 0.2736000 0.2736000
0.2840313 0.2840313 0.2840313
0.2944916 0.2944916 0.2944916
0.3050156 0.3050156 0.3050156
0.3157227 0.3157227 0.3157227
0.3270421 0.3270421 0.3270421
0.3397208 0.3397208 0.3397208
0.3541983 0.3541983 0.3541983
0.3699202 0.3699202 0.3699202
0.3850186 0.3850186 0.3850186
0.3981894 0.3981894 0.3981894
0.4147890 0.4147890 0.4147890
0.4494583 0.4494583 0.4494583
0.5116209 0.5116209 0.5116209
0.5936792 0.5936792 0.5936792
0.6728179 0.6728179 0.6728179
0.7269909 0.7269909 0.7269909
0.7501284 0.7501284 0.7501284
0.7254903 0.7254903 0.7254903
0.6927302 0.6927302 0.6927302
0.7211707 0.7211707 0.7211707
0.7467290 0.7467290 0.7467290
0.7237597 0.7237597 0.7237597
0.6673823 0.6673823 0.6673823
0.6099346 0.6099346 0.6099346
0.5728002 0.5728002 0.5728002
0.5584083 0.5584083 0.5584083
0.5587319 0.5587319 0.5587319
0.5635641 0.5635641 0.5635641
0.2451073 0.2451073 0.2451073
0.2529258 0.2529258 0.2529258
0.2631805 0.2631805 0.2631805
0.2735955 0.2735955 0.2735955
0.2840129 0.2840129 0.2840129
0.2944323 0.2944323 0.2944323
0.3048573 0.3048573 0.3048573
0.3152986 0.3152986 0.3152986
0.3258026 0.3258026 0.3258026
0.3365001 0.3365001 0.3365001
0.3475809 0.3475809 0.3475809
0.3591787 0.3591787 0.3591787
0.3711568 0.3711568 0.3711568
0.3831715 0.3831715 0.3831715
0.3962378 0.3962378 0.3962378
0.4158352 0.4158352 0.4158352
0.4511073 0.4511073 0.4511073
0.5076721 0.5076721 0.5076721
0.5829855 0.5829855 0.5829855
0.6646258 0.6646258 0.6646258
0.7305822 0.7305822 0.7305822
0.7602465 0.7602465 0.7602465
0.7340088 0.7340088 0.7340088
0.6922673 0.6922673 0.6922673
0.7022357 0.7022357 0.7022357
0.7203535 0.7203535 0.7203535
0.7018728 0.7018728 0.7018728
0.6551805 0.6551805 0.6551805
0.6076387 0.6076387 0.6076387
0.5774824 0.5774824 0.5774824
0.5667489 0.5667489 0.5667489
0.5685446 0.5685446 0.5685446
0.5738223 0.5738223 0.5738223
0.2555239 0.2555239 0.2555239
0.2633425 0.2633425 0.2633425
0.2735972 0.2735972 0.2735972
0.2840120 0.2840120 0.2840120
0.2944288 0.2944288 0.2944288
0.3048458 0.3048458 0.3048458
