looks/lab_silver.cube
TITLE "Latent Lab silver (34 scenes)"
LUT_3D_SIZE 33
0.0595810 0.0595810 0.0595810
0.0656040 0.0656040 0.0656040
0.0744982 0.0744982 0.0744982
0.0840291 0.0840291 0.0840291
0.0942699 0.0942699 0.0942699
0.1056072 0.1056072 0.1056072
0.1172550 0.1172550 0.1172550
0.1263741 0.1263741 0.1263741
0.1328006 0.1328006 0.1328006
0.1378753 0.1378753 0.1378753
0.1433880 0.1433880 0.1433880
0.1484264 0.1484264 0.1484264
0.1539593 0.1539593 0.1539593
0.1625028 0.1625028 0.1625028
0.1709135 0.1709135 0.1709135
0.1827514 0.1827514 0.1827514
0.2032275 0.2032275 0.2032275
0.2233237 0.2233237 0.2233237
0.2365659 0.2365659 0.2365659
0.2453852 0.2453852 0.2453852
0.2508588 0.2508588 0.2508588
0.2536112 0.2536112 0.2536112
0.2625248 0.2625248 0.2625248
0.2756300 0.2756300 0.2756300
0.2803432 0.2803432 0.2803432
0.2805336 0.2805336 0.2805336
0.2828299 0.2828299 0.2828299
0.2888673 0.2888673 0.2888673
0.2976312 0.2976312 0.2976312
0.3076373 0.3076373 0.3076373
0.3180048 0.3180048 0.3180048
0.3282686 0.3282686 0.3282686
0.3360930 0.3360930 0.3360930
0.0681466 0.0681466 0.0681466
0.0743950 0.0743950 0.0743950
0.0839580 0.0839580 0.0839580
0.0941355 0.0941355 0.0941355
0.1041972 0.1041972 0.1041972
0.1147231 0.1147231 0.1147231
0.1258142 0.1258142 0.1258142
0.1355941 0.1355941 0.1355941
0.1449081 0.1449081 0.1449081
0.1557732 0.1557732 0.1557732
0.1649539 0.1649539 0.1649539
0.1671211 0.1671211 0.1671211
0.1667265 0.1667265 0.1667265
0.1735311 0.1735311 0.1735311
0.1846384 0.1846384 0.1846384
0.2020069 0.2020069 0.2020069
0.2180596 0.2180596 0.2180596
0.2303104 0.2303104 0.2303104
0.2405375 0.2405375 0.2405375
0.2461640 0.2461640 0.2461640
0.2503870 0.2503870 0.2503870
0.2561783 0.2561783 0.2561783
0.2698078 0.2698078 0.2698078
0.2815077 0.2815077 0.2815077
0.2851100 0.2851100 0.2851100
0.2859683 0.2859683 0.2859683
0.2892032 0.2892032 0.2892032
0.2959839 0.2959839 0.2959839
0.3051764 0.3051764 0.3051764
0.3153706 0.3153706 0.3153706
0.3258020 0.3258020 0.3258020
0.3360829 0.3360829 0.3360829
0.3439109 0.3439109 0.3439109
0.0799083 0.0799083 0.0799083
0.0866785 0.0866785 0.0866785
0.0960334 0.0960334 0.0960334
0.1064540 0.1064540 0.1064540
0.1170565 0.1170565 0.1170565
0.1271779 0.1271779 0.1271779
0.1373526 0.1373526 0.1373526
0.1477347 0.1477347 0.1477347
0.1583952 0.1583952 0.1583952
0.1691895 0.1691895 0.1691895
0.1786974 0.1786974 0.1786974
0.1837216 0.1837216 0.1837216
0.1877668 0.1877668 0.1877668
0.1965440 0.1965440 0.1965440
0.2053426 0.2053426 0.2053426
0.2189561 0.2189561 0.2189561
0.2313549 0.2313549 0.2313549
0.2385407 0.2385407 0.2385407
0.2455899 0.2455899 0.2455899
0.2506041 0.2506041 0.2506041
0.2548105 0.2548105 0.2548105
0.2609385 0.2609385 0.2609385
0.2740597 0.2740597 0.2740597
0.2843835 0.2843835 0.2843835
0.2887263 0.2887263 0.2887263
0.2917915 0.2917915 0.2917915
0.2971148 0.2971148 0.2971148
0.3052523 0.3052523 0.3052523
0.3151015 0.3151015 0.3151015
0.3255388 0.3255388 0.3255388
0.3360395 0.3360395 0.3360395
0.3463354 0.3463354 0.3463354
0.3541660 0.3541660 0.3541660
0.0896857 0.0896857 0.0896857
0.0987267 0.0987267 0.0987267
0.1083453 0.1083453 0.1083453
0.1183649 0.1183649 0.1183649
0.1297350 0.1297350 0.1297350
0.1404858 0.1404858 0.1404858
0.1504233 0.1504233 0.1504233
0.1600135 0.1600135 0.1600135
0.1694420 0.1694420 0.1694420
0.1789871 0.1789871 0.1789871
0.1877580 0.1877580 0.1877580
0.1953547 0.1953547 0.1953547
0.2041307 0.2041307 0.2041307
0.2127387 0.2127387 0.2127387
0.2188818 0.2188818 0.2188818
0.2286317 0.2286317 0.2286317
0.2428681 0.2428681 0.2428681
0.2521769 0.2521769 0.2521769
0.2579722 0.2579722 0.2579722
0.2638013 0.2638013 0.2638013
0.2704310 0.2704310 0.2704310
0.2740625 0.2740625 0.2740625
0.2802094 0.2802094 0.2802094
0.2866279 0.2866279 0.2866279
0.2920237 0.2920237 0.2920237
0.2978764 0.2978764 0.2978764
0.3055235 0.3055235 0.3055235
0.3149710 0.3149710 0.3149710
0.3253512 0.3253512 0.3253512
0.3359462 0.3359462 0.3359462
0.3464721 0.3464721 0.3464721
0.3567612 0.3567612 0.3567612
0.3645873 0.3645873 0.3645873
0.0982852 0.0982852 0.0982852
0.1102791 0.1102791 0.1102791
0.1213490 0.1213490 0.1213490
0.1305949 0.1305949 0.1305949
0.1409659 0.1409659 0.1409659
0.1527779 0.1527779 0.1527779
0.1647304 0.1647304 0.1647304
0.1750142 0.1750142 0.1750142
0.1836202 0.1836202 0.1836202
0.1921403 0.1921403 0.1921403
0.2013584 0.2013584 0.2013584
0.2095099 0.2095099 0.2095099
0.2169637 0.2169637 0.2169637
0.2245394 0.2245394 0.2245394
0.2322901 0.2322901 0.2322901
0.2417128 0.2417128 0.2417128
0.2523602 0.2523602 0.2523602
0.2609103 0.2609103 0.2609103
0.2712580 0.2712580 0.2712580
0.2805438 0.2805438 0.2805438
0.2901197 0.2901197 0.2901197
0.2941144 0.2941144 0.2941144
0.2951712 0.2951712 0.2951712
0.2962487 0.2962487 0.2962487
0.3004184 0.3004184 0.3004184
0.3071318 0.3071318 0.3071318
0.3156591 0.3156591 0.3156591
0.3255080 0.3255080 0.3255080
0.3359606 0.3359606 0.3359606
0.3465237 0.3465237 0.3465237
0.3569846 0.3569846 0.3569846
0.3672279 0.3672279 0.3672279
0.3750311 0.3750311 0.3750311
0.1112081 0.1112081 0.1112081
0.1218857 0.1218857 0.1218857
0.1341800 0.1341800 0.1341800
0.1438513 0.1438513 0.1438513
0.1528206 0.1528206 0.1528206
0.1637879 0.1637879 0.1637879
0.1776679 0.1776679 0.1776679
0.1909348 0.1909348 0.1909348
0.2012580 0.2012580 0.2012580
0.2084379 0.2084379 0.2084379
0.2170903 0.2170903 0.2170903
0.2265113 0.2265113 0.2265113
0.2338677 0.2338677 0.2338677
0.2404031 0.2404031 0.2404031
0.2474771 0.2474771 0.2474771
0.2547090 0.2547090 0.2547090
0.2616898 0.2616898 0.2616898
0.2695170 0.2695170 0.2695170
0.2818234 0.2818234 0.2818234
0.2945007 0.2945007 0.2945007
0.3074912 0.3074912 0.3074912
0.3147782 0.3147782 0.3147782
0.3157630 0.3157630 0.3157630
0.3156505 0.3156505 0.3156505
0.3169059 0.3169059 0.3169059
0.3208691 0.3208691 0.3208691
0.3278975 0.3278975 0.3278975
0.3370297 0.3370297 0.3370297
0.3471155 0.3471155 0.3471155
0.3573722 0.3573722 0.3573722
0.3676150 0.3676150 0.3676150
0.3777781 0.3777781 0.3777781
0.3855297 0.3855297 0.3855297
0.1197738 0.1197738 0.1197738
0.1309482 0.1309482 0.1309482
0.1458425 0.1458425 0.1458425
0.1568811 0.1568811 0.1568811
0.1667328 0.1667328 0.1667328
0.1768113 0.1768113 0.1768113
0.1893000 0.1893000 0.1893000
0.2038800 0.2038800 0.2038800
0.2174239 0.2174239 0.2174239
0.2270168 0.2270168 0.2270168
0.2335090 0.2335090 0.2335090
0.2412804 0.2412804 0.2412804
0.2507156 0.2507156 0.2507156
0.2590743 0.2590743 0.2590743
0.2676440 0.2676440 0.2676440
0.2753606 0.2753606 0.2753606
0.2819575 0.2819575 0.2819575
0.2890234 0.2890234 0.2890234
0.2966768 0.2966768 0.2966768
0.3099789 0.3099789 0.3099789
0.3231289 0.3231289 0.3231289
0.3318058 0.3318058 0.3318058
0.3367674 0.3367674 0.3367674
0.3363354 0.3363354 0.3363354
0.3337342 0.3337342 0.3337342
0.3344163 0.3344163 0.3344163
0.3400465 0.3400465 0.3400465
0.3486592 0.3486592 0.3486592
0.3586072 0.3586072 0.3586072
0.3685012 0.3685012 0.3685012
0.3785250 0.3785250 0.3785250
0.3885300 0.3885300 0.3885300
0.3961288 0.3961288 0.3961288
0.1261462 0.1261462 0.1261462
0.1402999 0.1402999 0.1402999
0.1547161 0.1547161 0.1547161
0.1662928 0.1662928 0.1662928
0.1797009 0.1797009 0.1797009
0.1919722 0.1919722 0.1919722
0.2036111 0.2036111 0.2036111
0.2170618 0.2170618 0.2170618
0.2315396 0.2315396 0.2315396
0.2440073 0.2440073 0.2440073
0.2514827 0.2514827 0.2514827
0.2567340 0.2567340 0.2567340
0.2657207 0.2657207 0.2657207
0.2754745 0.2754745 0.2754745
0.2849260 0.2849260 0.2849260
0.2941290 0.2941290 0.2941290
0.3037241 0.3037241 0.3037241
0.3126613 0.3126613 0.3126613
0.3174600 0.3174600 0.3174600
0.3224721 0.3224721 0.3224721
0.3302494 0.3302494 0.3302494
0.3431992 0.3431992 0.3431992
0.3529890 0.3529890 0.3529890
0.3529389 0.3529389 0.3529389
0.3476903 0.3476903 0.3476903
0.3470200 0.3470200 0.3470200
0.3523576 0.3523576 0.3523576
0.3606356 0.3606356 0.3606356
0.3702245 0.3702245 0.3702245
0.3798091 0.3798091 0.3798091
0.3899140 0.3899140 0.3899140
0.3995817 0.3995817 0.3995817
0.4068161 0.4068161 0.4068161
0.1277268 0.1277268 0.1277268
0.1412948 0.1412948 0.1412948
0.1545979 0.1545979 0.1545979
0.1695152 0.1695152 0.1695152
0.1883948 0.1883948 0.1883948
0.2058718 0.2058718 0.2058718
0.2204071 0.2204071 0.2204071
0.2330806 0.2330806 0.2330806
0.2456619 0.2456619 0.2456619
0.2586372 0.2586372 0.2586372
0.2686729 0.2686729 0.2686729
0.2748854 0.2748854 0.2748854
0.2811161 0.2811161 0.2811161
0.2910303 0.2910303 0.2910303
0.3015447 0.3015447 0.3015447
0.3081750 0.3081750 0.3081750
0.3176205 0.3176205 0.3176205
0.3298832 0.3298832 0.3298832
0.3383959 0.3383959 0.3383959
0.3399907 0.3399907 0.3399907
0.3428318 0.3428318 0.3428318
0.3527957 0.3527957 0.3527957
0.3628834 0.3628834 0.3628834
0.3643707 0.3643707 0.3643707
0.3632536 0.3632536 0.3632536
0.3644571 0.3644571 0.3644571
0.3675901 0.3675901 0.3675901
0.3737310 0.3737310 0.3737310
0.3819385 0.3819385 0.3819385
0.3915058 0.3915058 0.3915058
0.4015745 0.4015745 0.4015745
0.4106233 0.4106233 0.4106233
0.4174029 0.4174029 0.4174029
0.1248076 0.1248076 0.1248076
0.1366522 0.1366522 0.1366522
0.1526562 0.1526562 0.1526562
0.1735853 0.1735853 0.1735853
0.1956430 0.1956430 0.1956430
0.2173426 0.2173426 0.2173426
0.2351075 0.2351075 0.2351075
0.2489433 0.2489433 0.2489433
0.2608151 0.2608151 0.2608151
0.2729689 0.2729689 0.2729689
0.2848672 0.2848672 0.2848672
0.2931336 0.2931336 0.2931336
0.2979730 0.2979730 0.2979730
0.3063556 0.3063556 0.3063556
0.3163189 0.3163189 0.3163189
0.3189155 0.3189155 0.3189155
0.3265898 0.3265898 0.3265898
0.3410111 0.3410111 0.3410111
0.3550362 0.3550362 0.3550362
0.3625620 0.3625620 0.3625620
0.3644905 0.3644905 0.3644905
0.3673095 0.3673095 0.3673095
0.3739663 0.3739663 0.3739663
0.3816943 0.3816943 0.3816943
0.3915278 0.3915278 0.3915278
0.3930674 0.3930674 0.3930674
0.3884540 0.3884540 0.3884540
0.3869117 0.3869117 0.3869117
0.3928306 0.3928306 0.3928306
0.4036587 0.4036587 0.4036587
0.4130643 0.4130643 0.4130643
0.4211768 0.4211768 0.4211768
0.4277850 0.4277850 0.4277850
0.1242278 0.1242278 0.1242278
0.1378912 0.1378912 0.1378912
0.1582901 0.1582901 0.1582901
0.1815367 0.1815367 0.1815367
0.2060114 0.2060114 0.2060114
0.2262697 0.2262697 0.2262697
0.2455936 0.2455936 0.2455936
0.2633328 0.2633328 0.2633328
0.2769014 0.2769014 0.2769014
0.2890602 0.2890602 0.2890602
0.3011933 0.3011933 0.3011933
0.3111516 0.3111516 0.3111516
0.3161664 0.3161664 0.3161664
0.3195371 0.3195371 0.3195371
0.3254499 0.3254499 0.3254499
0.3312474 0.3312474 0.3312474
0.3391530 0.3391530 0.3391530
0.3500889 0.3500889 0.3500889
0.3675768 0.3675768 0.3675768
0.3805601 0.3805601 0.3805601
0.3868420 0.3868420 0.3868420
0.3927395 0.3927395 0.3927395
0.3990925 0.3990925 0.3990925
0.4120813 0.4120813 0.4120813
0.4232534 0.4232534 0.4232534
0.4202315 0.4202315 0.4202315
0.4080607 0.4080607 0.4080607
0.4006292 0.4006292 0.4006292
0.4036450 0.4036450 0.4036450
0.4140900 0.4140900 0.4140900
0.4230156 0.4230156 0.4230156
0.4311337 0.4311337 0.4311337
0.4380059 0.4380059 0.4380059
0.1309371 0.1309371 0.1309371
0.1479455 0.1479455 0.1479455
0.1705178 0.1705178 0.1705178
0.1922119 0.1922119 0.1922119
0.2133724 0.2133724 0.2133724
0.2320384 0.2320384 0.2320384
0.2516685 0.2516685 0.2516685
0.2736744 0.2736744 0.2736744
0.2912403 0.2912403 0.2912403
0.3048945 0.3048945 0.3048945
0.3172098 0.3172098 0.3172098
0.3281868 0.3281868 0.3281868
0.3365614 0.3365614 0.3365614
0.3395355 0.3395355 0.3395355
0.3411599 0.3411599 0.3411599
0.3460554 0.3460554 0.3460554
0.3528253 0.3528253 0.3528253
0.3600196 0.3600196 0.3600196
0.3763190 0.3763190 0.3763190
0.3908839 0.3908839 0.3908839
0.4026861 0.4026861 0.4026861
0.4122318 0.4122318 0.4122318
0.4178823 0.4178823 0.4178823
0.4303139 0.4303139 0.4303139
0.4393957 0.4393957 0.4393957
0.4375289 0.4375289 0.4375289
0.4272332 0.4272332 0.4272332
0.4196395 0.4196395 0.4196395
0.4180017 0.4180017 0.4180017
0.4239797 0.4239797 0.4239797
0.4321207 0.4321207 0.4321207
0.4407098 0.4407098 0.4407098
0.4472861 0.4472861 0.4472861
0.1402314 0.1402314 0.1402314
0.1558360 0.1558360 0.1558360
0.1760436 0.1760436 0.1760436
0.1939192 0.1939192 0.1939192
0.2108081 0.2108081 0.2108081
0.2322740 0.2322740 0.2322740
0.2548289 0.2548289 0.2548289
0.2777772 0.2777772 0.2777772
0.2999462 0.2999462 0.2999462
0.3184202 0.3184202 0.3184202
0.3326674 0.3326674 0.3326674
0.3443870 0.3443870 0.3443870
0.3552587 0.3552587 0.3552587
0.3602974 0.3602974 0.3602974
0.3602205 0.3602205 0.3602205
0.3659991 0.3659991 0.3659991
0.3698874 0.3698874 0.3698874
0.3714260 0.3714260 0.3714260
0.3830652 0.3830652 0.3830652
0.3976550 0.3976550 0.3976550
0.4129227 0.4129227 0.4129227
0.4216770 0.4216770 0.4216770
0.4247846 0.4247846 0.4247846
0.4371345 0.4371345 0.4371345
0.4508239 0.4508239 0.4508239
0.4568445 0.4568445 0.4568445
0.4510210 0.4510210 0.4510210
0.4398618 0.4398618 0.4398618
0.4332340 0.4332340 0.4332340
0.4345529 0.4345529 0.4345529
0.4415351 0.4415351 0.4415351
0.4494790 0.4494790 0.4494790
0.4556636 0.4556636 0.4556636
0.1477156 0.1477156 0.1477156
0.1602594 0.1602594 0.1602594
0.1765942 0.1765942 0.1765942
0.1910793 0.1910793 0.1910793
0.2054088 0.2054088 0.2054088
0.2268255 0.2268255 0.2268255
0.2524782 0.2524782 0.2524782
0.2790411 0.2790411 0.2790411
0.3043920 0.3043920 0.3043920
0.3281119 0.3281119 0.3281119
0.3462541 0.3462541 0.3462541
0.3600642 0.3600642 0.3600642
0.3721657 0.3721657 0.3721657
0.3786179 0.3786179 0.3786179
0.3797321 0.3797321 0.3797321
0.3895880 0.3895880 0.3895880
0.3930690 0.3930690 0.3930690
0.3885869 0.3885869 0.3885869
0.3920872 0.3920872 0.3920872
0.4031374 0.4031374 0.4031374
0.4195442 0.4195442 0.4195442
0.4350237 0.4350237 0.4350237
0.4363586 0.4363586 0.4363586
0.4457116 0.4457116 0.4457116
0.4632818 0.4632818 0.4632818
0.4706731 0.4706731 0.4706731
0.4658391 0.4658391 0.4658391
0.4563127 0.4563127 0.4563127
0.4513025 0.4513025 0.4513025
0.4509162 0.4509162 0.4509162
0.4550562 0.4550562 0.4550562
0.4604265 0.4604265 0.4604265
0.4654644 0.4654644 0.4654644
0.1548986 0.1548986 0.1548986
0.1650765 0.1650765 0.1650765
0.1782897 0.1782897 0.1782897
0.1905634 0.1905634 0.1905634
0.2036424 0.2036424 0.2036424
0.2238650 0.2238650 0.2238650
0.2505999 0.2505999 0.2505999
0.2806672 0.2806672 0.2806672
0.3114488 0.3114488 0.3114488
0.3377714 0.3377714 0.3377714
0.3596117 0.3596117 0.3596117
0.3754300 0.3754300 0.3754300
0.3885424 0.3885424 0.3885424
0.3981360 0.3981360 0.3981360
0.4061903 0.4061903 0.4061903
0.4184607 0.4184607 0.4184607
0.4183986 0.4183986 0.4183986
0.4116125 0.4116125 0.4116125
0.4068381 0.4068381 0.4068381
0.4135787 0.4135787 0.4135787
0.4282029 0.4282029 0.4282029
0.4437741 0.4437741 0.4437741
0.4443119 0.4443119 0.4443119
0.4511233 0.4511233 0.4511233
0.4632349 0.4632349 0.4632349
0.4717211 0.4717211 0.4717211
0.4744522 0.4744522 0.4744522
0.4763574 0.4763574 0.4763574
0.4801723 0.4801723 0.4801723
0.4802726 0.4802726 0.4802726
0.4783297 0.4783297 0.4783297
0.4774050 0.4774050 0.4774050
0.4789248 0.4789248 0.4789248
0.1632311 0.1632311 0.1632311
0.1719810 0.1719810 0.1719810
0.1833569 0.1833569 0.1833569
0.1944785 0.1944785 0.1944785
0.2071763 0.2071763 0.2071763
0.2269700 0.2269700 0.2269700
0.2543758 0.2543758 0.2543758
0.2861103 0.2861103 0.2861103
0.3192220 0.3192220 0.3192220
0.3486337 0.3486337 0.3486337
0.3712530 0.3712530 0.3712530
0.3889285 0.3889285 0.3889285
0.4035704 0.4035704 0.4035704
0.4154791 0.4154791 0.4154791
0.4263841 0.4263841 0.4263841
0.4339297 0.4339297 0.4339297
0.4262618 0.4262618 0.4262618
0.4269363 0.4269363 0.4269363
0.4209439 0.4209439 0.4209439
0.4262751 0.4262751 0.4262751
0.4380178 0.4380178 0.4380178
0.4486000 0.4486000 0.4486000
0.4548303 0.4548303 0.4548303
0.4648166 0.4648166 0.4648166
0.4685917 0.4685917 0.4685917
0.4757178 0.4757178 0.4757178
0.4918996 0.4918996 0.4918996
0.5060979 0.5060979 0.5060979
0.5071621 0.5071621 0.5071621
0.5026619 0.5026619 0.5026619
0.4968000 0.4968000 0.4968000
0.4933871 0.4933871 0.4933871
0.4939074 0.4939074 0.4939074
0.1726642 0.1726642 0.1726642
0.1807691 0.1807691 0.1807691
0.1913582 0.1913582 0.1913582
0.2021591 0.2021591 0.2021591
0.2149367 0.2149367 0.2149367
0.2334641 0.2334641 0.2334641
0.2576147 0.2576147 0.2576147
0.2863512 0.2863512 0.2863512
0.3183872 0.3183872 0.3183872
0.3481126 0.3481126 0.3481126
0.3731361 0.3731361 0.3731361
0.3968152 0.3968152 0.3968152
0.4159322 0.4159322 0.4159322
0.4303008 0.4303008 0.4303008
0.4412931 0.4412931 0.4412931
0.4439326 0.4439326 0.4439326
0.4342341 0.4342341 0.4342341
0.4386384 0.4386384 0.4386384
0.4300099 0.4300099 0.4300099
0.4360424 0.4360424 0.4360424
0.4498325 0.4498325 0.4498325
0.4607144 0.4607144 0.4607144
0.4698644 0.4698644 0.4698644
0.4790415 0.4790415 0.4790415
0.4828827 0.4828827 0.4828827
0.4905979 0.4905979 0.4905979
0.5101684 0.5101684 0.5101684
0.5228858 0.5228858 0.5228858
0.5189848 0.5189848 0.5189848
0.5123825 0.5123825 0.5123825
0.5069584 0.5069584 0.5069584
0.5059096 0.5059096 0.5059096
0.5088298 0.5088298 0.5088298
0.1827282 0.1827282 0.1827282
0.1906157 0.1906157 0.1906157
0.2009812 0.2009812 0.2009812
0.2118828 0.2118828 0.2118828
0.2244886 0.2244886 0.2244886
0.2403971 0.2403971 0.2403971
0.2598331 0.2598331 0.2598331
0.2830673 0.2830673 0.2830673
0.3105536 0.3105536 0.3105536
0.3398876 0.3398876 0.3398876
0.3696957 0.3696957 0.3696957
0.3979857 0.3979857 0.3979857
0.4235606 0.4235606 0.4235606
0.4430399 0.4430399 0.4430399
0.4567973 0.4567973 0.4567973
0.4627287 0.4627287 0.4627287
0.4627545 0.4627545 0.4627545
0.4663576 0.4663576 0.4663576
0.4488051 0.4488051 0.4488051
0.4472243 0.4472243 0.4472243
0.4623603 0.4623603 0.4623603
0.4755929 0.4755929 0.4755929
0.4872963 0.4872963 0.4872963
0.4963686 0.4963686 0.4963686
0.5025321 0.5025321 0.5025321
0.5090554 0.5090554 0.5090554
0.5186189 0.5186189 0.5186189
0.5253059 0.5253059 0.5253059
0.5229411 0.5229411 0.5229411
0.5180797 0.5180797 0.5180797
0.5160280 0.5160280 0.5160280
0.5194535 0.5194535 0.5194535
0.5244428 0.5244428 0.5244428
0.1930481 0.1930481 0.1930481
0.2008833 0.2008833 0.2008833
0.2112149 0.2112149 0.2112149
0.2220359 0.2220359 0.2220359
0.2337819 0.2337819 0.2337819
0.2471160 0.2471160 0.2471160
0.2626063 0.2626063 0.2626063
0.2812907 0.2812907 0.2812907
0.3043909 0.3043909 0.3043909
0.3305960 0.3305960 0.3305960
0.3608423 0.3608423 0.3608423
0.3939002 0.3939002 0.3939002
0.4234190 0.4234190 0.4234190
0.4488829 0.4488829 0.4488829
0.4693724 0.4693724 0.4693724
0.4835512 0.4835512 0.4835512
0.4924744 0.4924744 0.4924744
0.4972632 0.4972632 0.4972632
0.4828074 0.4828074 0.4828074
0.4706795 0.4706795 0.4706795
0.4755541 0.4755541 0.4755541
0.4859758 0.4859758 0.4859758
0.5011023 0.5011023 0.5011023
0.5134943 0.5134943 0.5134943
0.5206509 0.5206509 0.5206509
0.5272232 0.5272232 0.5272232
0.5332810 0.5332810 0.5332810
0.5363242 0.5363242 0.5363242
0.5346699 0.5346699 0.5346699
0.5302526 0.5302526 0.5302526
0.5311051 0.5311051 0.5311051
0.5354355 0.5354355 0.5354355
0.5381087 0.5381087 0.5381087
0.2034446 0.2034446 0.2034446
0.2112707 0.2112707 0.2112707
0.2215734 0.2215734 0.2215734
0.2321872 0.2321872 0.2321872
0.2431739 0.2431739 0.2431739
0.2548858 0.2548858 0.2548858
0.2679458 0.2679458 0.2679458
0.2832673 0.2832673 0.2832673
0.3012822 0.3012822 0.3012822
0.3231080 0.3231080 0.3231080
0.3511147 0.3511147 0.3511147
0.3839644 0.3839644 0.3839644
0.4175617 0.4175617 0.4175617
0.4473732 0.4473732 0.4473732
0.4757041 0.4757041 0.4757041
0.4992660 0.4992660 0.4992660
0.5117387 0.5117387 0.5117387
0.5165297 0.5165297 0.5165297
0.5086527 0.5086527 0.5086527
0.4970975 0.4970975 0.4970975
0.4867425 0.4867425 0.4867425
0.4896631 0.4896631 0.4896631
0.5075156 0.5075156 0.5075156
0.5260583 0.5260583 0.5260583
0.5370821 0.5370821 0.5370821
0.5450358 0.5450358 0.5450358
0.5522950 0.5522950 0.5522950
0.5541126 0.5541126 0.5541126
0.5505196 0.5505196 0.5505196
0.5469290 0.5469290 0.5469290
0.5482516 0.5482516 0.5482516
0.5492686 0.5492686 0.5492686
0.5492525 0.5492525 0.5492525
0.2138581 0.2138581 0.2138581
0.2216802 0.2216802 0.2216802
0.2319537 0.2319537 0.2319537
0.2424379 0.2424379 0.2424379
0.2530575 0.2530575 0.2530575
0.2640039 0.2640039 0.2640039
0.2756626 0.2756626 0.2756626
0.2883841 0.2883841 0.2883841
0.3026955 0.3026955 0.3026955
0.3205807 0.3205807 0.3205807
0.3442321 0.3442321 0.3442321
0.3741771 0.3741771 0.3741771
0.4087645 0.4087645 0.4087645
0.4471594 0.4471594 0.4471594
0.4835287 0.4835287 0.4835287
0.5089091 0.5089091 0.5089091
0.5225458 0.5225458 0.5225458
0.5299910 0.5299910 0.5299910
0.5282058 0.5282058 0.5282058
0.5185847 0.5185847 0.5185847
0.4979853 0.4979853 0.4979853
0.4987688 0.4987688 0.4987688
0.5229302 0.5229302 0.5229302
0.5463104 0.5463104 0.5463104
0.5589058 0.5589058 0.5589058
0.5616310 0.5616310 0.5616310
0.5681881 0.5681881 0.5681881
0.5744805 0.5744805 0.5744805
0.5739424 0.5739424 0.5739424
0.5711910 0.5711910 0.5711910
0.5662727 0.5662727 0.5662727
0.5609697 0.5609697 0.5609697
0.5593750 0.5593750 0.5593750
0.2242741 0.2242741 0.2242741
0.2320938 0.2320938 0.2320938
0.2423538 0.2423538 0.2423538
0.2527885 0.2527885 0.2527885
0.2632708 0.2632708 0.2632708
0.2738826 0.2738826 0.2738826
0.2847576 0.2847576 0.2847576
0.2960593 0.2960593 0.2960593
0.3083880 0.3083880 0.3083880
0.3233471 0.3233471 0.3233471
0.3431804 0.3431804 0.3431804
0.3695194 0.3695194 0.3695194
0.4029328 0.4029328 0.4029328
0.4424971 0.4424971 0.4424971
0.4776767 0.4776767 0.4776767
0.5012125 0.5012125 0.5012125
0.5213045 0.5213045 0.5213045
0.5421284 0.5421284 0.5421284
0.5521228 0.5521228 0.5521228
0.5434777 0.5434777 0.5434777
0.5234944 0.5234944 0.5234944
0.5238701 0.5238701 0.5238701
0.5613289 0.5613289 0.5613289
0.5897153 0.5897153 0.5897153
0.5943249 0.5943249 0.5943249
0.5803745 0.5803745 0.5803745
0.5794789 0.5794789 0.5794789
0.5875364 0.5875364 0.5875364
0.5923874 0.5923874 0.5923874
0.5898101 0.5898101 0.5898101
0.5827590 0.5827590 0.5827590
0.5761451 0.5761451 0.5761451
0.5735367 0.5735367 0.5735367
0.2346906 0.2346906 0.2346906
0.2425095 0.2425095 0.2425095
0.2527654 0.2527654 0.2527654
0.2631853 0.2631853 0.2631853
0.2736211 0.2736211 0.2736211
0.2840946 0.2840946 0.2840946
0.2946422 0.2946422 0.2946422
0.3053803 0.3053803 0.3053803
0.3167797 0.3167797 0.3167797
0.3301003 0.3301003 0.3301003
0.3472124 0.3472124 0.3472124
0.3691958 0.3691958 0.3691958
0.3966658 0.3966658 0.3966658
0.4287126 0.4287126 0.4287126
0.4584649 0.4584649 0.4584649
0.4846587 0.4846587 0.4846587
0.5175309 0.5175309 0.5175309
0.5492697 0.5492697 0.5492697
0.5703929 0.5703929 0.5703929
0.5704309 0.5704309 0.5704309
0.5585989 0.5585989 0.5585989
0.5519959 0.5519959 0.5519959
0.5802135 0.5802135 0.5802135
0.6081658 0.6081658 0.6081658
0.6140578 0.6140578 0.6140578
0.5978208 0.5978208 0.5978208
0.5887873 0.5887873 0.5887873
0.5980675 0.5980675 0.5980675
0.6088997 0.6088997 0.6088997
0.6083065 0.6083065 0.6083065
0.6032808 0.6032808 0.6032808
0.5970535 0.5970535 0.5970535
0.5904269 0.5904269 0.5904269
0.2451073 0.2451073 0.2451073
0.2529259 0.2529259 0.2529259
0.2631808 0.2631808 0.2631808
0.2735968 0.2735968 0.2735968
0.2840179 0.2840179 0.2840179
0.2944474 0.2944474 0.2944474
0.3048994 0.3048994 0.3048994
0.3154556 0.3154556 0.3154556
0.3264210 0.3264210 0.3264210
0.3385041 0.3385041 0.3385041
0.3527602 0.3527602 0.3527602
0.3699544 0.3699544 0.3699544
0.3909133 0.3909133 0.3909133
0.4156060 0.4156060 0.4156060
0.4407849 0.4407849 0.4407849
0.4717598 0.4717598 0.4717598
0.5165525 0.5165525 0.5165525
0.5576239 0.5576239 0.5576239
0.5828068 0.5828068 0.5828068
0.5900595 0.5900595 0.5900595
0.5791010 0.5791010 0.5791010
0.5676683 0.5676683 0.5676683
0.5903201 0.5903201 0.5903201
0.6240321 0.6240321 0.6240321
0.6385272 0.6385272 0.6385272
0.6253806 0.6253806 0.6253806
0.6094087 0.6094087 0.6094087
0.6212304 0.6212304 0.6212304
0.6354811 0.6354811 0.6354811
0.6399642 0.6399642 0.6399642
0.6369989 0.6369989 0.6369989
0.6232911 0.6232911 0.6232911
0.6093321 0.6093321 0.6093321
0.2555239 0.2555239 0.2555239
0.2633425 0.2633425 0.2633425
0.2735972 0.2735972 0.2735972
0.2840122 0.2840122 0.2840122
0.2944297 0.2944297 0.2944297
0.3048490 0.3048490 0.3048490
