looks/lab_silver.cube
TITLE "Latent Lab silver (34 scenes)"
LUT_3D_SIZE 5
0.0595810 0.0595810 0.0595810
0.1328006 0.1328006 0.1328006
0.2032275 0.2032275 0.2032275
0.2803432 0.2803432 0.2803432
0.3360930 0.3360930 0.3360930
0.1277268 0.1277268 0.1277268
0.2456619 0.2456619 0.2456619
0.3176205 0.3176205 0.3176205
0.3632536 0.3632536 0.3632536
0.4174029 0.4174029 0.4174029
0.1726642 0.1726642 0.1726642
0.3183872 0.3183872 0.3183872
0.4342341 0.4342341 0.4342341
0.4828827 0.4828827 0.4828827
0.5088298 0.5088298 0.5088298
0.2555239 0.2555239 0.2555239
0.3364347 0.3364347 0.3364347
0.5080407 0.5080407 0.5080407
0.6518943 0.6518943 0.6518943
0.6217990 0.6217990 0.6217990
0.3360953 0.3360953 0.3360953
0.4166667 0.4166667 0.4166667
0.5000277 0.5000277 0.5000277
0.6084077 0.6084077 0.6084077
0.6644719 0.6644719 0.6644719
0.0851430 0.0851430 0.0851430
0.1718414 0.1718414 0.1718414
0.2474033 0.2474033 0.2474033
0.3358614 0.3358614 0.3358614
0.4166664 0.4166664 0.4166664
0.2008027 0.2008027 0.2008027
0.2722366 0.2722366 0.2722366
0.3495154 0.3495154 0.3495154
0.4067882 0.4067882 0.4067882
0.4964042 0.4964042 0.4964042
0.2539491 0.2539491 0.2539491
0.3716485 0.3716485 0.3716485
0.4829717 0.4829717 0.4829717
0.5374357 0.5374357 0.5374357
0.5820006 0.5820006 0.5820006
0.3360954 0.3360954 0.3360954
0.4168237 0.4168237 0.4168237
0.5286345 0.5286345 0.5286345
0.7101911 0.7101911 0.7101911
0.7227627 0.7227627 0.7227627
0.4166667 0.4166667 0.4166667
0.4972380 0.4972380 0.4972380
0.5807826 0.5807826 0.5807826
0.8031794 0.8031794 0.8031794
0.7703623 0.7703623 0.7703623
0.1365075 0.1365075 0.1365075
0.2527510 0.2527510 0.2527510
0.3358426 0.3358426 0.3358426
0.4193839 0.4193839 0.4193839
0.5000000 0.5000000 0.5000000
0.2314198 0.2314198 0.2314198
0.3180403 0.3180403 0.3180403
0.4011790 0.4011790 0.4011790
0.4947627 0.4947627 0.4947627
0.5790235 0.5790235 0.5790235
0.3520918 0.3520918 0.3520918
0.4396339 0.4396339 0.4396339
0.5199517 0.5199517 0.5199517
0.5967157 0.5967157 0.5967157
0.6486728 0.6486728 0.6486728
0.4196292 0.4196292 0.4196292
0.5003974 0.5003974 0.5003974
0.6275488 0.6275488 0.6275488
0.7448962 0.7448962 0.7448962
0.7791936 0.7791936 0.7791936
0.5000001 0.5000001 0.5000001
0.5805714 0.5805714 0.5805714
0.6644983 0.6644983 0.6644983
0.8575827 0.8575827 0.8575827
0.9016488 0.9016488 0.9016488
0.2390047 0.2390047 0.2390047
0.3360707 0.3360707 0.3360707
0.4194286 0.4194286 0.4194286
0.5027620 0.5027620 0.5027620
0.5833333 0.5833333 0.5833333
0.2942499 0.2942499 0.2942499
0.4052109 0.4052109 0.4052109
0.4986827 0.4986827 0.4986827
0.5830741 0.5830741 0.5830741
0.6639047 0.6639047 0.6639047
0.3957087 0.3957087 0.3957087
0.4872813 0.4872813 0.4872813
0.5638973 0.5638973 0.5638973
0.6415564 0.6415564 0.6415564
0.7470250 0.7470250 0.7470250
0.5177610 0.5177610 0.5177610
0.5888801 0.5888801 0.5888801
0.6956376 0.6956376 0.6956376
0.7724453 0.7724453 0.7724453
0.8334687 0.8334687 0.8334687
0.5856556 0.5856556 0.5856556
0.6647997 0.6647997 0.6647997
0.7490336 0.7490336 0.7490336
0.8800381 0.8800381 0.8800381
0.9101754 0.9101754 0.9101754
0.3360909 0.3360909 0.3360909
0.4166666 0.4166666 0.4166666
0.5000000 0.5000000 0.5000000
0.5833333 0.5833333 0.5833333
0.6639047 0.6639047 0.6639047
0.4121878 0.4121878 0.4121878
0.4912072 0.4912072 0.4912072
0.5805678 0.5805678 0.5805678
0.6639044 0.6639044 0.6639044
0.7444761 0.7444761 0.7444761
0.4306774 0.4306774 0.4306774
0.5241659 0.5241659 0.5241659
0.6533356 0.6533356 0.6533356
0.7422267 0.7422267 0.7422267
0.8276261 0.8276261 0.8276261
0.5681118 0.5681118 0.5681118
0.6556343 0.6556343 0.6556343
0.7467640 0.7467640 0.7467640
0.8069245 0.8069245 0.8069245
0.8992541 0.8992541 0.8992541
0.6979509 0.6979509 0.6979509
0.7726322 0.7726322 0.7726322
0.8613312 0.8613312 0.8613312
0.9059413 0.9059413 0.9059413
0.9218341 0.9218341 0.9218341
