looks/lab_silver.cube
TITLE "Latent Lab silver (34 scenes)"
LUT_3D_SIZE 9
0.0595810 0.0595810 0.0595810
0.0942699 0.0942699 0.0942699
0.1328006 0.1328006 0.1328006
0.1539593 0.1539593 0.1539593
0.2032275 0.2032275 0.2032275
0.2508588 0.2508588 0.2508588
0.2803432 0.2803432 0.2803432
0.2976312 0.2976312 0.2976312
0.3360930 0.3360930 0.3360930
0.0982852 0.0982852 0.0982852
0.1409659 0.1409659 0.1409659
0.1836202 0.1836202 0.1836202
0.2169637 0.2169637 0.2169637
0.2523602 0.2523602 0.2523602
0.2901197 0.2901197 0.2901197
0.3004184 0.3004184 0.3004184
0.3359606 0.3359606 0.3359606
0.3750311 0.3750311 0.3750311
0.1277268 0.1277268 0.1277268
0.1883948 0.1883948 0.1883948
0.2456619 0.2456619 0.2456619
0.2811161 0.2811161 0.2811161
0.3176205 0.3176205 0.3176205
0.3428318 0.3428318 0.3428318
0.3632536 0.3632536 0.3632536
0.3819385 0.3819385 0.3819385
0.4174029 0.4174029 0.4174029
0.1402314 0.1402314 0.1402314
0.2108081 0.2108081 0.2108081
0.2999462 0.2999462 0.2999462
0.3552587 0.3552587 0.3552587
0.3698874 0.3698874 0.3698874
0.4129227 0.4129227 0.4129227
0.4508239 0.4508239 0.4508239
0.4332340 0.4332340 0.4332340
0.4556636 0.4556636 0.4556636
0.1726642 0.1726642 0.1726642
0.2149367 0.2149367 0.2149367
0.3183872 0.3183872 0.3183872
0.4159322 0.4159322 0.4159322
0.4342341 0.4342341 0.4342341
0.4498325 0.4498325 0.4498325
0.4828827 0.4828827 0.4828827
0.5189848 0.5189848 0.5189848
0.5088298 0.5088298 0.5088298
0.2138581 0.2138581 0.2138581
0.2530575 0.2530575 0.2530575
0.3026955 0.3026955 0.3026955
0.4087645 0.4087645 0.4087645
0.5225458 0.5225458 0.5225458
0.4979853 0.4979853 0.4979853
0.5589058 0.5589058 0.5589058
0.5739424 0.5739424 0.5739424
0.5593750 0.5593750 0.5593750
0.2555239 0.2555239 0.2555239
0.2944297 0.2944297 0.2944297
0.3364347 0.3364347 0.3364347
0.3899574 0.3899574 0.3899574
0.5080407 0.5080407 0.5080407
0.5725256 0.5725256 0.5725256
0.6518943 0.6518943 0.6518943
0.6497837 0.6497837 0.6497837
0.6217990 0.6217990 0.6217990
0.2971906 0.2971906 0.2971906
0.3360953 0.3360953 0.3360953
0.3777639 0.3777639 0.3777639
0.4196255 0.4196255 0.4196255
0.4662095 0.4662095 0.4662095
0.5272443 0.5272443 0.5272443
0.6771391 0.6771391 0.6771391
0.6311808 0.6311808 0.6311808
0.6343930 0.6343930 0.6343930
0.3360953 0.3360953 0.3360953
0.3750000 0.3750000 0.3750000
0.4166667 0.4166667 0.4166667
0.4583337 0.4583337 0.4583337
0.5000277 0.5000277 0.5000277
0.5457935 0.5457935 0.5457935
0.6084077 0.6084077 0.6084077
0.6331617 0.6331617 0.6331617
0.6644719 0.6644719 0.6644719
0.0733205 0.0733205 0.0733205
0.1070969 0.1070969 0.1070969
0.1392539 0.1392539 0.1392539
0.1687517 0.1687517 0.1687517
0.2181651 0.2181651 0.2181651
0.2604159 0.2604159 0.2604159
0.3003267 0.3003267 0.3003267
0.3353103 0.3353103 0.3353103
0.3749952 0.3749952 0.3749952
0.1300882 0.1300882 0.1300882
0.1577287 0.1577287 0.1577287
0.1970490 0.1970490 0.1970490
0.2339607 0.2339607 0.2339607
0.2573316 0.2573316 0.2573316
0.2966302 0.2966302 0.2966302
0.3356433 0.3356433 0.3356433
0.3744708 0.3744708 0.3744708
0.4139228 0.4139228 0.4139228
0.1612534 0.1612534 0.1612534
0.2112438 0.2112438 0.2112438
0.2499939 0.2499939 0.2499939
0.2862029 0.2862029 0.2862029
0.3152356 0.3152356 0.3152356
0.3478907 0.3478907 0.3478907
0.3704758 0.3704758 0.3704758
0.4105112 0.4105112 0.4105112
0.4548534 0.4548534 0.4548534
0.1807162 0.1807162 0.1807162
0.2500063 0.2500063 0.2500063
0.3140350 0.3140350 0.3140350
0.3528700 0.3528700 0.3528700
0.3819934 0.3819934 0.3819934
0.4344468 0.4344468 0.4344468
0.4793729 0.4793729 0.4793729
0.4404999 0.4404999 0.4404999
0.4784016 0.4784016 0.4784016
0.2113066 0.2113066 0.2113066
0.2575518 0.2575518 0.2575518
0.3430498 0.3430498 0.3430498
0.4264313 0.4264313 0.4264313
0.4735108 0.4735108 0.4735108
0.4873351 0.4873351 0.4873351
0.5149948 0.5149948 0.5149948
0.5425721 0.5425721 0.5425721
0.5618443 0.5618443 0.5618443
0.2527635 0.2527635 0.2527635
0.2922538 0.2922538 0.2922538
0.3412418 0.3412418 0.3412418
0.4429116 0.4429116 0.4429116
0.5109925 0.5109925 0.5109925
0.5500582 0.5500582 0.5500582
0.6072712 0.6072712 0.6072712
0.6088551 0.6088551 0.6088551
0.6005167 0.6005167 0.6005167
0.2944286 0.2944286 0.2944286
0.3333353 0.3333353 0.3333353
0.3753368 0.3753368 0.3753368
0.4307459 0.4307459 0.4307459
0.4848750 0.4848750 0.4848750
0.5478258 0.5478258 0.5478258
0.6753086 0.6753086 0.6753086
0.6882125 0.6882125 0.6882125
0.6591463 0.6591463 0.6591463
0.3360953 0.3360953 0.3360953
0.3750000 0.3750000 0.3750000
0.4166689 0.4166689 0.4166689
0.4584578 0.4584578 0.4584578
0.5008322 0.5008322 0.5008322
0.5710556 0.5710556 0.5710556
0.7363854 0.7363854 0.7363854
0.7363878 0.7363878 0.7363878
0.6985377 0.6985377 0.6985377
0.3750000 0.3750000 0.3750000
0.4139047 0.4139047 0.4139047
0.4555714 0.4555714 0.4555714
0.4972381 0.4972381 0.4972381
0.5389354 0.5389354 0.5389354
0.5880804 0.5880804 0.5880804
0.7079741 0.7079741 0.7079741
0.7025399 0.7025399 0.7025399
0.7082214 0.7082214 0.7082214
0.0851430 0.0851430 0.0851430
0.1314207 0.1314207 0.1314207
0.1718414 0.1718414 0.1718414
0.2155324 0.2155324 0.2155324
0.2474033 0.2474033 0.2474033
0.2939139 0.2939139 0.2939139
0.3358614 0.3358614 0.3358614
0.3777021 0.3777021 0.3777021
0.4166664 0.4166664 0.4166664
0.1537130 0.1537130 0.1537130
0.1811821 0.1811821 0.1811821
0.2203890 0.2203890 0.2203890
0.2505727 0.2505727 0.2505727
0.2825343 0.2825343 0.2825343
0.3402883 0.3402883 0.3402883
0.3727508 0.3727508 0.3727508
0.4166176 0.4166176 0.4166176
0.4555712 0.4555712 0.4555712
0.2008027 0.2008027 0.2008027
0.2373831 0.2373831 0.2373831
0.2722366 0.2722366 0.2722366
0.3121573 0.3121573 0.3121573
0.3495154 0.3495154 0.3495154
0.3836177 0.3836177 0.3836177
0.4067882 0.4067882 0.4067882
0.4558937 0.4558937 0.4558937
0.4964042 0.4964042 0.4964042
0.2238457 0.2238457 0.2238457
0.2630410 0.2630410 0.2630410
0.3297483 0.3297483 0.3297483
0.3736701 0.3736701 0.3736701
0.4086949 0.4086949 0.4086949
0.4371539 0.4371539 0.4371539
0.4699777 0.4699777 0.4699777
0.4819777 0.4819777 0.4819777
0.5273194 0.5273194 0.5273194
0.2539491 0.2539491 0.2539491
0.2972882 0.2972882 0.2972882
0.3716485 0.3716485 0.3716485
0.4342866 0.4342866 0.4342866
0.4829717 0.4829717 0.4829717
0.5128914 0.5128914 0.5128914
0.5374357 0.5374357 0.5374357
0.5661194 0.5661194 0.5661194
0.5820006 0.5820006 0.5820006
0.2944360 0.2944360 0.2944360
0.3337669 0.3337669 0.3337669
0.3840151 0.3840151 0.3840151
0.4532189 0.4532189 0.4532189
0.5416756 0.5416756 0.5416756
0.5868296 0.5868296 0.5868296
0.6237774 0.6237774 0.6237774
0.6333539 0.6333539 0.6333539
0.6487129 0.6487129 0.6487129
0.3360954 0.3360954 0.3360954
0.3750030 0.3750030 0.3750030
0.4168237 0.4168237 0.4168237
0.4626131 0.4626131 0.4626131
0.5286345 0.5286345 0.5286345
0.6431189 0.6431189 0.6431189
0.7101911 0.7101911 0.7101911
0.7062415 0.7062415 0.7062415
0.7227627 0.7227627 0.7227627
0.3777620 0.3777620 0.3777620
0.4166667 0.4166667 0.4166667
0.4583347 0.4583347 0.4583347
0.5002211 0.5002211 0.5002211
0.5446948 0.5446948 0.5446948
0.6233225 0.6233225 0.6233225
0.7587853 0.7587853 0.7587853
0.7611030 0.7611030 0.7611030
0.7408754 0.7408754 0.7408754
0.4166667 0.4166667 0.4166667
0.4555714 0.4555714 0.4555714
0.4972380 0.4972380 0.4972380
0.5389057 0.5389057 0.5389057
0.5807826 0.5807826 0.5807826
0.6391408 0.6391408 0.6391408
0.8031794 0.8031794 0.8031794
0.7886073 0.7886073 0.7886073
0.7703623 0.7703623 0.7703623
0.1000800 0.1000800 0.1000800
0.1626112 0.1626112 0.1626112
0.2114064 0.2114064 0.2114064
0.2507355 0.2507355 0.2507355
0.2943668 0.2943668 0.2943668
0.3358435 0.3358435 0.3358435
0.3777400 0.3777400 0.3777400
0.4194288 0.4194288 0.4194288
0.4583333 0.4583333 0.4583333
0.1511196 0.1511196 0.1511196
0.2044628 0.2044628 0.2044628
0.2495853 0.2495853 0.2495853
0.2833152 0.2833152 0.2833152
0.3182167 0.3182167 0.3182167
0.3663237 0.3663237 0.3663237
0.4163924 0.4163924 0.4163924
0.4578554 0.4578554 0.4578554
0.4972270 0.4972270 0.4972270
0.2396569 0.2396569 0.2396569
0.2607517 0.2607517 0.2607517
0.2940191 0.2940191 0.2940191
0.3278444 0.3278444 0.3278444
0.3671666 0.3671666 0.3671666
0.4208656 0.4208656 0.4208656
0.4378444 0.4378444 0.4378444
0.4864424 0.4864424 0.4864424
0.5354561 0.5354561 0.5354561
0.2773199 0.2773199 0.2773199
0.3129462 0.3129462 0.3129462
0.3655594 0.3655594 0.3655594
0.3956932 0.3956932 0.3956932
0.4345166 0.4345166 0.4345166
0.4740865 0.4740865 0.4740865
0.4869652 0.4869652 0.4869652
0.5067537 0.5067537 0.5067537
0.5403110 0.5403110 0.5403110
0.3027418 0.3027418 0.3027418
0.3381574 0.3381574 0.3381574
0.4044555 0.4044555 0.4044555
0.4571025 0.4571025 0.4571025
0.4973733 0.4973733 0.4973733
0.5384157 0.5384157 0.5384157
0.5529037 0.5529037 0.5529037
0.5762576 0.5762576 0.5762576
0.6082566 0.6082566 0.6082566
0.3372579 0.3372579 0.3372579
0.3756723 0.3756723 0.3756723
0.4256651 0.4256651 0.4256651
0.4901937 0.4901937 0.4901937
0.5676569 0.5676569 0.5676569
0.6140385 0.6140385 0.6140385
0.6434041 0.6434041 0.6434041
0.6559605 0.6559605 0.6559605
0.6721358 0.6721358 0.6721358
0.3777806 0.3777806 0.3777806
0.4166611 0.4166611 0.4166611
0.4585257 0.4585257 0.4585257
0.5164379 0.5164379 0.5164379
0.6147344 0.6147344 0.6147344
0.6748661 0.6748661 0.6748661
0.7331489 0.7331489 0.7331489
0.7267264 0.7267264 0.7267264
0.7696829 0.7696829 0.7696829
0.4194286 0.4194286 0.4194286
0.4583334 0.4583334 0.4583334
0.5000162 0.5000162 0.5000162
0.5439885 0.5439885 0.5439885
0.5923455 0.5923455 0.5923455
0.6912345 0.6912345 0.6912345
0.7879786 0.7879786 0.7879786
0.7906336 0.7906336 0.7906336
0.8324524 0.8324524 0.8324524
0.4583333 0.4583333 0.4583333
0.4972380 0.4972380 0.4972380
0.5389048 0.5389048 0.5389048
0.5805801 0.5805801 0.5805801
0.6226658 0.6226658 0.6226658
0.6963386 0.6963386 0.6963386
0.8417454 0.8417454 0.8417454
0.8470414 0.8470414 0.8470414
0.8722969 0.8722969 0.8722969
0.1365075 0.1365075 0.1365075
0.2015362 0.2015362 0.2015362
0.2527510 0.2527510 0.2527510
0.2944028 0.2944028 0.2944028
0.3358426 0.3358426 0.3358426
0.3769803 0.3769803 0.3769803
0.4193839 0.4193839 0.4193839
0.4610952 0.4610952 0.4610952
0.5000000 0.5000000 0.5000000
0.1503038 0.1503038 0.1503038
0.2197832 0.2197832 0.2197832
0.2888010 0.2888010 0.2888010
0.3309991 0.3309991 0.3309991
0.3651125 0.3651125 0.3651125
0.4000611 0.4000611 0.4000611
0.4573141 0.4573141 0.4573141
0.4999191 0.4999191 0.4999191
0.5388941 0.5388941 0.5388941
0.2314198 0.2314198 0.2314198
0.2687862 0.2687862 0.2687862
0.3180403 0.3180403 0.3180403
0.3532718 0.3532718 0.3532718
0.4011790 0.4011790 0.4011790
0.4323178 0.4323178 0.4323178
0.4947627 0.4947627 0.4947627
0.5389315 0.5389315 0.5389315
0.5790235 0.5790235 0.5790235
0.2971500 0.2971500 0.2971500
0.3434673 0.3434673 0.3434673
0.3894050 0.3894050 0.3894050
0.4179881 0.4179881 0.4179881
0.4494706 0.4494706 0.4494706
0.4967426 0.4967426 0.4967426
0.5413473 0.5413473 0.5413473
0.5684091 0.5684091 0.5684091
0.6054154 0.6054154 0.6054154
0.3520918 0.3520918 0.3520918
0.3822156 0.3822156 0.3822156
0.4396339 0.4396339 0.4396339
0.4898451 0.4898451 0.4898451
0.5199517 0.5199517 0.5199517
0.5631618 0.5631618 0.5631618
0.5967157 0.5967157 0.5967157
0.6102754 0.6102754 0.6102754
0.6486728 0.6486728 0.6486728
0.3864372 0.3864372 0.3864372
0.4153956 0.4153956 0.4153956
0.4639962 0.4639962 0.4639962
0.5418829 0.5418829 0.5418829
0.5902479 0.5902479 0.5902479
0.6287600 0.6287600 0.6287600
0.6695473 0.6695473 0.6695473
0.6771815 0.6771815 0.6771815
0.7126322 0.7126322 0.7126322
0.4196292 0.4196292 0.4196292
0.4585628 0.4585628 0.4585628
0.5003974 0.5003974 0.5003974
0.5510464 0.5510464 0.5510464
0.6275488 0.6275488 0.6275488
0.6934889 0.6934889 0.6934889
0.7448962 0.7448962 0.7448962
0.7635394 0.7635394 0.7635394
0.7791936 0.7791936 0.7791936
0.4611272 0.4611272 0.4611272
0.5000221 0.5000221 0.5000221
0.5416783 0.5416783 0.5416783
0.5840164 0.5840164 0.5840164
0.6377390 0.6377390 0.6377390
0.7241713 0.7241713 0.7241713
0.8043758 0.8043758 0.8043758
0.8231134 0.8231134 0.8231134
0.8603558 0.8603558 0.8603558
0.5000001 0.5000001 0.5000001
0.5389047 0.5389047 0.5389047
0.5805714 0.5805714 0.5805714
0.6222433 0.6222433 0.6222433
0.6644983 0.6644983 0.6644983
0.7393188 0.7393188 0.7393188
0.8575827 0.8575827 0.8575827
0.8682752 0.8682752 0.8682752
0.9016488 0.9016488 0.9016488
0.1831767 0.1831767 0.1831767
0.2453580 0.2453580 0.2453580
0.2943780 0.2943780 0.2943780
0.3360943 0.3360943 0.3360943
0.3777385 0.3777385 0.3777385
0.4193839 0.4193839 0.4193839
0.4610932 0.4610932 0.4610932
0.5027620 0.5027620 0.5027620
0.5416667 0.5416667 0.5416667
0.1578825 0.1578825 0.1578825
0.2674159 0.2674159 0.2674159
0.3325773 0.3325773 0.3325773
0.3748202 0.3748202 0.3748202
0.4161945 0.4161945 0.4161945
0.4574819 0.4574819 0.4574819
0.4997982 0.4997982 0.4997982
0.5416650 0.5416650 0.5416650
0.5805712 0.5805712 0.5805712
0.2575533 0.2575533 0.2575533
0.2808413 0.2808413 0.2808413
0.3629179 0.3629179 0.3629179
0.4046482 0.4046482 0.4046482
0.4507465 0.4507465 0.4507465
0.4861362 0.4861362 0.4861362
0.5371886 0.5371886 0.5371886
0.5832974 0.5832974 0.5832974
0.6222209 0.6222209 0.6222209
0.3093545 0.3093545 0.3093545
0.3646436 0.3646436 0.3646436
0.3981403 0.3981403 0.3981403
0.4317374 0.4317374 0.4317374
0.4661302 0.4661302 0.4661302
0.5092903 0.5092903 0.5092903
0.5832997 0.5832997 0.5832997
0.6246137 0.6246137 0.6246137
0.6635550 0.6635550 0.6635550
0.3648839 0.3648839 0.3648839
0.4138314 0.4138314 0.4138314
0.4669447 0.4669447 0.4669447
0.5192460 0.5192460 0.5192460
0.5462151 0.5462151 0.5462151
0.5818502 0.5818502 0.5818502
0.6220142 0.6220142 0.6220142
0.6666989 0.6666989 0.6666989
0.7031790 0.7031790 0.7031790
0.4279074 0.4279074 0.4279074
0.4657228 0.4657228 0.4657228
0.5227317 0.5227317 0.5227317
0.5682634 0.5682634 0.5682634
0.6190286 0.6190286 0.6190286
0.6459733 0.6459733 0.6459733
0.6886556 0.6886556 0.6886556
0.7258145 0.7258145 0.7258145
0.7471541 0.7471541 0.7471541
0.4756188 0.4756188 0.4756188
0.5095861 0.5095861 0.5095861
0.5515301 0.5515301 0.5515301
0.6020143 0.6020143 0.6020143
0.6755934 0.6755934 0.6755934
0.7181392 0.7181392 0.7181392
0.7570223 0.7570223 0.7570223
0.7915926 0.7915926 0.7915926
0.8066407 0.8066407 0.8066407
0.5038835 0.5038835 0.5038835
0.5423244 0.5423244 0.5423244
0.5833607 0.5833607 0.5833607
0.6266046 0.6266046 0.6266046
0.6800776 0.6800776 0.6800776
0.7663901 0.7663901 0.7663901
0.8237333 0.8237333 0.8237333
0.8474657 0.8474657 0.8474657
0.8708219 0.8708219 0.8708219
0.5416948 0.5416948 0.5416948
0.5806701 0.5806701 0.5806701
0.6222529 0.6222529 0.6222529
0.6639234 0.6639234 0.6639234
0.7075817 0.7075817 0.7075817
0.7846507 0.7846507 0.7846507
0.8626702 0.8626702 0.8626702
0.8864429 0.8864429 0.8864429
0.9043867 0.9043867 0.9043867
0.2390047 0.2390047 0.2390047
0.2907054 0.2907054 0.2907054
0.3360707 0.3360707 0.3360707
0.3777620 0.3777620 0.3777620
0.4194286 0.4194286 0.4194286
0.4610952 0.4610952 0.4610952
0.5027620 0.5027620 0.5027620
0.5444286 0.5444286 0.5444286
0.5833333 0.5833333 0.5833333
0.1943986 0.1943986 0.1943986
0.3120961 0.3120961 0.3120961
0.3747052 0.3747052 0.3747052
0.4166544 0.4166544 0.4166544
0.4583240 0.4583240 0.4583240
0.4999875 0.4999875 0.4999875
0.5416626 0.5416626 0.5416626
0.5833333 0.5833333 0.5833333
0.6222380 0.6222380 0.6222380
0.2942499 0.2942499 0.2942499
0.2985765 0.2985765 0.2985765
0.4052109 0.4052109 0.4052109
0.4559343 0.4559343 0.4559343
0.4986827 0.4986827 0.4986827
0.5406557 0.5406557 0.5406557
0.5830741 0.5830741 0.5830741
0.6249973 0.6249973 0.6249973
0.6639047 0.6639047 0.6639047
0.3536958 0.3536958 0.3536958
0.3849337 0.3849337 0.3849337
0.4171371 0.4171371 0.4171371
0.4771023 0.4771023 0.4771023
0.5061724 0.5061724 0.5061724
0.5678399 0.5678399 0.5678399
0.6175728 0.6175728 0.6175728
0.6663889 0.6663889 0.6663889
0.7055696 0.7055696 0.7055696
0.3957087 0.3957087 0.3957087
0.4382692 0.4382692 0.4382692
0.4872813 0.4872813 0.4872813
0.5277579 0.5277579 0.5277579
0.5638973 0.5638973 0.5638973
0.5856437 0.5856437 0.5856437
0.6415564 0.6415564 0.6415564
0.7043857 0.7043857 0.7043857
0.7470250 0.7470250 0.7470250
0.4610499 0.4610499 0.4610499
0.5079458 0.5079458 0.5079458
0.5445455 0.5445455 0.5445455
0.6020718 0.6020718 0.6020718
0.6464201 0.6464201 0.6464201
0.6701317 0.6701317 0.6701317
0.7092695 0.7092695 0.7092695
0.7346610 0.7346610 0.7346610
0.7856199 0.7856199 0.7856199
0.5177610 0.5177610 0.5177610
0.5521085 0.5521085 0.5521085
0.5888801 0.5888801 0.5888801
0.6413528 0.6413528 0.6413528
0.6956376 0.6956376 0.6956376
0.7443144 0.7443144 0.7443144
0.7724453 0.7724453 0.7724453
0.8077214 0.8077214 0.8077214
0.8334687 0.8334687 0.8334687
0.5475534 0.5475534 0.5475534
0.5966824 0.5966824 0.5966824
0.6299001 0.6299001 0.6299001
0.6685744 0.6685744 0.6685744
0.7336343 0.7336343 0.7336343
0.7920169 0.7920169 0.7920169
0.8418884 0.8418884 0.8418884
0.8599285 0.8599285 0.8599285
0.8817732 0.8817732 0.8817732
0.5856556 0.5856556 0.5856556
0.6261926 0.6261926 0.6261926
0.6647997 0.6647997 0.6647997
0.7063807 0.7063807 0.7063807
0.7490336 0.7490336 0.7490336
0.8122160 0.8122160 0.8122160
0.8800381 0.8800381 0.8800381
0.8942813 0.8942813 0.8942813
0.9101754 0.9101754 0.9101754
0.2957539 0.2957539 0.2957539
0.3357918 0.3357918 0.3357918
0.3777600 0.3777600 0.3777600
0.4194286 0.4194286 0.4194286
0.4610953 0.4610953 0.4610953
0.5027620 0.5027620 0.5027620
0.5444286 0.5444286 0.5444286
0.5860953 0.5860953 0.5860953
0.6250000 0.6250000 0.6250000
0.3270456 0.3270456 0.3270456
0.3716731 0.3716731 0.3716731
0.4163816 0.4163816 0.4163816
0.4583324 0.4583324 0.4583324
0.4999999 0.4999999 0.4999999
0.5416666 0.5416666 0.5416666
0.5833333 0.5833333 0.5833333
0.6250000 0.6250000 0.6250000
0.6639047 0.6639047 0.6639047
0.3674399 0.3674399 0.3674399
0.3583646 0.3583646 0.3583646
0.4531205 0.4531205 0.4531205
0.4994511 0.4994511 0.4994511
0.5414866 0.5414866 0.5414866
0.5832720 0.5832720 0.5832720
0.6249929 0.6249929 0.6249929
0.6666665 0.6666665 0.6666665
0.7055714 0.7055714 0.7055714
0.3819441 0.3819441 0.3819441
0.3644602 0.3644602 0.3644602
0.4571144 0.4571144 0.4571144
0.5274057 0.5274057 0.5274057
0.5796781 0.5796781 0.5796781
0.6171811 0.6171811 0.6171811
0.6654066 0.6654066 0.6654066
0.7081980 0.7081980 0.7081980
0.7472358 0.7472358 0.7472358
0.4312784 0.4312784 0.4312784
0.4586264 0.4586264 0.4586264
0.5061172 0.5061172 0.5061172
0.5420065 0.5420065 0.5420065
0.6069878 0.6069878 0.6069878
0.6080807 0.6080807 0.6080807
0.6791005 0.6791005 0.6791005
0.7435686 0.7435686 0.7435686
0.7883972 0.7883972 0.7883972
0.4767106 0.4767106 0.4767106
0.5221499 0.5221499 0.5221499
0.5704601 0.5704601 0.5704601
0.6165043 0.6165043 0.6165043
0.6544026 0.6544026 0.6544026
0.6864205 0.6864205 0.6864205
0.7096409 0.7096409 0.7096409
0.7543281 0.7543281 0.7543281
0.8192585 0.8192585 0.8192585
0.5285947 0.5285947 0.5285947
0.5858037 0.5858037 0.5858037
0.6293019 0.6293019 0.6293019
0.6749417 0.6749417 0.6749417
0.7267341 0.7267341 0.7267341
0.7592281 0.7592281 0.7592281
0.7983783 0.7983783 0.7983783
0.8219697 0.8219697 0.8219697
0.8673032 0.8673032 0.8673032
0.5927864 0.5927864 0.5927864
0.6341360 0.6341360 0.6341360
0.6799767 0.6799767 0.6799767
0.7272314 0.7272314 0.7272314
0.7628921 0.7628921 0.7628921
0.8254152 0.8254152 0.8254152
0.8561820 0.8561820 0.8561820
0.8762054 0.8762054 0.8762054
0.8931907 0.8931907 0.8931907
0.6457140 0.6457140 0.6457140
0.6809948 0.6809948 0.6809948
0.7186667 0.7186667 0.7186667
0.7502993 0.7502993 0.7502993
0.7976884 0.7976884 0.7976884
0.8475080 0.8475080 0.8475080
0.8917180 0.8917180 0.8917180
0.9040570 0.9040570 0.9040570
0.9143985 0.9143985 0.9143985
0.3360909 0.3360909 0.3360909
0.3749991 0.3749991 0.3749991
0.4166666 0.4166666 0.4166666
0.4583333 0.4583333 0.4583333
0.5000000 0.5000000 0.5000000
0.5416667 0.5416667 0.5416667
0.5833333 0.5833333 0.5833333
0.6250000 0.6250000 0.6250000
0.6639047 0.6639047 0.6639047
0.3749652 0.3749652 0.3749652
0.4136468 0.4136468 0.4136468
0.4555112 0.4555112 0.4555112
0.4972377 0.4972377 0.4972377
0.5389047 0.5389047 0.5389047
0.5805714 0.5805714 0.5805714
0.6222380 0.6222380 0.6222380
0.6639047 0.6639047 0.6639047
0.7028094 0.7028094 0.7028094
0.4121878 0.4121878 0.4121878
0.4278179 0.4278179 0.4278179
0.4912072 0.4912072 0.4912072
0.5387335 0.5387335 0.5387335
0.5805678 0.5805678 0.5805678
0.6222349 0.6222349 0.6222349
0.6639044 0.6639044 0.6639044
0.7055714 0.7055714 0.7055714
0.7444761 0.7444761 0.7444761
0.4187541 0.4187541 0.4187541
0.3697920 0.3697920 0.3697920
0.5149026 0.5149026 0.5149026
0.5714641 0.5714641 0.5714641
0.6217235 0.6217235 0.6217235
0.6629804 0.6629804 0.6629804
0.7054460 0.7054460 0.7054460
0.7472220 0.7472220 0.7472220
0.7861423 0.7861423 0.7861423
0.4306774 0.4306774 0.4306774
0.4599597 0.4599597 0.4599597
0.5241659 0.5241659 0.5241659
0.5770786 0.5770786 0.5770786
0.6533356 0.6533356 0.6533356
0.6986360 0.6986360 0.6986360
0.7422267 0.7422267 0.7422267
0.7864433 0.7864433 0.7864433
0.8276261 0.8276261 0.8276261
0.5047539 0.5047539 0.5047539
0.5381510 0.5381510 0.5381510
0.5950328 0.5950328 0.5950328
0.6353313 0.6353313 0.6353313
0.6750421 0.6750421 0.6750421
0.7068968 0.7068968 0.7068968
0.7447205 0.7447205 0.7447205
0.7969137 0.7969137 0.7969137
0.8607845 0.8607845 0.8607845
0.5681118 0.5681118 0.5681118
0.5907753 0.5907753 0.5907753
0.6556343 0.6556343 0.6556343
0.7038900 0.7038900 0.7038900
0.7467640 0.7467640 0.7467640
0.7602863 0.7602863 0.7602863
0.8069245 0.8069245 0.8069245
0.8437354 0.8437354 0.8437354
0.8992541 0.8992541 0.8992541
0.6309475 0.6309475 0.6309475
0.6465266 0.6465266 0.6465266
0.7224426 0.7224426 0.7224426
0.7610738 0.7610738 0.7610738
0.8055787 0.8055787 0.8055787
0.8383124 0.8383124 0.8383124
0.8557149 0.8557149 0.8557149
0.8867182 0.8867182 0.8867182
0.9068065 0.9068065 0.9068065
0.6979509 0.6979509 0.6979509
0.7149590 0.7149590 0.7149590
0.7726322 0.7726322 0.7726322
0.8166903 0.8166903 0.8166903
0.8613312 0.8613312 0.8613312
0.8890440 0.8890440 0.8890440
0.9059413 0.9059413 0.9059413
0.9123409 0.9123409 0.9123409
0.9218341 0.9218341 0.9218341
