looks/lab_infrared.cube
TITLE "Latent Lab infrared (34 scenes)"
LUT_3D_SIZE 9
0.0580910 0.0580910 0.0580910
0.1301683 0.1301683 0.1301683
0.1878242 0.1878242 0.1878242
0.2374673 0.2374673 0.2374673
0.2988636 0.2988636 0.2988636
0.3484010 0.3484010 0.3484010
0.2977976 0.2977976 0.2977976
0.2975871 0.2975871 0.2975871
0.3360955 0.3360955 0.3360955
0.1391299 0.1391299 0.1391299
0.2243845 0.2243845 0.2243845
0.2823170 0.2823170 0.2823170
0.3848588 0.3848588 0.3848588
0.4461679 0.4461679 0.4461679
0.4529906 0.4529906 0.4529906
0.3631683 0.3631683 0.3631683
0.3418488 0.3418488 0.3418488
0.3750295 0.3750295 0.3750295
0.1731482 0.1731482 0.1731482
0.2671355 0.2671355 0.2671355
0.3577851 0.3577851 0.3577851
0.4421299 0.4421299 0.4421299
0.5581486 0.5581486 0.5581486
0.6547696 0.6547696 0.6547696
0.5862715 0.5862715 0.5862715
0.4099069 0.4099069 0.4099069
0.4169251 0.4169251 0.4169251
0.1475911 0.1475911 0.1475911
0.2619437 0.2619437 0.2619437
0.3893777 0.3893777 0.3893777
0.5021052 0.5021052 0.5021052
0.5855526 0.5855526 0.5855526
0.6809377 0.6809377 0.6809377
0.7420200 0.7420200 0.7420200
0.5152295 0.5152295 0.5152295
0.4595690 0.4595690 0.4595690
0.1727445 0.1727445 0.1727445
0.2385067 0.2385067 0.2385067
0.3915621 0.3915621 0.3915621
0.5372315 0.5372315 0.5372315
0.6163737 0.6163737 0.6163737
0.6870172 0.6870172 0.6870172
0.7413194 0.7413194 0.7413194
0.5660168 0.5660168 0.5660168
0.5015327 0.5015327 0.5015327
0.2138691 0.2138691 0.2138691
0.2536394 0.2536394 0.2536394
0.3152359 0.3152359 0.3152359
0.5232827 0.5232827 0.5232827
0.6740661 0.6740661 0.6740661
0.7139423 0.7139423 0.7139423
0.7762405 0.7762405 0.7762405
0.7214195 0.7214195 0.7214195
0.5538215 0.5538215 0.5538215
0.2555239 0.2555239 0.2555239
0.2944352 0.2944352 0.2944352
0.3372273 0.3372273 0.3372273
0.4148730 0.4148730 0.4148730
0.6647754 0.6647754 0.6647754
0.7883281 0.7883281 0.7883281
0.8291374 0.8291374 0.8291374
0.8074406 0.8074406 0.8074406
0.6025496 0.6025496 0.6025496
0.2971906 0.2971906 0.2971906
0.3360953 0.3360953 0.3360953
0.3777719 0.3777719 0.3777719
0.4223616 0.4223616 0.4223616
0.5270142 0.5270142 0.5270142
0.7396873 0.7396873 0.7396873
0.8972655 0.8972655 0.8972655
0.8730946 0.8730946 0.8730946
0.6465694 0.6465694 0.6465694
0.3360953 0.3360953 0.3360953
0.3750000 0.3750000 0.3750000
0.4166667 0.4166667 0.4166667
0.4583640 0.4583640 0.4583640
0.5041516 0.5041516 0.5041516
0.5933740 0.5933740 0.5933740
0.8034142 0.8034142 0.8034142
0.8817675 0.8817675 0.8817675
0.6829386 0.6829386 0.6829386
0.0311029 0.0311029 0.0311029
0.0626608 0.0626608 0.0626608
0.1054741 0.1054741 0.1054741
0.2034622 0.2034622 0.2034622
0.2551857 0.2551857 0.2551857
0.2934326 0.2934326 0.2934326
0.3067887 0.3067887 0.3067887
0.3362040 0.3362040 0.3362040
0.3750001 0.3750001 0.3750001
0.0670785 0.0670785 0.0670785
0.1510825 0.1510825 0.1510825
0.2384896 0.2384896 0.2384896
0.3127643 0.3127643 0.3127643
0.3516036 0.3516036 0.3516036
0.3900518 0.3900518 0.3900518
0.3866866 0.3866866 0.3866866
0.3795620 0.3795620 0.3795620
0.4139278 0.4139278 0.4139278
0.1751596 0.1751596 0.1751596
0.2317423 0.2317423 0.2317423
0.3347354 0.3347354 0.3347354
0.4354535 0.4354535 0.4354535
0.5022089 0.5022089 0.5022089
0.5445487 0.5445487 0.5445487
0.5895044 0.5895044 0.5895044
0.4540874 0.4540874 0.4540874
0.4560271 0.4560271 0.4560271
0.1847804 0.1847804 0.1847804
0.2726933 0.2726933 0.2726933
0.3938767 0.3938767 0.3938767
0.5042849 0.5042849 0.5042849
0.5606728 0.5606728 0.5606728
0.7001488 0.7001488 0.7001488
0.7435068 0.7435068 0.7435068
0.5649332 0.5649332 0.5649332
0.4985792 0.4985792 0.4985792
0.2130758 0.2130758 0.2130758
0.2762109 0.2762109 0.2762109
0.4104864 0.4104864 0.4104864
0.5072553 0.5072553 0.5072553
0.5815607 0.5815607 0.5815607
0.6728591 0.6728591 0.6728591
0.8530543 0.8530543 0.8530543
0.6407564 0.6407564 0.6407564
0.5451384 0.5451384 0.5451384
0.2528096 0.2528096 0.2528096
0.2943624 0.2943624 0.2943624
0.3708984 0.3708984 0.3708984
0.5347962 0.5347962 0.5347962
0.6333624 0.6333624 0.6333624
0.6957271 0.6957271 0.6957271
0.8553727 0.8553727 0.8553727
0.7189382 0.7189382 0.7189382
0.5916579 0.5916579 0.5916579
0.2944287 0.2944287 0.2944287
0.3333615 0.3333615 0.3333615
0.3769969 0.3769969 0.3769969
0.4608920 0.4608920 0.4608920
0.6549894 0.6549894 0.6549894
0.7373350 0.7373350 0.7373350
0.8156082 0.8156082 0.8156082
0.8778579 0.8778579 0.8778579
0.6442578 0.6442578 0.6442578
0.3360953 0.3360953 0.3360953
0.3750000 0.3750000 0.3750000
0.4166832 0.4166832 0.4166832
0.4606430 0.4606430 0.4606430
0.5634838 0.5634838 0.5634838
0.7916937 0.7916937 0.7916937
0.7986415 0.7986415 0.7986415
0.9114109 0.9114109 0.9114109
0.6852837 0.6852837 0.6852837
0.3750000 0.3750000 0.3750000
0.4139047 0.4139047 0.4139047
0.4555714 0.4555714 0.4555714
0.4972885 0.4972885 0.4972885
0.5474675 0.5474675 0.5474675
0.6239243 0.6239243 0.6239243
0.7304359 0.7304359 0.7304359
0.8855979 0.8855979 0.8855979
0.7190705 0.7190705 0.7190705
0.0371069 0.0371069 0.0371069
0.1028635 0.1028635 0.1028635
0.1315739 0.1315739 0.1315739
0.1784141 0.1784141 0.1784141
0.2452935 0.2452935 0.2452935
0.2948869 0.2948869 0.2948869
0.3361995 0.3361995 0.3361995
0.3777629 0.3777629 0.3777629
0.4166667 0.4166667 0.4166667
0.0303866 0.0303866 0.0303866
0.0867770 0.0867770 0.0867770
0.1364738 0.1364738 0.1364738
0.1771185 0.1771185 0.1771185
0.3068067 0.3068067 0.3068067
0.3403774 0.3403774 0.3403774
0.3777713 0.3777713 0.3777713
0.4168331 0.4168331 0.4168331
0.4555722 0.4555722 0.4555722
0.0738203 0.0738203 0.0738203
0.1777820 0.1777820 0.1777820
0.2554702 0.2554702 0.2554702
0.3434647 0.3434647 0.3434647
0.3847548 0.3847548 0.3847548
0.4467556 0.4467556 0.4467556
0.4626199 0.4626199 0.4626199
0.4635470 0.4635470 0.4635470
0.4973073 0.4973073 0.4973073
0.1641814 0.1641814 0.1641814
0.2453548 0.2453548 0.2453548
0.3297252 0.3297252 0.3297252
0.4370413 0.4370413 0.4370413
0.5312873 0.5312873 0.5312873
0.5849097 0.5849097 0.5849097
0.5943230 0.5943230 0.5943230
0.5446487 0.5446487 0.5446487
0.5397965 0.5397965 0.5397965
0.2458064 0.2458064 0.2458064
0.3126670 0.3126670 0.3126670
0.3820173 0.3820173 0.3820173
0.4914122 0.4914122 0.4914122
0.5372454 0.5372454 0.5372454
0.6531172 0.6531172 0.6531172
0.7250635 0.7250635 0.7250635
0.6901501 0.6901501 0.6901501
0.5911024 0.5911024 0.5911024
0.2938874 0.2938874 0.2938874
0.3334446 0.3334446 0.3334446
0.4103760 0.4103760 0.4103760
0.5254353 0.5254353 0.5254353
0.5981883 0.5981883 0.5981883
0.6872675 0.6872675 0.6872675
0.8204694 0.8204694 0.8204694
0.7479519 0.7479519 0.7479519
0.6448939 0.6448939 0.6448939
0.3360902 0.3360902 0.3360902
0.3750278 0.3750278 0.3750278
0.4197341 0.4197341 0.4197341
0.4941410 0.4941410 0.4941410
0.6319139 0.6319139 0.6319139
0.7106482 0.7106482 0.7106482
0.8241783 0.8241783 0.8241783
0.8549884 0.8549884 0.8549884
0.6911602 0.6911602 0.6911602
0.3777619 0.3777619 0.3777619
0.4166667 0.4166667 0.4166667
0.4583623 0.4583623 0.4583623
0.5023314 0.5023314 0.5023314
0.5614029 0.5614029 0.5614029
0.6533026 0.6533026 0.6533026
0.8371487 0.8371487 0.8371487
0.9215338 0.9215338 0.9215338
0.7457103 0.7457103 0.7457103
0.4166667 0.4166667 0.4166667
0.4555714 0.4555714 0.4555714
0.4972381 0.4972381 0.4972381
0.5389168 0.5389168 0.5389168
0.5818092 0.5818092 0.5818092
0.6354401 0.6354401 0.6354401
0.8189476 0.8189476 0.8189476
0.9409747 0.9409747 0.9409747
0.7975093 0.7975093 0.7975093
0.0448812 0.0448812 0.0448812
0.1485637 0.1485637 0.1485637
0.2057563 0.2057563 0.2057563
0.2344698 0.2344698 0.2344698
0.2858445 0.2858445 0.2858445
0.3358947 0.3358947 0.3358947
0.3777620 0.3777620 0.3777620
0.4194286 0.4194286 0.4194286
0.4583333 0.4583333 0.4583333
0.0336752 0.0336752 0.0336752
0.1233734 0.1233734 0.1233734
0.1920300 0.1920300 0.1920300
0.2139885 0.2139885 0.2139885
0.2548539 0.2548539 0.2548539
0.3704682 0.3704682 0.3704682
0.4168540 0.4168540 0.4168540
0.4583449 0.4583449 0.4583449
0.4972381 0.4972381 0.4972381
0.0355449 0.0355449 0.0355449
0.0604029 0.0604029 0.0604029
0.1931091 0.1931091 0.1931091
0.2438110 0.2438110 0.2438110
0.3237887 0.3237887 0.3237887
0.4113832 0.4113832 0.4113832
0.4708265 0.4708265 0.4708265
0.5006691 0.5006691 0.5006691
0.5389072 0.5389072 0.5389072
0.1178342 0.1178342 0.1178342
0.1615476 0.1615476 0.1615476
0.2380665 0.2380665 0.2380665
0.3533562 0.3533562 0.3533562
0.4385961 0.4385961 0.4385961
0.4726007 0.4726007 0.4726007
0.5493802 0.5493802 0.5493802
0.5525898 0.5525898 0.5525898
0.5808469 0.5808469 0.5808469
0.2314762 0.2314762 0.2314762
0.2464221 0.2464221 0.2464221
0.3477640 0.3477640 0.3477640
0.4325804 0.4325804 0.4325804
0.5143420 0.5143420 0.5143420
0.6331056 0.6331056 0.6331056
0.6533437 0.6533437 0.6533437
0.6444181 0.6444181 0.6444181
0.6263241 0.6263241 0.6263241
0.3222859 0.3222859 0.3222859
0.3524074 0.3524074 0.3524074
0.4199678 0.4199678 0.4199678
0.4741319 0.4741319 0.4741319
0.5607693 0.5607693 0.5607693
0.6451462 0.6451462 0.6451462
0.7795751 0.7795751 0.7795751
0.7644840 0.7644840 0.7644840
0.6760162 0.6760162 0.6760162
0.3766418 0.3766418 0.3766418
0.4149029 0.4149029 0.4149029
0.4589632 0.4589632 0.4589632
0.5239778 0.5239778 0.5239778
0.6130627 0.6130627 0.6130627
0.6932629 0.6932629 0.6932629
0.8458666 0.8458666 0.8458666
0.8718106 0.8718106 0.8718106
0.7381369 0.7381369 0.7381369
0.4193886 0.4193886 0.4193886
0.4582892 0.4582892 0.4582892
0.5000182 0.5000182 0.5000182
0.5436427 0.5436427 0.5436427
0.5949166 0.5949166 0.5949166
0.7122877 0.7122877 0.7122877
0.8682564 0.8682564 0.8682564
0.9387872 0.9387872 0.9387872
0.7857677 0.7857677 0.7857677
0.4583332 0.4583332 0.4583332
0.4972375 0.4972375 0.4972375
0.5389046 0.5389046 0.5389046
0.5805803 0.5805803 0.5805803
0.6228657 0.6228657 0.6228657
0.6826776 0.6826776 0.6826776
0.8931795 0.8931795 0.8931795
0.9538561 0.9538561 0.9538561
0.8575908 0.8575908 0.8575908
0.0819420 0.0819420 0.0819420
0.1923291 0.1923291 0.1923291
0.2519373 0.2519373 0.2519373
0.2939541 0.2939541 0.2939541
0.3356279 0.3356279 0.3356279
0.3777253 0.3777253 0.3777253
0.4194285 0.4194285 0.4194285
0.4610953 0.4610953 0.4610953
0.5000000 0.5000000 0.5000000
0.0378384 0.0378384 0.0378384
0.1664866 0.1664866 0.1664866
0.2595892 0.2595892 0.2595892
0.3236286 0.3236286 0.3236286
0.3601558 0.3601558 0.3601558
0.4151155 0.4151155 0.4151155
0.4583223 0.4583223 0.4583223
0.5000001 0.5000001 0.5000001
0.5389047 0.5389047 0.5389047
0.0317839 0.0317839 0.0317839
0.0726258 0.0726258 0.0726258
0.1838547 0.1838547 0.1838547
0.2935918 0.2935918 0.2935918
0.3280692 0.3280692 0.3280692
0.4249028 0.4249028 0.4249028
0.4993377 0.4993377 0.4993377
0.5417182 0.5417182 0.5417182
0.5805718 0.5805718 0.5805718
0.0505261 0.0505261 0.0505261
0.0827586 0.0827586 0.0827586
0.1501902 0.1501902 0.1501902
0.2978203 0.2978203 0.2978203
0.3713470 0.3713470 0.3713470
0.4671701 0.4671701 0.4671701
0.5400060 0.5400060 0.5400060
0.5861976 0.5861976 0.5861976
0.6222821 0.6222821 0.6222821
0.1937448 0.1937448 0.1937448
0.1965493 0.1965493 0.1965493
0.2224728 0.2224728 0.2224728
0.3590302 0.3590302 0.3590302
0.4774340 0.4774340 0.4774340
0.5493940 0.5493940 0.5493940
0.5960962 0.5960962 0.5960962
0.6436761 0.6436761 0.6436761
0.6670290 0.6670290 0.6670290
0.2863284 0.2863284 0.2863284
0.2743714 0.2743714 0.2743714
0.3557985 0.3557985 0.3557985
0.4449717 0.4449717 0.4449717
0.5382428 0.5382428 0.5382428
0.6652316 0.6652316 0.6652316
0.6998138 0.6998138 0.6998138
0.7295459 0.7295459 0.7295459
0.7119710 0.7119710 0.7119710
0.3748964 0.3748964 0.3748964
0.4075630 0.4075630 0.4075630
0.4733467 0.4733467 0.4733467
0.5363821 0.5363821 0.5363821
0.5879225 0.5879225 0.5879225
0.6746397 0.6746397 0.6746397
0.7738775 0.7738775 0.7738775
0.8062560 0.8062560 0.8062560
0.7606715 0.7606715 0.7606715
0.4592433 0.4592433 0.4592433
0.4935393 0.4935393 0.4935393
0.5384653 0.5384653 0.5384653
0.5822272 0.5822272 0.5822272
0.6348776 0.6348776 0.6348776
0.7052460 0.7052460 0.7052460
0.8342239 0.8342239 0.8342239
0.8907779 0.8907779 0.8907779
0.8070760 0.8070760 0.8070760
0.4997915 0.4997915 0.4997915
0.5383620 0.5383620 0.5383620
0.5803564 0.5803564 0.5803564
0.6221858 0.6221858 0.6221858
0.6635055 0.6635055 0.6635055
0.7295201 0.7295201 0.7295201
0.9012225 0.9012225 0.9012225
0.9426373 0.9426373 0.9426373
0.8774996 0.8774996 0.8774996
0.1447441 0.1447441 0.1447441
0.2390261 0.2390261 0.2390261
0.2943341 0.2943341 0.2943341
0.3360879 0.3360879 0.3360879
0.3777593 0.3777593 0.3777593
0.4194283 0.4194283 0.4194283
0.4610953 0.4610953 0.4610953
0.5027620 0.5027620 0.5027620
0.5416667 0.5416667 0.5416667
0.0409066 0.0409066 0.0409066
0.2363225 0.2363225 0.2363225
0.3274200 0.3274200 0.3274200
0.3738946 0.3738946 0.3738946
0.4158702 0.4158702 0.4158702
0.4579323 0.4579323 0.4579323
0.4999940 0.4999940 0.4999940
0.5416667 0.5416667 0.5416667
0.5805714 0.5805714 0.5805714
0.0425520 0.0425520 0.0425520
0.1338422 0.1338422 0.1338422
0.2358255 0.2358255 0.2358255
0.3808498 0.3808498 0.3808498
0.4242080 0.4242080 0.4242080
0.4834211 0.4834211 0.4834211
0.5412810 0.5412810 0.5412810
0.5833271 0.5833271 0.5833271
0.6222380 0.6222380 0.6222380
0.0444142 0.0444142 0.0444142
0.1173862 0.1173862 0.1173862
0.1403714 0.1403714 0.1403714
0.2775818 0.2775818 0.2775818
0.3770126 0.3770126 0.3770126
0.4789139 0.4789139 0.4789139
0.5657814 0.5657814 0.5657814
0.6235506 0.6235506 0.6235506
0.6638854 0.6638854 0.6638854
0.0467554 0.0467554 0.0467554
0.0963200 0.0963200 0.0963200
0.1318430 0.1318430 0.1318430
0.2616886 0.2616886 0.2616886
0.3992250 0.3992250 0.3992250
0.4813689 0.4813689 0.4813689
0.5618733 0.5618733 0.5618733
0.6567799 0.6567799 0.6567799
0.7035567 0.7035567 0.7035567
0.1623833 0.1623833 0.1623833
0.2286908 0.2286908 0.2286908
0.2608680 0.2608680 0.2608680
0.3024863 0.3024863 0.3024863
0.4732298 0.4732298 0.4732298
0.6065830 0.6065830 0.6065830
0.6579158 0.6579158 0.6579158
0.6904858 0.6904858 0.6904858
0.7490414 0.7490414 0.7490414
0.3691288 0.3691288 0.3691288
0.3060707 0.3060707 0.3060707
0.3730080 0.3730080 0.3730080
0.4489774 0.4489774 0.4489774
0.5289832 0.5289832 0.5289832
0.6391765 0.6391765 0.6391765
0.7683773 0.7683773 0.7683773
0.7690665 0.7690665 0.7690665
0.8027784 0.8027784 0.8027784
0.4677021 0.4677021 0.4677021
0.4289285 0.4289285 0.4289285
0.4923866 0.4923866 0.4923866
0.5697092 0.5697092 0.5697092
0.6328660 0.6328660 0.6328660
0.6994702 0.6994702 0.6994702
0.7685801 0.7685801 0.7685801
0.8336604 0.8336604 0.8336604
0.8188317 0.8188317 0.8188317
0.5330674 0.5330674 0.5330674
0.5589897 0.5589897 0.5589897
0.6063855 0.6063855 0.6063855
0.6566513 0.6566513 0.6566513
0.7014937 0.7014937 0.7014937
0.7515820 0.7515820 0.7515820
0.8543428 0.8543428 0.8543428
0.9002444 0.9002444 0.9002444
0.8479018 0.8479018 0.8479018
0.2209078 0.2209078 0.2209078
0.2877457 0.2877457 0.2877457
0.3360557 0.3360557 0.3360557
0.3777619 0.3777619 0.3777619
0.4194286 0.4194286 0.4194286
0.4610953 0.4610953 0.4610953
0.5027620 0.5027620 0.5027620
0.5444286 0.5444286 0.5444286
0.5833333 0.5833333 0.5833333
0.0667521 0.0667521 0.0667521
0.2897378 0.2897378 0.2897378
0.3740137 0.3740137 0.3740137
0.4165932 0.4165932 0.4165932
0.4583147 0.4583147 0.4583147
0.4999939 0.4999939 0.4999939
0.5416666 0.5416666 0.5416666
0.5833333 0.5833333 0.5833333
0.6222380 0.6222380 0.6222380
0.1766574 0.1766574 0.1766574
0.1980936 0.1980936 0.1980936
0.3776247 0.3776247 0.3776247
0.4472188 0.4472188 0.4472188
0.4945854 0.4945854 0.4945854
0.5402210 0.5402210 0.5402210
0.5832164 0.5832164 0.5832164
0.6249950 0.6249950 0.6249950
0.6639047 0.6639047 0.6639047
0.0683866 0.0683866 0.0683866
0.0826530 0.0826530 0.0826530
0.1880512 0.1880512 0.1880512
0.3371311 0.3371311 0.3371311
0.4440493 0.4440493 0.4440493
0.5303572 0.5303572 0.5303572
0.6108341 0.6108341 0.6108341
0.6653059 0.6653059 0.6653059
0.7055521 0.7055521 0.7055521
0.0770084 0.0770084 0.0770084
0.1273121 0.1273121 0.1273121
0.1130844 0.1130844 0.1130844
0.2535273 0.2535273 0.2535273
0.3543328 0.3543328 0.3543328
0.4649547 0.4649547 0.4649547
0.5567598 0.5567598 0.5567598
0.6817123 0.6817123 0.6817123
0.7423726 0.7423726 0.7423726
0.0626598 0.0626598 0.0626598
0.1762010 0.1762010 0.1762010
0.2505273 0.2505273 0.2505273
0.2148806 0.2148806 0.2148806
0.3868440 0.3868440 0.3868440
0.4979971 0.4979971 0.4979971
0.5970957 0.5970957 0.5970957
0.6680557 0.6680557 0.6680557
0.7567285 0.7567285 0.7567285
0.2159115 0.2159115 0.2159115
0.2740129 0.2740129 0.2740129
0.3424137 0.3424137 0.3424137
0.3270565 0.3270565 0.3270565
0.4188972 0.4188972 0.4188972
0.5697603 0.5697603 0.5697603
0.6960820 0.6960820 0.6960820
0.7272278 0.7272278 0.7272278
0.7895582 0.7895582 0.7895582
0.3615941 0.3615941 0.3615941
0.4051914 0.4051914 0.4051914
0.4041246 0.4041246 0.4041246
0.4543778 0.4543778 0.4543778
0.5208919 0.5208919 0.5208919
0.6109560 0.6109560 0.6109560
0.6998552 0.6998552 0.6998552
0.8199328 0.8199328 0.8199328
0.8382983 0.8382983 0.8382983
0.5661269 0.5661269 0.5661269
0.5642875 0.5642875 0.5642875
0.5234321 0.5234321 0.5234321
0.6077327 0.6077327 0.6077327
0.6515645 0.6515645 0.6515645
0.7139345 0.7139345 0.7139345
0.7962277 0.7962277 0.7962277
0.8941509 0.8941509 0.8941509
0.9021824 0.9021824 0.9021824
0.2862894 0.2862894 0.2862894
0.3340335 0.3340335 0.3340335
0.3777499 0.3777499 0.3777499
0.4194286 0.4194286 0.4194286
0.4610953 0.4610953 0.4610953
0.5027620 0.5027620 0.5027620
0.5444286 0.5444286 0.5444286
0.5860953 0.5860953 0.5860953
0.6250000 0.6250000 0.6250000
0.1728696 0.1728696 0.1728696
0.3445568 0.3445568 0.3445568
0.4164414 0.4164414 0.4164414
0.4583233 0.4583233 0.4583233
0.4999996 0.4999996 0.4999996
0.5416666 0.5416666 0.5416666
0.5833333 0.5833333 0.5833333
0.6250000 0.6250000 0.6250000
0.6639047 0.6639047 0.6639047
0.2080908 0.2080908 0.2080908
0.3313449 0.3313449 0.3313449
0.4428297 0.4428297 0.4428297
0.4949037 0.4949037 0.4949037
0.5414190 0.5414190 0.5414190
0.5832285 0.5832285 0.5832285
0.6249905 0.6249905 0.6249905
0.6666662 0.6666662 0.6666662
0.7055714 0.7055714 0.7055714
0.2694025 0.2694025 0.2694025
0.0819508 0.0819508 0.0819508
0.2841074 0.2841074 0.2841074
0.4300835 0.4300835 0.4300835
0.5639896 0.5639896 0.5639896
0.6061392 0.6061392 0.6061392
0.6627798 0.6627798 0.6627798
0.7079787 0.7079787 0.7079787
0.7472302 0.7472302 0.7472302
0.1159140 0.1159140 0.1159140
0.1174789 0.1174789 0.1174789
0.1857820 0.1857820 0.1857820
0.2433392 0.2433392 0.2433392
0.4762039 0.4762039 0.4762039
0.5142102 0.5142102 0.5142102
0.6207256 0.6207256 0.6207256
0.7276725 0.7276725 0.7276725
0.7857376 0.7857376 0.7857376
0.1078610 0.1078610 0.1078610
0.2457746 0.2457746 0.2457746
0.2706363 0.2706363 0.2706363
0.2173275 0.2173275 0.2173275
0.3799103 0.3799103 0.3799103
0.4571645 0.4571645 0.4571645
0.5640089 0.5640089 0.5640089
0.6584029 0.6584029 0.6584029
0.7769134 0.7769134 0.7769134
0.1420632 0.1420632 0.1420632
0.4536203 0.4536203 0.4536203
0.4969826 0.4969826 0.4969826
0.3227930 0.3227930 0.3227930
0.4052835 0.4052835 0.4052835
0.4679771 0.4679771 0.4679771
0.6273666 0.6273666 0.6273666
0.6960022 0.6960022 0.6960022
0.7656687 0.7656687 0.7656687
0.3645676 0.3645676 0.3645676
0.5074260 0.5074260 0.5074260
0.5486183 0.5486183 0.5486183
0.4956917 0.4956917 0.4956917
0.5009668 0.5009668 0.5009668
0.5916873 0.5916873 0.5916873
0.6374371 0.6374371 0.6374371
0.7734197 0.7734197 0.7734197
0.8507394 0.8507394 0.8507394
0.5502414 0.5502414 0.5502414
0.6123477 0.6123477 0.6123477
0.6363697 0.6363697 0.6363697
0.6336166 0.6336166 0.6336166
0.6068305 0.6068305 0.6068305
0.6421242 0.6421242 0.6421242
0.7525077 0.7525077 0.7525077
0.8985818 0.8985818 0.8985818
0.9450834 0.9450834 0.9450834
0.3356328 0.3356328 0.3356328
0.3749138 0.3749138 0.3749138
0.4166662 0.4166662 0.4166662
0.4583333 0.4583333 0.4583333
0.5000000 0.5000000 0.5000000
0.5416667 0.5416667 0.5416667
0.5833333 0.5833333 0.5833333
0.6250000 0.6250000 0.6250000
0.6639047 0.6639047 0.6639047
0.3610108 0.3610108 0.3610108
0.4113227 0.4113227 0.4113227
0.4555426 0.4555426 0.4555426
0.4972376 0.4972376 0.4972376
0.5389047 0.5389047 0.5389047
0.5805714 0.5805714 0.5805714
0.6222380 0.6222380 0.6222380
0.6639047 0.6639047 0.6639047
0.7028094 0.7028094 0.7028094
0.4003842 0.4003842 0.4003842
0.4294229 0.4294229 0.4294229
0.4922324 0.4922324 0.4922324
0.5383613 0.5383613 0.5383613
0.5805559 0.5805559 0.5805559
0.6222297 0.6222297 0.6222297
0.6639039 0.6639039 0.6639039
0.7055714 0.7055714 0.7055714
0.7444761 0.7444761 0.7444761
0.3819373 0.3819373 0.3819373
0.2094022 0.2094022 0.2094022
0.4309277 0.4309277 0.4309277
0.5349727 0.5349727 0.5349727
0.6192611 0.6192611 0.6192611
0.6619400 0.6619400 0.6619400
0.7045183 0.7045183 0.7045183
0.7471206 0.7471206 0.7471206
0.7861387 0.7861387 0.7861387
0.0771600 0.0771600 0.0771600
0.0664734 0.0664734 0.0664734
0.1804497 0.1804497 0.1804497
0.2794986 0.2794986 0.2794986
0.5662390 0.5662390 0.5662390
0.6676190 0.6676190 0.6676190
0.6802315 0.6802315 0.6802315
0.7761766 0.7761766 0.7761766
0.8255905 0.8255905 0.8255905
0.0477354 0.0477354 0.0477354
0.1413008 0.1413008 0.1413008
0.3317440 0.3317440 0.3317440
0.1901990 0.1901990 0.1901990
0.3508977 0.3508977 0.3508977
0.5324180 0.5324180 0.5324180
0.5842944 0.5842944 0.5842944
0.6747906 0.6747906 0.6747906
0.8210284 0.8210284 0.8210284
0.0673795 0.0673795 0.0673795
0.1978452 0.1978452 0.1978452
0.4041931 0.4041931 0.4041931
0.2785827 0.2785827 0.2785827
0.3449353 0.3449353 0.3449353
0.5468968 0.5468968 0.5468968
0.5880570 0.5880570 0.5880570
0.6636130 0.6636130 0.6636130
0.7426859 0.7426859 0.7426859
0.1152556 0.1152556 0.1152556
0.2661929 0.2661929 0.2661929
0.6068818 0.6068818 0.6068818
0.6080622 0.6080622 0.6080622
0.3597768 0.3597768 0.3597768
0.5728273 0.5728273 0.5728273
0.6164714 0.6164714 0.6164714
0.7221026 0.7221026 0.7221026
0.7936910 0.7936910 0.7936910
0.2014849 0.2014849 0.2014849
0.4278987 0.4278987 0.4278987
0.7231430 0.7231430 0.7231430
0.7578882 0.7578882 0.7578882
0.5966436 0.5966436 0.5966436
0.5602742 0.5602742 0.5602742
0.6890962 0.6890962 0.6890962
0.7722061 0.7722061 0.7722061
0.9481853 0.9481853 0.9481853
