looks/lab_infrared.cube
TITLE "Latent Lab infrared (34 scenes)"
LUT_3D_SIZE 33
0.0580910 0.0580910 0.0580910
0.0710259 0.0710259 0.0710259
0.0890031 0.0890031 0.0890031
0.1077043 0.1077043 0.1077043
0.1301683 0.1301683 0.1301683
0.1518028 0.1518028 0.1518028
0.1702411 0.1702411 0.1702411
0.1823852 0.1823852 0.1823852
0.1878242 0.1878242 0.1878242
0.1987645 0.1987645 0.1987645
0.2117343 0.2117343 0.2117343
0.2235593 0.2235593 0.2235593
0.2374673 0.2374673 0.2374673
0.2591952 0.2591952 0.2591952
0.2695665 0.2695665 0.2695665
0.2827952 0.2827952 0.2827952
0.2988636 0.2988636 0.2988636
0.3128249 0.3128249 0.3128249
0.3207670 0.3207670 0.3207670
0.3260694 0.3260694 0.3260694
0.3484010 0.3484010 0.3484010
0.3606253 0.3606253 0.3606253
0.3490906 0.3490906 0.3490906
0.3228017 0.3228017 0.3228017
0.2977976 0.2977976 0.2977976
0.2843442 0.2843442 0.2843442
0.2827648 0.2827648 0.2827648
0.2885570 0.2885570 0.2885570
0.2975871 0.2975871 0.2975871
0.3076783 0.3076783 0.3076783
0.3180325 0.3180325 0.3180325
0.3282781 0.3282781 0.3282781
0.3360955 0.3360955 0.3360955
0.0761826 0.0761826 0.0761826
0.0894613 0.0894613 0.0894613
0.1086316 0.1086316 0.1086316
0.1270191 0.1270191 0.1270191
0.1458226 0.1458226 0.1458226
0.1635149 0.1635149 0.1635149
0.1822247 0.1822247 0.1822247
0.1979102 0.1979102 0.1979102
0.2061171 0.2061171 0.2061171
0.2137927 0.2137927 0.2137927
0.2252151 0.2252151 0.2252151
0.2389828 0.2389828 0.2389828
0.2545649 0.2545649 0.2545649
0.2737317 0.2737317 0.2737317
0.2848852 0.2848852 0.2848852
0.2987288 0.2987288 0.2987288
0.3156153 0.3156153 0.3156153
0.3237305 0.3237305 0.3237305
0.3280519 0.3280519 0.3280519
0.3330956 0.3330956 0.3330956
0.3554823 0.3554823 0.3554823
0.3671837 0.3671837 0.3671837
0.3554330 0.3554330 0.3554330
0.3293954 0.3293954 0.3293954
0.3048231 0.3048231 0.3048231
0.2917831 0.2917831 0.2917831
0.2904921 0.2904921 0.2904921
0.2963803 0.2963803 0.2963803
0.3054209 0.3054209 0.3054209
0.3155131 0.3155131 0.3155131
0.3258599 0.3258599 0.3258599
0.3360991 0.3360991 0.3360991
0.3439146 0.3439146 0.3439146
0.1023802 0.1023802 0.1023802
0.1173516 0.1173516 0.1173516
0.1358755 0.1358755 0.1358755
0.1508275 0.1508275 0.1508275
0.1663391 0.1663391 0.1663391
0.1837720 0.1837720 0.1837720
0.2031637 0.2031637 0.2031637
0.2225458 0.2225458 0.2225458
0.2372997 0.2372997 0.2372997
0.2462821 0.2462821 0.2462821
0.2576531 0.2576531 0.2576531
0.2703322 0.2703322 0.2703322
0.2810374 0.2810374 0.2810374
0.2974671 0.2974671 0.2974671
0.3141294 0.3141294 0.3141294
0.3286026 0.3286026 0.3286026
0.3430382 0.3430382 0.3430382
0.3447347 0.3447347 0.3447347
0.3460934 0.3460934 0.3460934
0.3481421 0.3481421 0.3481421
0.3612644 0.3612644 0.3612644
0.3624138 0.3624138 0.3624138
0.3496113 0.3496113 0.3496113
0.3284136 0.3284136 0.3284136
0.3090591 0.3090591 0.3090591
0.2999637 0.2999637 0.2999637
0.3010347 0.3010347 0.3010347
0.3072814 0.3072814 0.3072814
0.3160131 0.3160131 0.3160131
0.3259111 0.3259111 0.3259111
0.3361649 0.3361649 0.3361649
0.3463665 0.3463665 0.3463665
0.3541720 0.3541720 0.3541720
0.1236337 0.1236337 0.1236337
0.1455567 0.1455567 0.1455567
0.1662999 0.1662999 0.1662999
0.1809062 0.1809062 0.1809062
0.1933251 0.1933251 0.1933251
0.2062689 0.2062689 0.2062689
0.2238381 0.2238381 0.2238381
0.2442781 0.2442781 0.2442781
0.2664317 0.2664317 0.2664317
0.2882243 0.2882243 0.2882243
0.3107558 0.3107558 0.3107558
0.3255868 0.3255868 0.3255868
0.3314694 0.3314694 0.3314694
0.3443505 0.3443505 0.3443505
0.3646127 0.3646127 0.3646127
0.3821185 0.3821185 0.3821185
0.3923702 0.3923702 0.3923702
0.3990493 0.3990493 0.3990493
0.4049302 0.4049302 0.4049302
0.3990968 0.3990968 0.3990968
0.3924859 0.3924859 0.3924859
0.3749104 0.3749104 0.3749104
0.3547514 0.3547514 0.3547514
0.3359131 0.3359131 0.3359131
0.3208890 0.3208890 0.3208890
0.3151279 0.3151279 0.3151279
0.3167989 0.3167989 0.3167989
0.3210838 0.3210838 0.3210838
0.3279542 0.3279542 0.3279542
0.3368818 0.3368818 0.3368818
0.3467414 0.3467414 0.3467414
0.3568192 0.3568192 0.3568192
0.3645947 0.3645947 0.3645947
0.1391299 0.1391299 0.1391299
0.1686346 0.1686346 0.1686346
0.1946419 0.1946419 0.1946419
0.2110021 0.2110021 0.2110021
0.2243845 0.2243845 0.2243845
0.2339020 0.2339020 0.2339020
0.2463370 0.2463370 0.2463370
0.2624972 0.2624972 0.2624972
0.2823170 0.2823170 0.2823170
0.3099282 0.3099282 0.3099282
0.3414888 0.3414888 0.3414888
0.3674203 0.3674203 0.3674203
0.3848588 0.3848588 0.3848588
0.3987065 0.3987065 0.3987065
0.4160431 0.4160431 0.4160431
0.4349686 0.4349686 0.4349686
0.4461679 0.4461679 0.4461679
0.4542325 0.4542325 0.4542325
0.4635646 0.4635646 0.4635646
0.4570265 0.4570265 0.4570265
0.4529906 0.4529906 0.4529906
0.4421373 0.4421373 0.4421373
0.4127049 0.4127049 0.4127049
0.3835969 0.3835969 0.3835969
0.3631683 0.3631683 0.3631683
0.3505770 0.3505770 0.3505770
0.3421715 0.3421715 0.3421715
0.3390832 0.3390832 0.3390832
0.3418488 0.3418488 0.3418488
0.3485893 0.3485893 0.3485893
0.3575322 0.3575322 0.3575322
0.3673230 0.3673230 0.3673230
0.3750295 0.3750295 0.3750295
0.1572194 0.1572194 0.1572194
0.1794562 0.1794562 0.1794562
0.2088555 0.2088555 0.2088555
0.2316360 0.2316360 0.2316360
0.2437957 0.2437957 0.2437957
0.2611569 0.2611569 0.2611569
0.2731110 0.2731110 0.2731110
0.2850012 0.2850012 0.2850012
0.2997316 0.2997316 0.2997316
0.3206374 0.3206374 0.3206374
0.3502505 0.3502505 0.3502505
0.3840427 0.3840427 0.3840427
0.4108864 0.4108864 0.4108864
0.4316325 0.4316325 0.4316325
0.4509020 0.4509020 0.4509020
0.4726209 0.4726209 0.4726209
0.4906741 0.4906741 0.4906741
0.5047609 0.5047609 0.5047609
0.5153992 0.5153992 0.5153992
0.5192519 0.5192519 0.5192519
0.5315158 0.5315158 0.5315158
0.5197499 0.5197499 0.5197499
0.4845983 0.4845983 0.4845983
0.4509225 0.4509225 0.4509225
0.4234252 0.4234252 0.4234252
0.3973854 0.3973854 0.3973854
0.3756920 0.3756920 0.3756920
0.3628008 0.3628008 0.3628008
0.3585131 0.3585131 0.3585131
0.3612814 0.3612814 0.3612814
0.3686088 0.3686088 0.3686088
0.3778935 0.3778935 0.3778935
0.3854783 0.3854783 0.3854783
0.1648474 0.1648474 0.1648474
0.1789385 0.1789385 0.1789385
0.2061102 0.2061102 0.2061102
0.2390225 0.2390225 0.2390225
0.2588290 0.2588290 0.2588290
0.2794335 0.2794335 0.2794335
0.2953424 0.2953424 0.2953424
0.3081658 0.3081658 0.3081658
0.3253473 0.3253473 0.3253473
0.3408945 0.3408945 0.3408945
0.3602502 0.3602502 0.3602502
0.3915332 0.3915332 0.3915332
0.4216662 0.4216662 0.4216662
0.4457776 0.4457776 0.4457776
0.4645326 0.4645326 0.4645326
0.4908162 0.4908162 0.4908162
0.5215234 0.5215234 0.5215234
0.5476603 0.5476603 0.5476603
0.5634558 0.5634558 0.5634558
0.5715281 0.5715281 0.5715281
0.5853083 0.5853083 0.5853083
0.5738493 0.5738493 0.5738493
0.5512589 0.5512589 0.5512589
0.5270875 0.5270875 0.5270875
0.4877510 0.4877510 0.4877510
0.4479739 0.4479739 0.4479739
0.4161441 0.4161441 0.4161441
0.3912247 0.3912247 0.3912247
0.3771187 0.3771187 0.3771187
0.3746528 0.3746528 0.3746528
0.3798823 0.3798823 0.3798823
0.3885105 0.3885105 0.3885105
0.3959372 0.3959372 0.3959372
0.1659138 0.1659138 0.1659138
0.1820003 0.1820003 0.1820003
0.2076703 0.2076703 0.2076703
0.2373958 0.2373958 0.2373958
0.2682362 0.2682362 0.2682362
0.2899405 0.2899405 0.2899405
0.3035350 0.3035350 0.3035350
0.3211857 0.3211857 0.3211857
0.3488139 0.3488139 0.3488139
0.3740302 0.3740302 0.3740302
0.3866886 0.3866886 0.3866886
0.4030330 0.4030330 0.4030330
0.4284200 0.4284200 0.4284200
0.4549201 0.4549201 0.4549201
0.4773272 0.4773272 0.4773272
0.5051171 0.5051171 0.5051171
0.5383630 0.5383630 0.5383630
0.5747650 0.5747650 0.5747650
0.5944826 0.5944826 0.5944826
0.6016784 0.6016784 0.6016784
0.6189087 0.6189087 0.6189087
0.6234613 0.6234613 0.6234613
0.6242993 0.6242993 0.6242993
0.5979019 0.5979019 0.5979019
0.5448502 0.5448502 0.5448502
0.4970586 0.4970586 0.4970586
0.4548076 0.4548076 0.4548076
0.4176405 0.4176405 0.4176405
0.3947120 0.3947120 0.3947120
0.3876755 0.3876755 0.3876755
0.3910767 0.3910767 0.3910767
0.3991250 0.3991250 0.3991250
0.4064047 0.4064047 0.4064047
0.1731482 0.1731482 0.1731482
0.1943148 0.1943148 0.1943148
0.2176394 0.2176394 0.2176394
0.2408289 0.2408289 0.2408289
0.2671355 0.2671355 0.2671355
0.2944291 0.2944291 0.2944291
0.3141682 0.3141682 0.3141682
0.3282036 0.3282036 0.3282036
0.3577851 0.3577851 0.3577851
0.4032642 0.4032642 0.4032642
0.4313392 0.4313392 0.4313392
0.4356886 0.4356886 0.4356886
0.4421299 0.4421299 0.4421299
0.4668105 0.4668105 0.4668105
0.5091503 0.5091503 0.5091503
0.5464803 0.5464803 0.5464803
0.5581486 0.5581486 0.5581486
0.5933207 0.5933207 0.5933207
0.6250594 0.6250594 0.6250594
0.6393639 0.6393639 0.6393639
0.6547696 0.6547696 0.6547696
0.6712105 0.6712105 0.6712105
0.6715450 0.6715450 0.6715450
0.6387159 0.6387159 0.6387159
0.5862715 0.5862715 0.5862715
0.5336817 0.5336817 0.5336817
0.4826971 0.4826971 0.4826971
0.4379819 0.4379819 0.4379819
0.4099069 0.4099069 0.4099069
0.4001577 0.4001577 0.4001577
0.4023694 0.4023694 0.4023694
0.4098633 0.4098633 0.4098633
0.4169251 0.4169251 0.4169251
0.1704870 0.1704870 0.1704870
0.1929710 0.1929710 0.1929710
0.2200471 0.2200471 0.2200471
0.2465654 0.2465654 0.2465654
0.2689214 0.2689214 0.2689214
0.2970040 0.2970040 0.2970040
0.3238640 0.3238640 0.3238640
0.3379810 0.3379810 0.3379810
0.3595093 0.3595093 0.3595093
0.4006758 0.4006758 0.4006758
0.4465721 0.4465721 0.4465721
0.4773237 0.4773237 0.4773237
0.4839666 0.4839666 0.4839666
0.4852343 0.4852343 0.4852343
0.5239545 0.5239545 0.5239545
0.5774760 0.5774760 0.5774760
0.5810639 0.5810639 0.5810639
0.6020507 0.6020507 0.6020507
0.6428104 0.6428104 0.6428104
0.6577986 0.6577986 0.6577986
0.6713299 0.6713299 0.6713299
0.7001868 0.7001868 0.7001868
0.6950912 0.6950912 0.6950912
0.6657522 0.6657522 0.6657522
0.6282128 0.6282128 0.6282128
0.5706971 0.5706971 0.5706971
0.5103698 0.5103698 0.5103698
0.4618606 0.4618606 0.4618606
0.4296104 0.4296104 0.4296104
0.4156438 0.4156438 0.4156438
0.4150915 0.4150915 0.4150915
0.4210849 0.4210849 0.4210849
0.4275697 0.4275697 0.4275697
0.1589303 0.1589303 0.1589303
0.1830877 0.1830877 0.1830877
0.2166055 0.2166055 0.2166055
0.2447646 0.2447646 0.2447646
0.2692586 0.2692586 0.2692586
0.3000322 0.3000322 0.3000322
0.3303997 0.3303997 0.3303997
0.3497176 0.3497176 0.3497176
0.3667170 0.3667170 0.3667170
0.3922589 0.3922589 0.3922589
0.4304672 0.4304672 0.4304672
0.4792569 0.4792569 0.4792569
0.5194339 0.5194339 0.5194339
0.5300387 0.5300387 0.5300387
0.5326113 0.5326113 0.5326113
0.5587297 0.5587297 0.5587297
0.5700259 0.5700259 0.5700259
0.5848497 0.5848497 0.5848497
0.6261650 0.6261650 0.6261650
0.6519506 0.6519506 0.6519506
0.6856116 0.6856116 0.6856116
0.7303073 0.7303073 0.7303073
0.7342708 0.7342708 0.7342708
0.7180871 0.7180871 0.7180871
0.6828316 0.6828316 0.6828316
0.6162515 0.6162515 0.6162515
0.5509444 0.5509444 0.5509444
0.5009736 0.5009736 0.5009736
0.4609626 0.4609626 0.4609626
0.4368953 0.4368953 0.4368953
0.4296097 0.4296097 0.4296097
0.4326961 0.4326961 0.4326961
0.4383030 0.4383030 0.4383030
0.1503319 0.1503319 0.1503319
0.1739609 0.1739609 0.1739609
0.2056583 0.2056583 0.2056583
0.2363896 0.2363896 0.2363896
0.2670091 0.2670091 0.2670091
0.3022468 0.3022468 0.3022468
0.3367237 0.3367237 0.3367237
0.3598132 0.3598132 0.3598132
0.3798944 0.3798944 0.3798944
0.4017887 0.4017887 0.4017887
0.4291019 0.4291019 0.4291019
0.4658746 0.4658746 0.4658746
0.5197601 0.5197601 0.5197601
0.5682150 0.5682150 0.5682150
0.5790809 0.5790809 0.5790809
0.5598949 0.5598949 0.5598949
0.5464502 0.5464502 0.5464502
0.5577583 0.5577583 0.5577583
0.5919403 0.5919403 0.5919403
0.6293328 0.6293328 0.6293328
0.6886364 0.6886364 0.6886364
0.7468818 0.7468818 0.7468818
0.7606477 0.7606477 0.7606477
0.7570614 0.7570614 0.7570614
0.7237522 0.7237522 0.7237522
0.6634482 0.6634482 0.6634482
0.6053840 0.6053840 0.6053840
0.5474837 0.5474837 0.5474837
0.4932670 0.4932670 0.4932670
0.4576926 0.4576926 0.4576926
0.4438014 0.4438014 0.4438014
0.4441938 0.4441938 0.4441938
0.4490047 0.4490047 0.4490047
0.1475911 0.1475911 0.1475911
0.1663816 0.1663816 0.1663816
0.1928241 0.1928241 0.1928241
0.2230017 0.2230017 0.2230017
0.2619437 0.2619437 0.2619437
0.3054613 0.3054613 0.3054613
0.3371410 0.3371410 0.3371410
0.3613171 0.3613171 0.3613171
0.3893777 0.3893777 0.3893777
0.4155439 0.4155439 0.4155439
0.4405282 0.4405282 0.4405282
0.4663189 0.4663189 0.4663189
0.5021052 0.5021052 0.5021052
0.5590740 0.5590740 0.5590740
0.6112333 0.6112333 0.6112333
0.6189097 0.6189097 0.6189097
0.5855526 0.5855526 0.5855526
0.5678416 0.5678416 0.5678416
0.5850718 0.5850718 0.5850718
0.6192349 0.6192349 0.6192349
0.6809377 0.6809377 0.6809377
0.7550393 0.7550393 0.7550393
0.7800583 0.7800583 0.7800583
0.7640919 0.7640919 0.7640919
0.7420200 0.7420200 0.7420200
0.7043328 0.7043328 0.7043328
0.6464841 0.6464841 0.6464841
0.5785621 0.5785621 0.5785621
0.5152295 0.5152295 0.5152295
0.4733657 0.4733657 0.4733657
0.4561305 0.4561305 0.4561305
0.4551682 0.4551682 0.4551682
0.4595690 0.4595690 0.4595690
0.1492888 0.1492888 0.1492888
0.1634735 0.1634735 0.1634735
0.1847944 0.1847944 0.1847944
0.2148392 0.2148392 0.2148392
0.2583151 0.2583151 0.2583151
0.3002265 0.3002265 0.3002265
0.3314168 0.3314168 0.3314168
0.3631397 0.3631397 0.3631397
0.3948442 0.3948442 0.3948442
0.4249158 0.4249158 0.4249158
0.4516329 0.4516329 0.4516329
0.4737258 0.4737258 0.4737258
0.4961021 0.4961021 0.4961021
0.5333408 0.5333408 0.5333408
0.5935985 0.5935985 0.5935985
0.6532661 0.6532661 0.6532661
0.6630621 0.6630621 0.6630621
0.6323733 0.6323733 0.6323733
0.6112550 0.6112550 0.6112550
0.6221927 0.6221927 0.6221927
0.6779882 0.6779882 0.6779882
0.7560707 0.7560707 0.7560707
0.7809492 0.7809492 0.7809492
0.7643161 0.7643161 0.7643161
0.7579863 0.7579863 0.7579863
0.7256243 0.7256243 0.7256243
0.6613163 0.6613163 0.6613163
0.5907330 0.5907330 0.5907330
0.5267893 0.5267893 0.5267893
0.4843231 0.4843231 0.4843231
0.4667474 0.4667474 0.4667474
0.4656445 0.4656445 0.4656445
0.4700018 0.4700018 0.4700018
0.1549333 0.1549333 0.1549333
0.1661191 0.1661191 0.1661191
0.1845527 0.1845527 0.1845527
0.2125024 0.2125024 0.2125024
0.2491212 0.2491212 0.2491212
0.2864299 0.2864299 0.2864299
0.3250847 0.3250847 0.3250847
0.3696082 0.3696082 0.3696082
0.4034569 0.4034569 0.4034569
0.4345966 0.4345966 0.4345966
0.4656904 0.4656904 0.4656904
0.4877357 0.4877357 0.4877357
0.5061004 0.5061004 0.5061004
0.5285025 0.5285025 0.5285025
0.5656006 0.5656006 0.5656006
0.6230753 0.6230753 0.6230753
0.6908404 0.6908404 0.6908404
0.7145560 0.7145560 0.7145560
0.6797955 0.6797955 0.6797955
0.6436027 0.6436027 0.6436027
0.6692660 0.6692660 0.6692660
0.7323560 0.7323560 0.7323560
0.7609399 0.7609399 0.7609399
0.7490158 0.7490158 0.7490158
0.7381396 0.7381396 0.7381396
0.7063425 0.7063425 0.7063425
0.6561666 0.6561666 0.6561666
0.5940889 0.5940889 0.5940889
0.5334588 0.5334588 0.5334588
0.4930598 0.4930598 0.4930598
0.4765596 0.4765596 0.4765596
0.4758866 0.4758866 0.4758866
0.4803729 0.4803729 0.4803729
0.1631605 0.1631605 0.1631605
0.1729399 0.1729399 0.1729399
0.1890095 0.1890095 0.1890095
0.2115588 0.2115588 0.2115588
0.2415783 0.2415783 0.2415783
0.2787637 0.2787637 0.2787637
0.3198157 0.3198157 0.3198157
0.3633098 0.3633098 0.3633098
0.4037470 0.4037470 0.4037470
0.4452988 0.4452988 0.4452988
0.4784543 0.4784543 0.4784543
0.5029477 0.5029477 0.5029477
0.5219570 0.5219570 0.5219570
0.5395395 0.5395395 0.5395395
0.5604898 0.5604898 0.5604898
0.5898439 0.5898439 0.5898439
0.6433313 0.6433313 0.6433313
0.7094613 0.7094613 0.7094613
0.7297012 0.7297012 0.7297012
0.6866735 0.6866735 0.6866735
0.6677223 0.6677223 0.6677223
0.6951835 0.6951835 0.6951835
0.7199529 0.7199529 0.7199529
0.7200122 0.7200122 0.7200122
0.7129216 0.7129216 0.7129216
0.6986231 0.6986231 0.6986231
0.6726018 0.6726018 0.6726018
0.6145725 0.6145725 0.6145725
0.5497251 0.5497251 0.5497251
0.5061834 0.5061834 0.5061834
0.4880001 0.4880001 0.4880001
0.4866222 0.4866222 0.4866222
0.4908822 0.4908822 0.4908822
0.1727445 0.1727445 0.1727445
0.1817314 0.1817314 0.1817314
0.1955762 0.1955762 0.1955762
0.2140446 0.2140446 0.2140446
0.2385067 0.2385067 0.2385067
0.2688841 0.2688841 0.2688841
0.3032809 0.3032809 0.3032809
0.3442479 0.3442479 0.3442479
0.3915621 0.3915621 0.3915621
0.4352819 0.4352819 0.4352819
0.4734638 0.4734638 0.4734638
0.5097098 0.5097098 0.5097098
0.5372315 0.5372315 0.5372315
0.5565180 0.5565180 0.5565180
0.5742723 0.5742723 0.5742723
0.5922452 0.5922452 0.5922452
0.6163737 0.6163737 0.6163737
0.6616882 0.6616882 0.6616882
0.7151532 0.7151532 0.7151532
0.7220820 0.7220820 0.7220820
0.6870172 0.6870172 0.6870172
0.6862136 0.6862136 0.6862136
0.7082776 0.7082776 0.7082776
0.7285120 0.7285120 0.7285120
0.7413194 0.7413194 0.7413194
0.7553661 0.7553661 0.7553661
0.7147010 0.7147010 0.7147010
0.6377709 0.6377709 0.6377709
0.5660168 0.5660168 0.5660168
0.5193726 0.5193726 0.5193726
0.4996775 0.4996775 0.4996775
0.4975935 0.4975935 0.4975935
0.5015327 0.5015327 0.5015327
0.1828644 0.1828644 0.1828644
0.1913158 0.1913158 0.1913158
0.2035368 0.2035368 0.2035368
0.2185493 0.2185493 0.2185493
0.2369557 0.2369557 0.2369557
0.2587919 0.2587919 0.2587919
0.2862999 0.2862999 0.2862999
0.3232635 0.3232635 0.3232635
0.3646612 0.3646612 0.3646612
0.4081463 0.4081463 0.4081463
0.4572372 0.4572372 0.4572372
0.5033085 0.5033085 0.5033085
0.5429099 0.5429099 0.5429099
0.5715463 0.5715463 0.5715463
0.5916837 0.5916837 0.5916837
0.6093194 0.6093194 0.6093194
0.6250747 0.6250747 0.6250747
0.6462363 0.6462363 0.6462363
0.6750017 0.6750017 0.6750017
0.6898189 0.6898189 0.6898189
0.6842834 0.6842834 0.6842834
0.6951115 0.6951115 0.6951115
0.7169024 0.7169024 0.7169024
0.7381307 0.7381307 0.7381307
0.7618789 0.7618789 0.7618789
0.7853653 0.7853653 0.7853653
0.7410663 0.7410663 0.7410663
0.6552259 0.6552259 0.6552259
0.5799825 0.5799825 0.5799825
0.5328298 0.5328298 0.5328298
0.5125093 0.5125093 0.5125093
0.5094224 0.5094224 0.5094224
0.5126175 0.5126175 0.5126175
0.1931376 0.1931376 0.1931376
0.2012458 0.2012458 0.2012458
0.2123904 0.2123904 0.2123904
0.2248370 0.2248370 0.2248370
0.2388756 0.2388756 0.2388756
0.2553701 0.2553701 0.2553701
0.2769740 0.2769740 0.2769740
0.3047835 0.3047835 0.3047835
0.3375141 0.3375141 0.3375141
0.3798237 0.3798237 0.3798237
0.4325279 0.4325279 0.4325279
0.4877758 0.4877758 0.4877758
0.5374819 0.5374819 0.5374819
0.5786867 0.5786867 0.5786867
0.6068211 0.6068211 0.6068211
0.6269786 0.6269786 0.6269786
0.6426017 0.6426017 0.6426017
0.6580530 0.6580530 0.6580530
0.6721383 0.6721383 0.6721383
0.6784660 0.6784660 0.6784660
0.6837038 0.6837038 0.6837038
0.7068220 0.7068220 0.7068220
0.7302107 0.7302107 0.7302107
0.7471923 0.7471923 0.7471923
0.7611135 0.7611135 0.7611135
0.7729429 0.7729429 0.7729429
0.7631143 0.7631143 0.7631143
0.6946058 0.6946058 0.6946058
0.6150355 0.6150355 0.6150355
0.5601147 0.5601147 0.5601147
0.5322749 0.5322749 0.5322749
0.5240083 0.5240083 0.5240083
0.5247757 0.5247757 0.5247757
0.2034817 0.2034817 0.2034817
0.2114043 0.2114043 0.2114043
0.2219762 0.2219762 0.2219762
0.2331178 0.2331178 0.2331178
0.2449598 0.2449598 0.2449598
0.2583935 0.2583935 0.2583935
0.2750078 0.2750078 0.2750078
0.2953335 0.2953335 0.2953335
0.3212652 0.3212652 0.3212652
0.3582622 0.3582622 0.3582622
0.4083509 0.4083509 0.4083509
0.4687710 0.4687710 0.4687710
0.5311774 0.5311774 0.5311774
0.5823970 0.5823970 0.5823970
0.6199256 0.6199256 0.6199256
0.6424205 0.6424205 0.6424205
0.6591582 0.6591582 0.6591582
0.6753084 0.6753084 0.6753084
0.6885954 0.6885954 0.6885954
0.6938826 0.6938826 0.6938826
0.6988248 0.6988248 0.6988248
0.7165300 0.7165300 0.7165300
0.7347128 0.7347128 0.7347128
0.7538868 0.7538868 0.7538868
0.7750965 0.7750965 0.7750965
0.7874002 0.7874002 0.7874002
0.7960939 0.7960939 0.7960939
0.7446553 0.7446553 0.7446553
0.6650919 0.6650919 0.6650919
0.5988178 0.5988178 0.5988178
0.5584624 0.5584624 0.5584624
0.5418604 0.5418604 0.5418604
0.5385823 0.5385823 0.5385823
0.2138691 0.2138691 0.2138691
0.2217174 0.2217174 0.2217174
0.2320627 0.2320627 0.2320627
0.2426947 0.2426947 0.2426947
0.2536394 0.2536394 0.2536394
0.2654564 0.2654564 0.2654564
0.2790006 0.2790006 0.2790006
0.2949772 0.2949772 0.2949772
0.3152359 0.3152359 0.3152359
0.3458006 0.3458006 0.3458006
0.3933952 0.3933952 0.3933952
0.4549214 0.4549214 0.4549214
0.5232827 0.5232827 0.5232827
0.5856014 0.5856014 0.5856014
0.6283213 0.6283213 0.6283213
0.6533038 0.6533038 0.6533038
0.6740661 0.6740661 0.6740661
0.6923234 0.6923234 0.6923234
0.7065360 0.7065360 0.7065360
0.7129763 0.7129763 0.7129763
0.7139423 0.7139423 0.7139423
0.7164855 0.7164855 0.7164855
0.7246096 0.7246096 0.7246096
0.7470774 0.7470774 0.7470774
0.7762405 0.7762405 0.7762405
0.7984254 0.7984254 0.7984254
0.8266353 0.8266353 0.8266353
0.7988151 0.7988151 0.7988151
0.7214195 0.7214195 0.7214195
0.6436492 0.6436492 0.6436492
0.5904150 0.5904150 0.5904150
0.5631087 0.5631087 0.5631087
0.5538215 0.5538215 0.5538215
0.2242766 0.2242766 0.2242766
0.2321020 0.2321020 0.2321020
0.2423784 0.2423784 0.2423784
0.2528559 0.2528559 0.2528559
0.2634740 0.2634740 0.2634740
0.2744899 0.2744899 0.2744899
0.2863025 0.2863025 0.2863025
0.2994749 0.2994749 0.2994749
0.3160051 0.3160051 0.3160051
0.3412162 0.3412162 0.3412162
0.3803336 0.3803336 0.3803336
0.4341482 0.4341482 0.4341482
0.5003040 0.5003040 0.5003040
0.5651280 0.5651280 0.5651280
0.6133754 0.6133754 0.6133754
0.6521713 0.6521713 0.6521713
0.6867903 0.6867903 0.6867903
0.7091523 0.7091523 0.7091523
0.7242423 0.7242423 0.7242423
0.7339261 0.7339261 0.7339261
0.7359688 0.7359688 0.7359688
0.7282909 0.7282909 0.7282909
0.7291076 0.7291076 0.7291076
0.7517004 0.7517004 0.7517004
0.7845791 0.7845791 0.7845791
0.8208345 0.8208345 0.8208345
0.8655678 0.8655678 0.8655678
0.8435023 0.8435023 0.8435023
0.7654186 0.7654186 0.7654186
0.6839476 0.6839476 0.6839476
0.6213476 0.6213476 0.6213476
0.5837387 0.5837387 0.5837387
0.5686191 0.5686191 0.5686191
0.2346911 0.2346911 0.2346911
0.2425110 0.2425110 0.2425110
0.2527706 0.2527706 0.2527706
0.2632050 0.2632050 0.2632050
0.2736943 0.2736943 0.2736943
0.2843268 0.2843268 0.2843268
0.2952642 0.2952642 0.2952642
0.3069549 0.3069549 0.3069549
0.3210158 0.3210158 0.3210158
0.3406471 0.3406471 0.3406471
0.3695019 0.3695019 0.3695019
0.4112715 0.4112715 0.4112715
0.4653118 0.4653118 0.4653118
0.5247518 0.5247518 0.5247518
0.5871606 0.5871606 0.5871606
0.6480784 0.6480784 0.6480784
0.6941049 0.6941049 0.6941049
0.7227667 0.7227667 0.7227667
0.7395995 0.7395995 0.7395995
0.7520528 0.7520528 0.7520528
0.7576243 0.7576243 0.7576243
0.7548494 0.7548494 0.7548494
0.7627478 0.7627478 0.7627478
0.7783907 0.7783907 0.7783907
0.8222190 0.8222190 0.8222190
0.8707321 0.8707321 0.8707321
0.8928572 0.8928572 0.8928572
0.8594506 0.8594506 0.8594506
0.7864739 0.7864739 0.7864739
0.7085125 0.7085125 0.7085125
0.6420614 0.6420614 0.6420614
0.5991299 0.5991299 0.5991299
0.5811307 0.5811307 0.5811307
0.2451073 0.2451073 0.2451073
0.2529261 0.2529261 0.2529261
0.2631820 0.2631820 0.2631820
0.2736024 0.2736024 0.2736024
0.2840402 0.2840402 0.2840402
0.2945203 0.2945203 0.2945203
0.3051152 0.3051152 0.3051152
0.3161189 0.3161189 0.3161189
0.3284001 0.3284001 0.3284001
0.3436275 0.3436275 0.3436275
0.3644324 0.3644324 0.3644324
0.3937655 0.3937655 0.3937655
0.4336394 0.4336394 0.4336394
0.4867797 0.4867797 0.4867797
0.5553742 0.5553742 0.5553742
0.6264339 0.6264339 0.6264339
0.6828944 0.6828944 0.6828944
0.7249887 0.7249887 0.7249887
0.7490479 0.7490479 0.7490479
0.7636297 0.7636297 0.7636297
0.7788129 0.7788129 0.7788129
0.7887486 0.7887486 0.7887486
0.8007833 0.8007833 0.8007833
0.8031602 0.8031602 0.8031602
0.8228695 0.8228695 0.8228695
0.8707895 0.8707895 0.8707895
0.8886229 0.8886229 0.8886229
0.8570068 0.8570068 0.8570068
0.7930608 0.7930608 0.7930608
0.7198288 0.7198288 0.7198288
0.6536494 0.6536494 0.6536494
0.6101056 0.6101056 0.6101056
0.5917739 0.5917739 0.5917739
0.2555239 0.2555239 0.2555239
0.2633425 0.2633425 0.2633425
0.2735975 0.2735975 0.2735975
0.2840136 0.2840136 0.2840136
0.2944352 0.2944352 0.2944352
0.3048680 0.3048680 0.3048680
