looks/recipe_pacific_blues.cube
TITLE "Fuji recipe Pacific Blues (16 RAFs)"
LUT_3D_SIZE 9
0.0244586 0.0305062 0.0253606
0.1052253 0.0237197 0.0088299
0.1596842 0.0211414 0.0025610
0.3553445 0.0585540 0.0021472
0.4838236 0.0771647 0.0022814
0.6073974 0.1007861 0.0024058
0.7230629 0.0587047 0.0052809
0.8703010 0.0124215 0.0080500
0.9916268 0.0083410 0.0082837
0.0117940 0.0961470 0.0139123
0.0878998 0.1141725 0.0355687
0.2267428 0.1055051 0.0103219
0.3662752 0.1244082 0.0035048
0.5002546 0.1430257 0.0034621
0.6144631 0.1339022 0.0037397
0.7276428 0.1349237 0.0047740
0.8596233 0.1284362 0.0074892
0.9901434 0.1252310 0.0082473
0.0147184 0.2239881 0.0185554
0.0626771 0.1865122 0.0332278
0.1874060 0.2183425 0.0549976
0.3758127 0.1974428 0.0161535
0.5933035 0.2269620 0.0052438
0.6736488 0.2348526 0.0065980
0.7653138 0.2599856 0.0088494
0.8674747 0.2426369 0.0079089
0.9898213 0.2490551 0.0082922
0.0095993 0.3722282 0.0101732
0.1223116 0.3565581 0.0403485
0.1520551 0.3673847 0.0893376
0.3718589 0.4137934 0.0763718
0.4951769 0.3170895 0.0256538
0.6636581 0.3234222 0.0121004
0.8046708 0.3442274 0.0112158
0.8730448 0.3724523 0.0088193
0.9914810 0.3747716 0.0083228
0.0083706 0.4999355 0.0083698
0.1258056 0.4956473 0.0142198
0.2315966 0.4926041 0.0653369
0.3888105 0.5533558 0.1120246
0.4915523 0.5125081 0.0514508
0.6237088 0.4677310 0.0130961
0.7650743 0.4812335 0.0148754
0.8730280 0.4921561 0.0159224
0.9909676 0.4997613 0.0089584
0.0082862 0.6249986 0.0082876
0.1251539 0.6248239 0.0085580
0.2462677 0.6157652 0.0216149
0.3437083 0.6005274 0.0766153
0.4766869 0.6199604 0.0550206
0.6221954 0.6251423 0.0170762
0.7524393 0.6200683 0.0097217
0.8745175 0.6212432 0.0103347
0.9910163 0.6243146 0.0090526
0.0082859 0.7500000 0.0082859
0.1250013 0.7499966 0.0082880
0.2501718 0.7495664 0.0086404
0.3750450 0.7453968 0.0127560
0.4990655 0.7466052 0.0123579
0.6249566 0.7494121 0.0095494
0.7499410 0.7498846 0.0084932
0.8748989 0.7498634 0.0084582
0.9916735 0.7499393 0.0083387
0.0082859 0.8750000 0.0082859
0.1250000 0.8750000 0.0082859
0.2500006 0.8749987 0.0082866
0.3750025 0.8749811 0.0082967
0.5000049 0.8749708 0.0083080
0.6250011 0.8749852 0.0083024
0.7499934 0.8749666 0.0083176
0.8749583 0.8749359 0.0083468
0.9917051 0.8749920 0.0082948
0.0082859 0.9917141 0.0082859
0.1250000 0.9917141 0.0082859
0.2500000 0.9917141 0.0082859
0.3750000 0.9917141 0.0082859
0.5000000 0.9917141 0.0082859
0.6250000 0.9917141 0.0082859
0.7499999 0.9917135 0.0082862
0.8749994 0.9917127 0.0082868
0.9917138 0.9917137 0.0082862
0.0239646 0.0657599 0.1150389
0.1358655 0.0678824 0.1079139
0.2549832 0.0850040 0.1214914
0.3525216 0.0457421 0.0644556
0.4808347 0.0553037 0.0600418
0.6231529 0.0730235 0.0602156
0.7293159 0.0585608 0.0792743
0.8671291 0.0170675 0.1173348
0.9911500 0.0087345 0.1246340
0.0171446 0.1193566 0.1498075
0.1374831 0.1662138 0.1601731
0.2709624 0.1666853 0.1325183
0.3341188 0.1132547 0.0563614
0.4670149 0.1125626 0.0231528
0.6301242 0.1350906 0.0153389
0.7361820 0.1462514 0.0153642
0.8293990 0.1396214 0.0606111
0.9750339 0.1278012 0.1139257
0.0120219 0.2239151 0.1550125
0.0935722 0.2285980 0.1526349
0.2395809 0.2801284 0.1765001
0.4280854 0.2279663 0.0791108
0.5705293 0.2165499 0.0407927
0.6823961 0.2111439 0.0237216
0.7520264 0.2110367 0.0358716
0.8319955 0.1909384 0.0478760
0.9563709 0.2313675 0.1015010
0.0090440 0.3698991 0.1292461
0.1151287 0.3495903 0.1423945
0.1819447 0.3731932 0.1696376
0.3913200 0.3923496 0.1483802
0.6306539 0.3563195 0.0759266
0.7667219 0.3402202 0.0437634
0.8092111 0.3218902 0.0403369
0.8575061 0.3364506 0.0929203
0.9836236 0.3648058 0.1219446
0.0080804 0.4988492 0.1275688
0.1012890 0.4857368 0.1590689
0.2255823 0.5056029 0.1699810
0.3593983 0.5574706 0.1874503
0.5474207 0.5483925 0.1599165
0.6759733 0.4606777 0.1127096
0.8067997 0.4389167 0.0884322
0.8611925 0.4596128 0.1133319
0.9713289 0.4964716 0.1308647
0.0082768 0.6249054 0.1251157
0.1224777 0.6221666 0.1287850
0.2307894 0.6133005 0.1435842
0.3768410 0.6192273 0.1698991
0.5336318 0.6252337 0.1692719
0.6270632 0.6363068 0.1734738
0.7566261 0.5945768 0.1299280
0.8649046 0.5720715 0.1342626
0.9539862 0.5954255 0.1451942
0.0082858 0.7499993 0.1250006
0.1249771 0.7499607 0.1250420
0.2491914 0.7489592 0.1261451
0.3671725 0.7408959 0.1359858
0.5146672 0.7304398 0.1402193
0.6274340 0.7350038 0.1436517
0.7413947 0.7323874 0.1419443
0.8552946 0.7336408 0.1400368
0.9855660 0.7428316 0.1296980
0.0082859 0.8750000 0.1250000
0.1250000 0.8749999 0.1250001
0.2499973 0.8749935 0.1250053
0.3748258 0.8747721 0.1252195
0.4999100 0.8743955 0.1253996
0.6250849 0.8743857 0.1253395
0.7488629 0.8692581 0.1277462
0.8676184 0.8636574 0.1305846
0.9880266 0.8717444 0.1271572
0.0082859 0.9917141 0.1250000
0.1250000 0.9917141 0.1250000
0.2500000 0.9917141 0.1250000
0.3749999 0.9917138 0.1250002
0.4999994 0.9917131 0.1250008
0.6250003 0.9917107 0.1250013
0.7499882 0.9916161 0.1250326
0.8748215 0.9913058 0.1251767
0.9915874 0.9915468 0.1250741
0.0433165 0.0781620 0.2549283
0.1331198 0.0692876 0.2398022
0.2512397 0.0397252 0.2298727
0.3838626 0.0357515 0.2322758
0.5158154 0.0370862 0.2379584
0.6265230 0.0174625 0.2378278
0.7511938 0.0162174 0.2363667
0.8734215 0.0108578 0.2454741
0.9914759 0.0084849 0.2496845
0.0210593 0.1450345 0.2484225
0.1363627 0.1642929 0.2454322
0.2761618 0.1731096 0.2311308
0.4004297 0.1552270 0.1881639
0.5436633 0.1462500 0.1559953
0.6433028 0.1365854 0.1305033
0.7772712 0.1307144 0.0964693
0.8545175 0.1333420 0.1755591
0.9785627 0.1276662 0.2315073
0.0181126 0.2309166 0.2910926
0.0889548 0.2638698 0.2898351
0.3158803 0.3430838 0.3406155
0.4560397 0.3242233 0.2900390
0.5530207 0.2543418 0.1864509
0.7276966 0.2357957 0.1420144
0.8065875 0.2152188 0.1061092
0.8442849 0.1909879 0.0775824
0.9263350 0.2286271 0.1624980
0.0099034 0.3682969 0.2602465
0.0819332 0.3643124 0.2972022
0.1673621 0.3941593 0.3000118
0.4629474 0.4709560 0.3425309
0.6336731 0.4102804 0.2389612
0.7475226 0.3732501 0.1736189
0.8006330 0.3427920 0.1614975
0.8703591 0.3048207 0.1644212
0.9325604 0.3026034 0.1820210
0.0077812 0.4972624 0.2524188
0.0503836 0.4702050 0.3049086
0.0328026 0.4826864 0.3338485
0.3261895 0.5425234 0.3136380
0.5788339 0.5614896 0.2881309
0.7036089 0.5044361 0.2349738
0.8192179 0.4815522 0.2023344
0.8469535 0.4818950 0.2098147
0.9487667 0.4944238 0.2406259
0.0082339 0.6245292 0.2503480
0.1108576 0.6108050 0.2636264
0.1301970 0.5809772 0.3065043
0.1368185 0.5972387 0.3316194
0.5224080 0.6365847 0.2885264
0.6462831 0.6254752 0.2781192
0.7408780 0.5801682 0.2570956
0.8427076 0.5337720 0.2259934
0.8681216 0.5423217 0.2412302
0.0082855 0.7499954 0.2500024
0.1248222 0.7496945 0.2501794
0.2423649 0.7440671 0.2539072
0.3352672 0.7264481 0.2712575
0.4003062 0.6974792 0.3097950
0.6436721 0.7055568 0.2884194
0.6947783 0.6453795 0.2667339
0.7539906 0.6498867 0.2606198
0.9020404 0.6534853 0.2663214
0.0082859 0.8750000 0.2500000
0.1249998 0.8749994 0.2500002
0.2499795 0.8749688 0.2500136
0.3741689 0.8736201 0.2508187
0.4933195 0.8672435 0.2561145
0.6167846 0.8654984 0.2576179
0.7388265 0.8340772 0.2589365
0.8027819 0.7643431 0.2675073
0.9404706 0.8296349 0.2578924
0.0082859 0.9917141 0.2500000
0.1250000 0.9917141 0.2500000
0.2500000 0.9917141 0.2500000
0.3749989 0.9917098 0.2500021
0.4999738 0.9916537 0.2500332
0.6249470 0.9915977 0.2500743
0.7498466 0.9906723 0.2501445
0.8725301 0.9860647 0.2506146
0.9898540 0.9891350 0.2504399
0.0098027 0.0236301 0.3643751
0.1330014 0.0340907 0.3664990
0.2463523 0.0346633 0.3684846
0.4058095 0.0424750 0.3619470
0.5446433 0.0558599 0.3309577
0.6414212 0.0322275 0.3573165
0.7513165 0.0122378 0.3711035
0.8748778 0.0087429 0.3743082
0.9917046 0.0082957 0.3749798
0.0179281 0.1738046 0.3562326
0.1406396 0.1905242 0.3793420
0.2631513 0.1960458 0.3697535
0.4993133 0.2137649 0.3508815
0.6448406 0.1819830 0.2774999
0.7244211 0.1734949 0.2782012
0.7937629 0.1572187 0.2802216
0.8725144 0.1300540 0.3577029
0.9902385 0.1257398 0.3717239
0.0177519 0.2670368 0.4044957
0.0969353 0.2733675 0.4196684
0.2929428 0.3203780 0.4244805
0.4716728 0.3403561 0.4114265
0.5939066 0.3072299 0.3404782
0.7029206 0.2749701 0.2829672
0.8321139 0.2534301 0.2515675
0.8824831 0.2570346 0.2872591
0.9617266 0.2515845 0.3114709
0.0135633 0.3581925 0.4084220
0.0833604 0.3830208 0.4601639
0.2443024 0.4379606 0.4760483
0.5002414 0.5105193 0.5071809
0.6249915 0.4604122 0.4230959
0.7233575 0.4062513 0.3424477
0.8135126 0.3827780 0.2998939
0.8816897 0.3464807 0.2746427
0.9216989 0.3382026 0.2869258
0.0087660 0.4981845 0.3799280
0.0876140 0.4880473 0.3930461
0.1323965 0.5001745 0.4418727
0.3516376 0.5616492 0.4871682
0.6142684 0.5830894 0.4588818
0.7107838 0.5362644 0.4012728
0.7853318 0.4881275 0.3269513
0.8269972 0.4652790 0.3286672
0.9345402 0.4741782 0.3579968
0.0082810 0.6248056 0.3750832
0.1155399 0.6171786 0.3783364
0.1970809 0.6057550 0.3863349
0.2953641 0.6209202 0.4277024
0.5296507 0.6442346 0.4324174
0.6782577 0.6260506 0.3929433
0.7546765 0.5643420 0.3401166
0.8174444 0.5749937 0.3573545
0.8337510 0.5827615 0.3732733
0.0082857 0.7499972 0.3750006
0.1248820 0.7498024 0.3750401
0.2480196 0.7484682 0.3751118
0.3550145 0.7341496 0.3852582
0.3775493 0.6857340 0.4231094
0.5145622 0.6748427 0.4415193
0.7151038 0.6683438 0.3993339
0.7590930 0.6431078 0.3720071
0.8290173 0.6145805 0.3699048
0.0082859 0.8750000 0.3750000
0.1249999 0.8749999 0.3750000
0.2499957 0.8749841 0.3750030
0.3743363 0.8733999 0.3754003
0.4905770 0.8537176 0.3829677
0.5866690 0.8130562 0.4060057
0.7052741 0.8110494 0.4062842
0.8072245 0.7757260 0.3745899
0.8813859 0.7309654 0.3873264
0.0082859 0.9917141 0.3750000
0.1250000 0.9917141 0.3750000
0.2500000 0.9917141 0.3750000
0.3749996 0.9917068 0.3750015
0.4999228 0.9912804 0.3751113
0.6240966 0.9886185 0.3760817
0.7471365 0.9839395 0.3786469
0.8707966 0.9777803 0.3769593
0.9492797 0.9144290 0.3850647
0.0083780 0.0111423 0.4992426
0.1256819 0.0122821 0.4982859
0.2503683 0.0131486 0.4976901
0.3791228 0.0144368 0.4959607
0.5048296 0.0134509 0.4933318
0.6285161 0.0129493 0.4937717
0.7509084 0.0105239 0.4977448
0.8750000 0.0084833 0.4998623
0.9917126 0.0082912 0.4999985
0.0138552 0.1737832 0.4954596
0.1291669 0.1702322 0.4878919
0.2544872 0.1656473 0.4727638
0.4196623 0.1854394 0.4833311
0.5531644 0.1685424 0.4503400
0.6800962 0.1600068 0.4320703
0.7877781 0.1661776 0.4453680
0.8775946 0.1412691 0.4921465
0.9914573 0.1255665 0.4997299
0.0214766 0.3001034 0.5377164
0.1275560 0.2964252 0.5247629
0.2852915 0.3229240 0.5209060
0.5042168 0.3618927 0.5298830
0.6411123 0.3370374 0.4707927
0.7795556 0.3195236 0.4272090
0.8703996 0.3084861 0.4074154
0.8908419 0.2890352 0.4497723
0.9870401 0.2545722 0.4897372
0.0153707 0.3933980 0.5653595
0.0783727 0.4316293 0.6050882
0.2326443 0.4365171 0.5886942
0.4648038 0.4788324 0.5754444
0.6489526 0.4998948 0.5555410
0.7216983 0.4504684 0.4844230
0.8217011 0.4087721 0.4317932
0.8669019 0.3863225 0.4181092
0.9412155 0.3750501 0.4216281
0.0115725 0.4953116 0.5338371
0.0799715 0.4981434 0.5711034
0.2728729 0.5376421 0.5983380
0.4007778 0.5630699 0.6009427
0.6284407 0.6077042 0.5981621
0.6797869 0.5531666 0.5169237
0.7614084 0.5095914 0.4548599
0.8210271 0.4622898 0.4064282
0.8828118 0.4689363 0.4197169
0.0084565 0.6244022 0.5009171
0.1228333 0.6198501 0.5066003
0.2495731 0.6151355 0.5381444
0.3638119 0.6217772 0.5718173
0.4885226 0.6275609 0.5607567
0.6783064 0.6377712 0.5396556
0.7275038 0.6092357 0.5185688
0.7767553 0.5656277 0.4454671
0.8202352 0.5571917 0.4318479
0.0082865 0.7499972 0.5000023
0.1251872 0.7499317 0.5000636
0.2559320 0.7481018 0.5016598
0.3755976 0.7408863 0.5096949
0.4713122 0.7052037 0.5116517
0.5621679 0.6743390 0.5321388
0.6976546 0.6657100 0.5162802
0.7471077 0.6179909 0.4468361
0.8090211 0.6316770 0.4664090
0.0082859 0.8750000 0.5000000
0.1250024 0.8749989 0.5000005
0.2500637 0.8749635 0.5000172
0.3750651 0.8745512 0.5000101
0.4971102 0.8619120 0.5006225
0.6001506 0.8023044 0.5074490
0.6613236 0.7220271 0.5235836
0.7767427 0.7559755 0.5054581
0.8106371 0.6626635 0.4608706
0.0082859 0.9917141 0.5000000
0.1250000 0.9917141 0.5000000
0.2500001 0.9917141 0.5000000
0.3750005 0.9917108 0.4999999
0.4999969 0.9914523 0.4999956
0.6245515 0.9850662 0.5003313
0.7365368 0.9479519 0.5056529
0.8513591 0.9334128 0.4984449
0.8255496 0.7070032 0.4567326
0.0083074 0.0084834 0.6249269
0.1250042 0.0084823 0.6249133
0.2499802 0.0084114 0.6249261
0.3750457 0.0083893 0.6249409
0.5000545 0.0083730 0.6249063
0.6250687 0.0083759 0.6248832
0.7500829 0.0084599 0.6248498
0.8750026 0.0083129 0.6249815
0.9917138 0.0082868 0.6249994
0.0096336 0.1355199 0.6206678
0.1252987 0.1336714 0.6190372
0.2487197 0.1305458 0.6211461
0.3786175 0.1310829 0.6227747
0.5038589 0.1300710 0.6211153
0.6301705 0.1299240 0.6192381
0.7573179 0.1352038 0.6138468
0.8753160 0.1287722 0.6217456
0.9915913 0.1252560 0.6248344
0.0132443 0.3155915 0.6156876
0.1250162 0.2997151 0.6169077
0.2760738 0.3100455 0.6186855
0.4178392 0.3155177 0.6151848
0.5656224 0.3122440 0.6052970
0.6683123 0.2941877 0.5897589
0.8060879 0.3128726 0.5465928
0.8720596 0.3068717 0.5634625
0.9870654 0.2554137 0.6198815
0.0194249 0.4422602 0.6791016
0.1211376 0.4500743 0.6830781
0.2941700 0.4580665 0.6618145
0.4528606 0.4700649 0.6453990
0.6269304 0.4833906 0.6256469
0.7139286 0.4758484 0.5653740
0.7943602 0.4562126 0.5349476
0.8476593 0.4308293 0.5204558
0.9388678 0.4132998 0.5945837
0.0181961 0.5055236 0.6895233
0.0844216 0.5242095 0.7073227
0.2648207 0.5658509 0.6912146
0.4220718 0.5605977 0.6659701
0.5963342 0.5851021 0.6502933
0.7003605 0.5656761 0.6017416
0.7623582 0.5383351 0.5575335
0.8135529 0.5051998 0.5281247
0.8989154 0.5119181 0.5644634
0.0100239 0.6200289 0.6334267
0.1226446 0.6149192 0.6447797
0.3905935 0.6160558 0.6381159
0.4401121 0.6257209 0.6655417
0.5380120 0.6313474 0.6509213
0.6879292 0.6604881 0.6438922
0.7141023 0.6111952 0.5774484
0.7701631 0.5703765 0.5239884
0.8166619 0.5566043 0.5031376
0.0083134 0.7499189 0.6250696
0.1271375 0.7492963 0.6251166
0.3210125 0.7295868 0.6240935
0.4735231 0.7144723 0.6276432
0.5193990 0.7025771 0.6450949
0.5899131 0.6790841 0.6045126
0.7076840 0.6730964 0.6035649
0.7373313 0.6521626 0.5825236
0.7781220 0.6239535 0.5326525
0.0082859 0.8749999 0.6250000
0.1250498 0.8749786 0.6249999
0.2529380 0.8734069 0.6250044
0.3800792 0.8711309 0.6250700
0.5066246 0.8520996 0.6293988
0.6154310 0.7784732 0.6254187
0.6784163 0.7309847 0.5986697
0.7370247 0.7168164 0.5918455
0.7942612 0.6772414 0.5462571
0.0082859 0.9917141 0.6250000
0.1250001 0.9917141 0.6250000
0.2500070 0.9917083 0.6250000
0.3750149 0.9916926 0.6250017
0.5002162 0.9908922 0.6250572
0.6250547 0.9816303 0.6248140
0.7369166 0.9326095 0.6154010
0.8082311 0.8707294 0.6108112
0.8008652 0.6930276 0.5228051
0.0082860 0.0082885 0.7499989
0.1250000 0.0082870 0.7499990
0.2499999 0.0082865 0.7499995
0.3750001 0.0082862 0.7499998
0.5000001 0.0082861 0.7499998
0.6250004 0.0082863 0.7499995
0.7500005 0.0082871 0.7499987
0.8750000 0.0082863 0.7499997
0.9917141 0.0082859 0.7500000
0.0083048 0.1257402 0.7495660
0.1249860 0.1252511 0.7498598
0.2500725 0.1252132 0.7499056
0.3750345 0.1251817 0.7499148
0.5000590 0.1250928 0.7499455
0.6250482 0.1250682 0.7499322
0.7501218 0.1252568 0.7497085
0.8749932 0.1252248 0.7497666
0.9917051 0.1250186 0.7499807
0.0110277 0.2665495 0.7422833
0.1234267 0.2604726 0.7459374
0.2526771 0.2609920 0.7460554
0.3769886 0.2545338 0.7471281
0.5038130 0.2551854 0.7473221
0.6275899 0.2552033 0.7458653
0.7532775 0.2597196 0.7396647
0.8736908 0.2585678 0.7379563
0.9906487 0.2514981 0.7486039
0.0164283 0.4411654 0.7480988
0.1270999 0.4366926 0.7472399
0.2590284 0.4123727 0.7388707
0.3962626 0.4132078 0.7313595
0.5208861 0.4062127 0.7341956
0.6607746 0.4207265 0.7034573
0.7679288 0.4484296 0.6649061
0.8468409 0.4414281 0.6580301
0.9517638 0.4099161 0.7097946
0.0263362 0.5456057 0.7768650
0.1180857 0.5580594 0.7717085
0.2875647 0.5633448 0.7440342
0.4176431 0.5380795 0.7094142
0.5430698 0.5530699 0.7011386
0.6848659 0.5699983 0.6760117
0.7605025 0.5581367 0.6340927
0.8080739 0.5464379 0.6045945
0.8783252 0.5313197 0.6471941
0.0244359 0.6139312 0.7574815
0.1348596 0.6093205 0.7611915
0.3135290 0.6270716 0.7473030
0.4255078 0.6312547 0.7211432
0.5530109 0.6372451 0.6958334
0.6670259 0.6498073 0.6832936
0.7274606 0.6269475 0.6414744
0.7781713 0.5914987 0.6038159
0.8363321 0.5982463 0.6282130
0.0087940 0.7493007 0.7501332
0.1276324 0.7470354 0.7503611
0.3435450 0.7230413 0.7251564
0.5103104 0.6809672 0.6952860
0.5020078 0.6829922 0.7071525
0.6302366 0.6844095 0.6907620
0.7213398 0.6977501 0.6771355
0.7448727 0.6564672 0.6221970
0.7762307 0.6335385 0.5905977
0.0082877 0.8749978 0.7500002
0.1251083 0.8749467 0.7499785
0.2570517 0.8711761 0.7480700
0.3852802 0.8643255 0.7459073
0.5073646 0.8382177 0.7375451
0.6175045 0.8025008 0.7175584
0.6814654 0.7331905 0.6603876
0.7324385 0.7051097 0.6489406
0.7532335 0.6798345 0.6144691
0.0082859 0.9917141 0.7500000
0.1250003 0.9917139 0.7499999
0.2500168 0.9917003 0.7499954
0.3750262 0.9916619 0.7499896
0.5001507 0.9908528 0.7497963
0.6250992 0.9865151 0.7480969
0.7383284 0.9497448 0.7319282
0.7755892 0.8155699 0.6772750
0.7916861 0.7036758 0.5832301
0.0082859 0.0082859 0.8750000
0.1250000 0.0082859 0.8750000
0.2500000 0.0082859 0.8750000
0.3750000 0.0082859 0.8750000
0.5000000 0.0082859 0.8750000
0.6250000 0.0082859 0.8750000
0.7500000 0.0082859 0.8750000
0.8750000 0.0082859 0.8750000
0.9917141 0.0082859 0.8750000
0.0082863 0.1250046 0.8749968
0.1249995 0.1250018 0.8749989
0.2500002 0.1250011 0.8749993
0.3750001 0.1250004 0.8749996
0.5000001 0.1250002 0.8749999
0.6250001 0.1250002 0.8749998
0.7500002 0.1250010 0.8749990
0.8749999 0.1250009 0.8749989
0.9917141 0.1250001 0.8749999
0.0083252 0.2502740 0.8747661
0.1249994 0.2502462 0.8748667
0.2500095 0.2501285 0.8749104
0.3750164 0.2500562 0.8749594
0.5000156 0.2500291 0.8749764
0.6250368 0.2500755 0.8749219
0.7500390 0.2502854 0.8746895
0.8749391 0.2502694 0.8746756
0.9916297 0.2501315 0.8748612
0.0094044 0.3841983 0.8702741
0.1240913 0.3833776 0.8706728
0.2505817 0.3789489 0.8725373
0.3761692 0.3775108 0.8719244
0.5004956 0.3758584 0.8742027
0.6261646 0.3771649 0.8722706
0.7510533 0.3806512 0.8657735
0.8720196 0.3824682 0.8616491
0.9846516 0.3815915 0.8640747
0.0407570 0.5251164 0.8463702
0.1393938 0.5437420 0.8279812
0.2471290 0.5234185 0.8512101
0.3810057 0.5134107 0.8588125
0.5084265 0.5124791 0.8543468
0.6347535 0.5131686 0.8486499
0.7521309 0.5170079 0.8287141
0.8517943 0.5205336 0.7994517
0.9429058 0.5185049 0.8064209
0.0469217 0.6134823 0.8472075
0.1917149 0.6141974 0.8024316
0.2892027 0.6264366 0.7985546
0.4225609 0.6411982 0.7834905
0.5344113 0.6349609 0.7778372
0.6354693 0.6418135 0.7941615
0.7395955 0.6316594 0.7853907
0.8147958 0.6185079 0.7284959
0.8667970 0.6185066 0.7299078
0.0129773 0.7469094 0.8728612
0.1413492 0.7328666 0.8617202
0.2712767 0.7265918 0.8492350
0.4262931 0.7040907 0.8018427
0.5580909 0.6869536 0.7432352
0.6402581 0.6938670 0.7246655
0.7082592 0.6968971 0.7173023
0.7633738 0.6754124 0.6902928
0.7901117 0.6576120 0.6623231
0.0083110 0.8749698 0.8749889
0.1252432 0.8746560 0.8748485
0.2505155 0.8740835 0.8744491
0.3798523 0.8681747 0.8699205
0.5173956 0.8418875 0.8464461
0.6436974 0.7882817 0.7900605
0.7081482 0.7366187 0.7263269
0.7463161 0.7310743 0.7060909
0.7637484 0.6929127 0.6586052
0.0082859 0.9917141 0.8750000
0.1250001 0.9917139 0.8749999
0.2500011 0.9917127 0.8749992
0.3750250 0.9916713 0.8749789
0.5002793 0.9909863 0.8746031
0.6271508 0.9762557 0.8656513
0.7278320 0.8974425 0.8017527
0.7448605 0.7503732 0.6944879
0.7615004 0.7281398 0.6778442
0.0082859 0.0082859 0.9917141
0.1250000 0.0082859 0.9917141
0.2500000 0.0082859 0.9917141
0.3750000 0.0082859 0.9917141
0.5000000 0.0082859 0.9917141
0.6250000 0.0082859 0.9917141
0.7500000 0.0082859 0.9917141
0.8750000 0.0082859 0.9917141
0.9917141 0.0082859 0.9917141
0.0082859 0.1250000 0.9917141
0.1250000 0.1250000 0.9917141
0.2500000 0.1250000 0.9917141
0.3750000 0.1250000 0.9917141
0.5000000 0.1250000 0.9917141
0.6250000 0.1250000 0.9917141
0.7500000 0.1250000 0.9917141
0.8750000 0.1250000 0.9917141
0.9917141 0.1250000 0.9917141
0.0082860 0.2500011 0.9917133
0.1249999 0.2500010 0.9917134
0.2500000 0.2500002 0.9917139
0.3750000 0.2500001 0.9917139
0.5000000 0.2500000 0.9917141
0.6250001 0.2500001 0.9917139
0.7500001 0.2500007 0.9917132
0.8749998 0.2500009 0.9917127
0.9917136 0.2500008 0.9917130
0.0083684 0.3751596 0.9915459
0.1251089 0.3753669 0.9913675
0.2499887 0.3751096 0.9916082
0.3750018 0.3750085 0.9917006
0.5000029 0.3750056 0.9917067
0.6250046 0.3750116 0.9916964
0.7500023 0.3750262 0.9916626
0.8749673 0.3750822 0.9915331
0.9916205 0.3750906 0.9915140
0.0128475 0.5027882 0.9855717
0.1355743 0.5133481 0.9666092
0.2520036 0.5061160 0.9801721
0.3750577 0.5009192 0.9900514
0.5001920 0.5004020 0.9907943
0.6250364 0.5001737 0.9913044
0.7500247 0.5002435 0.9907733
0.8743854 0.5005897 0.9889085
0.9901186 0.5006569 0.9886159
0.0218892 0.6243426 0.9778538
0.1685683 0.6231254 0.9114533
0.2957620 0.6292775 0.8756355
0.3777002 0.6269876 0.9661927
0.5030432 0.6280766 0.9716945
0.6277444 0.6295540 0.9746163
0.7489615 0.6266044 0.9831436
0.8678669 0.6257921 0.9688241
0.9701564 0.6259328 0.9572908
0.0105857 0.7485617 0.9893943
0.1468288 0.7347862 0.9629000
0.2692008 0.7267285 0.9434437
0.3858308 0.7417960 0.9668282
0.5304015 0.7306776 0.9095716
0.6964353 0.7420917 0.8089508
0.7426267 0.7425377 0.8711956
0.8409823 0.7290756 0.9052963
0.9102258 0.7174597 0.8694091
0.0083014 0.8749840 0.9917001
0.1252757 0.8746157 0.9913546
0.2502425 0.8743962 0.9911104
0.3759753 0.8736808 0.9899420
0.5092070 0.8605520 0.9695442
0.6733382 0.8122058 0.8664557
0.7355307 0.7608455 0.7668068
0.7653588 0.7569251 0.7724074
0.8111256 0.7403064 0.7530186
0.0082859 0.9917141 0.9917141
0.1250001 0.9917139 0.9917139
0.2500001 0.9917137 0.9917138
0.3750076 0.9917032 0.9917042
0.5002285 0.9913095 0.9913196
0.6309596 0.9764664 0.9756786
0.7419524 0.8930307 0.8876738
0.7511016 0.7726634 0.7589031
0.7591919 0.7456943 0.7153763
