looks/recipe_kodak_gold200.cube
TITLE "Fuji recipe Kodak Gold 200 (16 RAFs)"
LUT_3D_SIZE 9
0.0204641 0.0200845 0.0175156
0.1110435 0.0167720 0.0145624
0.1994818 0.0114384 0.0095441
0.4285176 0.0192411 0.0171809
0.5388830 0.0228463 0.0217070
0.6492627 0.0290883 0.0294362
0.7410690 0.0248963 0.0245071
0.8715954 0.0102443 0.0100591
0.9916424 0.0083296 0.0083213
0.0291618 0.0954127 0.0203901
0.1090429 0.1081609 0.0231924
0.2659390 0.0969346 0.0174284
0.4301590 0.1068348 0.0172193
0.5455931 0.1101976 0.0176402
0.6435825 0.0931948 0.0255419
0.7473093 0.1005235 0.0342299
0.8648579 0.1235415 0.0196348
0.9904754 0.1251611 0.0091320
0.0249287 0.2284999 0.0150074
0.1085750 0.1956434 0.0124209
0.2417555 0.2339814 0.0207308
0.4271940 0.2240731 0.0271688
0.6060160 0.2188522 0.0227738
0.7155702 0.2428182 0.0252601
0.7813714 0.2681153 0.0228453
0.8714640 0.2444447 0.0168508
0.9902918 0.2491985 0.0096030
0.0095321 0.3728470 0.0084751
0.1353147 0.3522514 0.0099126
0.2794425 0.3934719 0.0119644
0.4074064 0.4061701 0.0268933
0.5629111 0.3480117 0.0206240
0.6764452 0.3460161 0.0241838
0.8244520 0.3503341 0.0335586
0.8730481 0.3727562 0.0197534
0.9888936 0.3762533 0.0104554
0.0083108 0.4999775 0.0083392
0.1282954 0.4980169 0.0090066
0.2873368 0.4910553 0.0106410
0.4302814 0.5245193 0.0174596
0.5317513 0.5408075 0.0278277
0.6330584 0.4838836 0.0161602
0.7640556 0.4879139 0.0247085
0.8747325 0.4807493 0.0345813
0.9737320 0.4917456 0.0239553
0.0082865 0.6249962 0.0082902
0.1249826 0.6248863 0.0083975
0.2551584 0.6221852 0.0085265
0.3984132 0.5945534 0.0109081
0.5174510 0.5956111 0.0170204
0.6120206 0.6179272 0.0164886
0.7502797 0.6233216 0.0099378
0.8747898 0.6153391 0.0136441
0.9841361 0.6158944 0.0167128
0.0082859 0.7500000 0.0082859
0.1250003 0.7499989 0.0082867
0.2501598 0.7498228 0.0082943
0.3775373 0.7461729 0.0087690
0.5046411 0.7350750 0.0107025
0.6230425 0.7439512 0.0104642
0.7497772 0.7496389 0.0087028
0.8744241 0.7493730 0.0089695
0.9911658 0.7490352 0.0090235
0.0082859 0.8750000 0.0082859
0.1250000 0.8750000 0.0082859
0.2500003 0.8749996 0.0082860
0.3750138 0.8749765 0.0082880
0.5000393 0.8748499 0.0083164
0.6250002 0.8748782 0.0083482
0.7499742 0.8748455 0.0083920
0.8747826 0.8746299 0.0085373
0.9916835 0.8749623 0.0083117
0.0082859 0.9917141 0.0082859
0.1250000 0.9917141 0.0082859
0.2500000 0.9917141 0.0082859
0.3750000 0.9917141 0.0082859
0.5000000 0.9917141 0.0082859
0.6250000 0.9917139 0.0082860
0.7499996 0.9917110 0.0082874
0.8749969 0.9917066 0.0082894
0.9917136 0.9917135 0.0082862
0.0159743 0.0557863 0.1027553
0.1401820 0.0609565 0.1202527
0.2817280 0.0851860 0.1391747
0.3862882 0.0406408 0.0985320
0.5167158 0.0277196 0.0854225
0.6448752 0.0250327 0.0829384
0.7489557 0.0284613 0.1038323
0.8694701 0.0141154 0.1227356
0.9912820 0.0087590 0.1250131
0.0109042 0.1217817 0.1380640
0.1556531 0.1682366 0.1643788
0.3013317 0.1620702 0.1524523
0.4033474 0.1221074 0.1181368
0.5428162 0.1086423 0.1022405
0.6696233 0.1051636 0.0951085
0.7706684 0.1098356 0.0980249
0.8516920 0.1344340 0.1205790
0.9792858 0.1283571 0.1254507
0.0136627 0.2321688 0.1459508
0.1222373 0.2380034 0.1337631
0.2974823 0.2981865 0.1621136
0.4488028 0.2546262 0.1280769
0.5970809 0.2392606 0.1117707
0.7194004 0.2274835 0.1121996
0.7833108 0.2254057 0.1264306
0.8601244 0.2010551 0.1329274
0.9734049 0.2434327 0.1308555
0.0099209 0.3712588 0.1273986
0.1387953 0.3598924 0.1315002
0.2482688 0.3743815 0.1194839
0.4406100 0.4190678 0.1256644
0.6022821 0.3768136 0.1152708
0.7687418 0.3807076 0.1224476
0.8308572 0.3576329 0.0979815
0.8699940 0.3744320 0.1139286
0.9821856 0.3735576 0.1301618
0.0082897 0.4993343 0.1261137
0.0982047 0.4889007 0.1417911
0.1974583 0.4884070 0.1428543
0.4194832 0.5385116 0.1118265
0.5721842 0.5364922 0.1043585
0.6946003 0.4986981 0.1271193
0.8123781 0.4674674 0.1424413
0.8716526 0.4512447 0.1181067
0.9090039 0.4758875 0.1320893
0.0082966 0.6248741 0.1250681
0.1229492 0.6216648 0.1268065
0.2374213 0.6118439 0.1340135
0.3868777 0.6057385 0.1187450
0.5387846 0.6025398 0.0937245
0.6252065 0.6170043 0.1251367
0.7580586 0.6002560 0.1404940
0.8649436 0.5732929 0.1395460
0.9100050 0.5409114 0.1513605
0.0082859 0.7499992 0.1250004
0.1249736 0.7499111 0.1250530
0.2500835 0.7488932 0.1254864
0.3741841 0.7396011 0.1293866
0.5175614 0.7229360 0.1251167
0.6316252 0.7077509 0.1417911
0.7406743 0.7264382 0.1381199
0.8329672 0.7085891 0.1411937
0.9635676 0.7114276 0.1443887
0.0082859 0.8750000 0.1250000
0.1250000 0.8749999 0.1250000
0.2500030 0.8749925 0.1250018
0.3750099 0.8747597 0.1250989
0.5003508 0.8740405 0.1252581
0.6256457 0.8709455 0.1266159
0.7481951 0.8638962 0.1278297
0.8596248 0.8488142 0.1314389
0.9882108 0.8707990 0.1267770
0.0082859 0.9917141 0.1250000
0.1250000 0.9917141 0.1250000
0.2500000 0.9917141 0.1250000
0.3750000 0.9917138 0.1250001
0.5000003 0.9917126 0.1250004
0.6250018 0.9916993 0.1250040
0.7499756 0.9914894 0.1250394
0.8747680 0.9911383 0.1251157
0.9915890 0.9915160 0.1250743
0.0328635 0.0810992 0.2601022
0.1305574 0.0747382 0.2604576
0.2540160 0.0435498 0.2492089
0.4005659 0.0418654 0.2607417
0.5189103 0.0426133 0.2721464
0.6284952 0.0189886 0.2471488
0.7528947 0.0163457 0.2471248
0.8744202 0.0102556 0.2483302
0.9915355 0.0084892 0.2498607
0.0052850 0.1549473 0.2597246
0.1301276 0.1715673 0.2777597
0.2788140 0.1733893 0.2745394
0.4227403 0.1675868 0.2721553
0.5417147 0.1624767 0.2716547
0.6760321 0.1581995 0.2413195
0.7904997 0.1540680 0.2307417
0.8694180 0.1424579 0.2283200
0.9844725 0.1295635 0.2463724
0.0085857 0.2395241 0.2821421
0.0973279 0.2727274 0.2819353
0.3349255 0.3502705 0.3440007
0.4758599 0.3333167 0.3242915
0.5727950 0.2712925 0.2695253
0.7284032 0.2725312 0.2761481
0.8169585 0.2565435 0.2522765
0.8700323 0.2419127 0.2231488
0.9433761 0.2603254 0.2408843
0.0086513 0.3676586 0.2652283
0.0943080 0.3754820 0.2700456
0.2132145 0.4043004 0.2742369
0.4619608 0.4544331 0.3186001
0.6028262 0.4236962 0.2988048
0.7401100 0.4024620 0.2662978
0.8135561 0.3818683 0.2624012
0.8810249 0.3497697 0.2680901
0.9495409 0.3511111 0.2767466
0.0080274 0.4972650 0.2506875
0.0456642 0.4686111 0.2564161
0.1039722 0.5007781 0.2393371
0.3532860 0.5256112 0.2570617
0.5895920 0.5582880 0.2765513
0.7147014 0.5152454 0.2766670
0.8015825 0.4937668 0.2578833
0.8520067 0.4887439 0.2409108
0.9141195 0.5063524 0.2527990
0.0082662 0.6243557 0.2500599
0.1126051 0.6120044 0.2501552
0.1627718 0.5839652 0.2487861
0.2896850 0.6038297 0.2274881
0.5244036 0.6209615 0.2524029
0.6507044 0.6163796 0.2538578
0.7437397 0.5750400 0.2667081
0.8342676 0.5456278 0.2564020
0.8632450 0.5354881 0.2491331
0.0082861 0.7499954 0.2500000
0.1248379 0.7494736 0.2500095
0.2479489 0.7463612 0.2496085
0.3749534 0.7251030 0.2462773
0.4589478 0.6895782 0.2553556
0.6448126 0.6642063 0.2488825
0.6945706 0.6248271 0.2394196
0.7515057 0.6268039 0.2282755
0.8689496 0.6062399 0.2642225
0.0082859 0.8750000 0.2500000
0.1249999 0.8749992 0.2500000
0.2500083 0.8749803 0.2499985
0.3751978 0.8735101 0.2500448
0.4978620 0.8672992 0.2513926
0.6239456 0.8614958 0.2515981
0.7410614 0.8227673 0.2471162
0.8070756 0.7528652 0.2448759
0.9277683 0.7829688 0.2703808
0.0082859 0.9917141 0.2500000
0.1250000 0.9917141 0.2500000
0.2500000 0.9917141 0.2500000
0.3750006 0.9917095 0.2500004
0.4999978 0.9916744 0.2500096
0.6249756 0.9915972 0.2500338
0.7498828 0.9905162 0.2499600
0.8726988 0.9847318 0.2505489
0.9803768 0.9688352 0.2567051
0.0080688 0.0199159 0.3694572
0.1323283 0.0276393 0.3731830
0.2509264 0.0325875 0.3765277
0.4012251 0.0385512 0.3796277
0.5237537 0.0426763 0.3778833
0.6310617 0.0262708 0.3785985
0.7504517 0.0111099 0.3749124
0.8749551 0.0084639 0.3749436
0.9917074 0.0082961 0.3749909
0.0067014 0.1998478 0.3810648
0.1227311 0.1996414 0.4110849
0.2688753 0.1961835 0.4043432
0.4685625 0.2162270 0.4326189
0.6081305 0.1944413 0.4101112
0.6940863 0.1934396 0.4113713
0.7693819 0.1631931 0.3750840
0.8744358 0.1306313 0.3735538
0.9909225 0.1262652 0.3741837
0.0053343 0.2884373 0.4019758
0.0677552 0.2949871 0.4233710
0.2749789 0.3175396 0.4431238
0.4519672 0.3282959 0.4535880
0.5840206 0.3114748 0.4260358
0.6939308 0.2990970 0.4064816
0.8025295 0.2894199 0.3947465
0.8808637 0.2840264 0.3629007
0.9704347 0.2695860 0.3658023
0.0071692 0.3702019 0.4123121
0.0706327 0.3916122 0.4233799
0.2484324 0.4268645 0.4366561
0.4858607 0.5022532 0.4941530
0.5982801 0.4590196 0.4502307
0.6986169 0.4166040 0.4080432
0.7985789 0.4073562 0.3966839
0.8705132 0.3805619 0.3840274
0.9163240 0.3796108 0.3805700
0.0081713 0.4973764 0.3809205
0.0970378 0.4896683 0.3671021
0.1741290 0.4917264 0.3837409
0.3806386 0.5522176 0.4289447
0.5911622 0.5754369 0.4595671
0.6767262 0.5392504 0.4374484
0.7599388 0.4992895 0.3844659
0.8292597 0.4857104 0.3725044
0.9278027 0.5005830 0.3743009
0.0082798 0.6247533 0.3749273
0.1204390 0.6205445 0.3708490
0.2182563 0.6104967 0.3556807
0.3672889 0.6173215 0.3790900
0.4817787 0.6187305 0.3928985
0.6519715 0.6254989 0.4056241
0.7113762 0.5569106 0.3621529
0.8089882 0.5658762 0.3779772
0.8421213 0.5758322 0.3815525
0.0082859 0.7499984 0.3749993
0.1249382 0.7498128 0.3748958
0.2493289 0.7488722 0.3744891
0.3786608 0.7357004 0.3675991
0.4683985 0.6761236 0.3613414
0.5587003 0.6627386 0.3753567
0.7016765 0.6573763 0.3811561
0.7622051 0.6368224 0.3617897
0.8328734 0.6088478 0.3698308
0.0082859 0.8750000 0.3750000
0.1249999 0.8749997 0.3749999
0.2500055 0.8749899 0.3749962
0.3752821 0.8736951 0.3745754
0.4993351 0.8561733 0.3729171
0.6057688 0.8156193 0.3795706
0.7152117 0.8053600 0.3896847
0.8298033 0.7926130 0.3617035
0.8325092 0.6456990 0.3669227
0.0082859 0.9917141 0.3750000
0.1250000 0.9917141 0.3750000
0.2500000 0.9917141 0.3750000
0.3750014 0.9917083 0.3749992
0.5000147 0.9914901 0.3749979
0.6247355 0.9893486 0.3752987
0.7473552 0.9847619 0.3765388
0.8656754 0.9492766 0.3757598
0.8604919 0.7391220 0.3795132
0.0082642 0.0102170 0.4997796
0.1251327 0.0103450 0.4995115
0.2502022 0.0105670 0.4991516
0.3763357 0.0108979 0.4994814
0.5015764 0.0106543 0.4991724
0.6263649 0.0112985 0.4995970
0.7503920 0.0102372 0.5000023
0.8749936 0.0084803 0.5000162
0.9917136 0.0082873 0.5000002
0.0077995 0.1761385 0.5002016
0.1122692 0.1669272 0.4981047
0.2480702 0.1563379 0.4944991
0.3934907 0.1648887 0.5041248
0.5253475 0.1699902 0.5025907
0.6660261 0.1784472 0.5017780
0.7745214 0.1746868 0.5048729
0.8746049 0.1362855 0.5021030
0.9915756 0.1252699 0.5000362
0.0055136 0.3323938 0.5254683
0.0749869 0.3034037 0.5178427
0.2531816 0.3354837 0.5431795
0.4213906 0.3422022 0.5529273
0.5737237 0.3328049 0.5388088
0.7274933 0.3291801 0.5322696
0.8377157 0.3435990 0.5417354
0.8694974 0.3037342 0.5240274
0.9879164 0.2543951 0.4965676
0.0061733 0.4366423 0.5617594
0.0404434 0.4434045 0.5574836
0.1905980 0.4399226 0.5488788
0.4197059 0.4629602 0.5658502
0.5932822 0.4697402 0.5816862
0.6957756 0.4551799 0.5466897
0.7999669 0.4319860 0.5342098
0.8579592 0.4010623 0.4849402
0.9599316 0.3837602 0.4771386
0.0077836 0.4991884 0.5283968
0.0735046 0.5038895 0.5338607
0.1947106 0.5351421 0.5555744
0.3833555 0.5651722 0.5673141
0.5884485 0.5952328 0.5829439
0.6531322 0.5462933 0.5272837
0.7401434 0.5124505 0.4963570
0.8049651 0.4748036 0.4596672
0.9252126 0.4882173 0.4765517
0.0082646 0.6240939 0.5012366
0.1227107 0.6206055 0.5072418
0.2412546 0.6161847 0.5292672
0.3387263 0.6185889 0.5322135
0.4954621 0.6130746 0.5174497
0.6318761 0.6172831 0.5274201
0.7038531 0.6020414 0.5216546
0.7595433 0.5573711 0.4622743
0.8093769 0.5419987 0.4315275
0.0082862 0.7499937 0.5000051
0.1250571 0.7498528 0.5000942
0.2548426 0.7476643 0.5014306
0.3780218 0.7411648 0.5017288
0.5010971 0.6992754 0.4810777
0.5768260 0.6612736 0.4730488
0.6830652 0.6557548 0.4920277
0.7431255 0.6071354 0.4507201
0.8183960 0.6152531 0.4604849
0.0082859 0.8750000 0.5000000
0.1250024 0.8749987 0.5000005
0.2501419 0.8749030 0.5000385
0.3752545 0.8745720 0.4999663
0.5007085 0.8638332 0.4970088
0.6139464 0.8064362 0.4846941
0.6679353 0.7179359 0.4799809
0.7972533 0.7751057 0.4792757
0.8189163 0.6578683 0.4562798
0.0082859 0.9917141 0.5000000
0.1250000 0.9917141 0.5000000
0.2500003 0.9917138 0.5000001
0.3750009 0.9917118 0.5000001
0.5000300 0.9915214 0.4999712
0.6248541 0.9876531 0.4995264
0.7407438 0.9617032 0.4987907
0.8572000 0.9345717 0.4907283
0.8140827 0.6776812 0.4405412
0.0082855 0.0083709 0.6249697
0.1249861 0.0083620 0.6249673
0.2499861 0.0083342 0.6249799
0.3750107 0.0083357 0.6249909
0.5000246 0.0083634 0.6249779
0.6250420 0.0083811 0.6249622
0.7500248 0.0083700 0.6249716
0.8749996 0.0083036 0.6249958
0.9917140 0.0082863 0.6249999
0.0081791 0.1329970 0.6225922
0.1235878 0.1293094 0.6224495
0.2493864 0.1296470 0.6239179
0.3755809 0.1299365 0.6242275
0.5011877 0.1284328 0.6236379
0.6278816 0.1289188 0.6232897
0.7525874 0.1305762 0.6232387
0.8748283 0.1280589 0.6243719
0.9916593 0.1251048 0.6249799
0.0065876 0.3174627 0.6005904
0.0950980 0.2938527 0.6119522
0.2413865 0.2981662 0.6226552
0.3846471 0.2875417 0.6225402
0.5226988 0.2857437 0.6237541
0.6516232 0.2906026 0.6158778
0.7758394 0.3065394 0.6122214
0.8693426 0.2834621 0.6158586
0.9900849 0.2518878 0.6246210
0.0063888 0.4516141 0.6176875
0.0559037 0.4436222 0.6260440
0.2157253 0.4477748 0.6334003
0.3923217 0.4630921 0.6427879
0.5397552 0.4655004 0.6415106
0.6942300 0.4697889 0.6167168
0.7755556 0.4634431 0.6119002
0.8350793 0.4358709 0.6020941
0.9538607 0.4001246 0.6173275
0.0072251 0.5221063 0.6437068
0.0288998 0.5396286 0.6430697
0.1853480 0.5746760 0.6425356
0.3726461 0.5716144 0.6521179
0.5427923 0.5700364 0.6447732
0.6556630 0.5565161 0.6286241
0.7375721 0.5279751 0.5945882
0.8055442 0.5157387 0.5865189
0.9166895 0.5134839 0.6062308
0.0081178 0.6194484 0.6305730
0.1015229 0.6135671 0.6323445
0.3464764 0.6170565 0.6199387
0.3868922 0.6296424 0.6425755
0.4954329 0.6297886 0.6270368
0.6459117 0.6493943 0.6297379
0.6890819 0.5995798 0.5770670
0.7603697 0.5682312 0.5453571
0.8449463 0.5781999 0.5518114
0.0082872 0.7498527 0.6250675
0.1256036 0.7493544 0.6251456
0.3159385 0.7259827 0.6214409
0.4741285 0.6934115 0.6185340
0.4793249 0.6884356 0.6049194
0.5741857 0.6633320 0.5642278
0.6708944 0.6550041 0.5763933
0.7187856 0.6333238 0.5559888
0.7699568 0.6032884 0.5185798
0.0082859 0.8749999 0.6250001
0.1250714 0.8749623 0.6249965
0.2543309 0.8719825 0.6247208
0.3813972 0.8674287 0.6243305
0.4995039 0.8409284 0.6179898
0.5970236 0.7790142 0.5895530
0.6754537 0.7232934 0.5546732
0.7164214 0.7028685 0.5586392
0.7949548 0.6507935 0.5190657
0.0082859 0.9917141 0.6250000
0.1250002 0.9917140 0.6250000
0.2500103 0.9917035 0.6249993
0.3750174 0.9916767 0.6249970
0.5000110 0.9909428 0.6248901
0.6242659 0.9863120 0.6236248
0.7387850 0.9513032 0.6134027
0.8228492 0.8969035 0.5993109
0.8079025 0.6887299 0.5134230
0.0082859 0.0082867 0.7499996
0.1250000 0.0082861 0.7499998
0.2500000 0.0082861 0.7499999
0.3750000 0.0082861 0.7499999
0.5000001 0.0082861 0.7499999
0.6250001 0.0082861 0.7499999
0.7500001 0.0082861 0.7499999
0.8750000 0.0082860 0.7499999
0.9917141 0.0082859 0.7500000
0.0082822 0.1252723 0.7498210
0.1249705 0.1250797 0.7499492
0.2499910 0.1250718 0.7499709
0.3750018 0.1250311 0.7499831
0.5000085 0.1250225 0.7499897
0.6250272 0.1250417 0.7499748
0.7500232 0.1250876 0.7499517
0.8749949 0.1250525 0.7499693
0.9917131 0.1250019 0.7499989
0.0081993 0.2551960 0.7451053
0.1231889 0.2529893 0.7477462
0.2493154 0.2535420 0.7478910
0.3750025 0.2518852 0.7492476
0.5005983 0.2510679 0.7494557
0.6261849 0.2525505 0.7485477
0.7508333 0.2554204 0.7466290
0.8741187 0.2530932 0.7479332
0.9912784 0.2505906 0.7496694
0.0079911 0.4082954 0.7318649
0.1024280 0.4067807 0.7328507
0.2378379 0.3976523 0.7415411
0.3642643 0.4057922 0.7420784
0.5056216 0.3926787 0.7415438
0.6370282 0.4007298 0.7324640
0.7541891 0.4202653 0.7121041
0.8494453 0.4214193 0.7084978
0.9704648 0.3912731 0.7358189
0.0082631 0.5485595 0.7087231
0.0397191 0.5649596 0.7075608
0.1816577 0.5624949 0.7190109
0.3495063 0.5462593 0.7204403
0.5217357 0.5496922 0.7028373
0.6150248 0.5523057 0.7026920
0.7329816 0.5449587 0.6773178
0.7937050 0.5407881 0.6477066
0.9214473 0.5159183 0.7068635
0.0091283 0.6194577 0.7410312
0.0638191 0.6236098 0.7335746
0.2119284 0.6407156 0.7182809
0.3347211 0.6454608 0.6876836
0.4847739 0.6372539 0.6751066
0.6089567 0.6328703 0.6706541
0.6961532 0.6147854 0.6556703
0.7620574 0.5875803 0.6322290
0.8641498 0.6024544 0.6684482
0.0084315 0.7492180 0.7498516
0.1211164 0.7451956 0.7489677
0.3020277 0.7272480 0.7279021
0.3939839 0.6930094 0.6893855
0.4540421 0.6779872 0.6749677
0.5697403 0.6684397 0.6563048
0.6874416 0.6876462 0.6605732
0.7221888 0.6420839 0.6142291
0.7832388 0.6358972 0.6071479
0.0082863 0.8749969 0.7499998
0.1250431 0.8749335 0.7499797
0.2543211 0.8719810 0.7483244
0.3803794 0.8668676 0.7454344
0.4972114 0.8542330 0.7366149
0.6160839 0.8143041 0.7156057
0.6667134 0.7223807 0.6336862
0.7137160 0.6940309 0.6223995
0.7568136 0.6672717 0.5896671
0.0082859 0.9917141 0.7500000
0.1250002 0.9917140 0.7499999
0.2500103 0.9917035 0.7499960
0.3750139 0.9916785 0.7499861
0.5000100 0.9913471 0.7498353
0.6248120 0.9880285 0.7482194
0.7014998 0.9052400 0.6927442
0.7779818 0.8298686 0.6696356
0.7942132 0.6912432 0.5730864
0.0082859 0.0082859 0.8750000
0.1250000 0.0082859 0.8750000
0.2500000 0.0082859 0.8750000
0.3750000 0.0082859 0.8750000
0.5000000 0.0082859 0.8750000
0.6250000 0.0082859 0.8750000
0.7500000 0.0082859 0.8750000
0.8750000 0.0082859 0.8750000
0.9917141 0.0082859 0.8750000
0.0082859 0.1250006 0.8749994
0.1249999 0.1250001 0.8749999
0.2500000 0.1250001 0.8749999
0.3750000 0.1250000 0.8750000
0.5000000 0.1250000 0.8750000
0.6250001 0.1250001 0.8749999
0.7500000 0.1250002 0.8749998
0.8750000 0.1250001 0.8749999
0.9917141 0.1250000 0.8750000
0.0082857 0.2500225 0.8749764
0.1249912 0.2500217 0.8749834
0.2499958 0.2500153 0.8749884
0.3749955 0.2500188 0.8749898
0.5000011 0.2500048 0.8749966
0.6250100 0.2500227 0.8749794
0.7500038 0.2500764 0.8749301
0.8749770 0.2500777 0.8749269
0.9916955 0.2500261 0.8749765
0.0083599 0.3779722 0.8729236
0.1236184 0.3778235 0.8729802
0.2490499 0.3765343 0.8737442
0.3746359 0.3759243 0.8742020
0.5001748 0.3755555 0.8744439
0.6250832 0.3756398 0.8742748
0.7500647 0.3766893 0.8724558
0.8727829 0.3789838 0.8692538
0.9897512 0.3765918 0.8726183
0.0095614 0.5201206 0.8480491
0.0966410 0.5350755 0.8362285
0.2266840 0.5185952 0.8525499
0.3671930 0.5128288 0.8604775
0.5011830 0.5087919 0.8598521
0.6238475 0.5050761 0.8649219
0.7464900 0.5070996 0.8564404
0.8596409 0.5090794 0.8389500
0.9785524 0.5034940 0.8599322
0.0100220 0.6262432 0.8572986
0.0643097 0.6373644 0.7841719
0.1423189 0.6402526 0.7639716
0.3411030 0.6442226 0.7865999
0.4745808 0.6384516 0.7935303
0.6116148 0.6343270 0.8102856
0.7311090 0.6263066 0.8063228
0.8130177 0.6174225 0.7637301
0.9261217 0.6199392 0.8086728
0.0084419 0.7491198 0.8738102
0.1198722 0.7392071 0.8590301
0.2105321 0.7217591 0.8311768
0.3735665 0.7240429 0.8165746
0.4775197 0.6949549 0.7409783
0.5891016 0.6942745 0.7116477
0.6780497 0.6964461 0.7220685
0.7537031 0.6659489 0.6927852
0.8128080 0.6599585 0.6928508
0.0082870 0.8749949 0.8749967
0.1249542 0.8747139 0.8748049
0.2495265 0.8742085 0.8744450
0.3759348 0.8716876 0.8718359
0.5011407 0.8519658 0.8519184
0.6026908 0.7765246 0.7692105
0.6600483 0.7182368 0.6984711
0.7205544 0.7157399 0.6850098
0.7547565 0.6780764 0.6459708
0.0082859 0.9917141 0.8750000
0.1250000 0.9917139 0.8749999
0.2500000 0.9917135 0.8749997
0.3750043 0.9916986 0.8749905
0.5000777 0.9912236 0.8746824
0.6244560 0.9781460 0.8658305
0.7181728 0.8891655 0.7948536
0.5212110 0.5301890 0.4885469
0.7545603 0.7213311 0.6642442
0.0082859 0.0082859 0.9917141
0.1250000 0.0082859 0.9917141
0.2500000 0.0082859 0.9917141
0.3750000 0.0082859 0.9917141
0.5000000 0.0082859 0.9917141
0.6250000 0.0082859 0.9917141
0.7500000 0.0082859 0.9917141
0.8750000 0.0082859 0.9917141
0.9917141 0.0082859 0.9917141
0.0082859 0.1250000 0.9917141
0.1250000 0.1250000 0.9917141
0.2500000 0.1250000 0.9917141
0.3750000 0.1250000 0.9917141
0.5000000 0.1250000 0.9917141
0.6250000 0.1250000 0.9917141
0.7500000 0.1250000 0.9917141
0.8750000 0.1250000 0.9917141
0.9917141 0.1250000 0.9917141
0.0082859 0.2500001 0.9917140
0.1250000 0.2500001 0.9917140
0.2500000 0.2500000 0.9917141
0.3750000 0.2500000 0.9917141
0.5000000 0.2500000 0.9917141
0.6250000 0.2500000 0.9917141
0.7500000 0.2500001 0.9917140
0.8749999 0.2500002 0.9917138
0.9917141 0.2500001 0.9917140
0.0082872 0.3750427 0.9916642
0.1249713 0.3750684 0.9916425
0.2499832 0.3750237 0.9916896
0.3749984 0.3750041 0.9917098
0.5000003 0.3750030 0.9917099
0.6249999 0.3750017 0.9917116
0.7499999 0.3750049 0.9917044
0.8749868 0.3750235 0.9916655
0.9917027 0.3750094 0.9916938
0.0083463 0.5005622 0.9905871
0.1228983 0.5031044 0.9859466
0.2469722 0.5024341 0.9872023
0.3746563 0.5004361 0.9909062
0.4999365 0.5001515 0.9913936
0.6250132 0.5001177 0.9915015
0.7499663 0.5000609 0.9915103
0.8748107 0.5001358 0.9911090
0.9915510 0.5000561 0.9914576
0.0084633 0.6251881 0.9891410
0.1185971 0.6272722 0.9658902
0.2298350 0.6281801 0.9537037
0.3718410 0.6260902 0.9821869
0.5029938 0.6282665 0.9794319
0.6282749 0.6343141 0.9639539
0.7480466 0.6269485 0.9842672
0.8708804 0.6246282 0.9801251
0.9863425 0.6248241 0.9836870
0.0083046 0.7499232 0.9915163
0.1240579 0.7478942 0.9860280
0.2420754 0.7443640 0.9760976
0.3739768 0.7478586 0.9839640
0.5314920 0.7449932 0.9329414
0.6453567 0.7356634 0.8252451
0.7229694 0.7403089 0.8905106
0.8509428 0.7368625 0.9402536
0.9537919 0.7335722 0.9378154
0.0082862 0.8749992 0.9917131
0.1249909 0.8749428 0.9916441
0.2499011 0.8748434 0.9915192
0.3750914 0.8747254 0.9912844
0.5061158 0.8694463 0.9806809
0.6412911 0.8234391 0.8916283
0.7118888 0.7814032 0.8091298
0.7653983 0.7745540 0.8119956
0.7996272 0.7333349 0.7472023
0.0082859 0.9917141 0.9917141
0.1250000 0.9917141 0.9917141
0.2500000 0.9917140 0.9917141
0.3750007 0.9917127 0.9917127
0.5001420 0.9914843 0.9914666
0.6273001 0.9797727 0.9787833
0.7316343 0.9141949 0.9079193
0.7464517 0.7865415 0.7632148
0.7501611 0.7294054 0.6862281
