looks/recipe_ektar100.cube
TITLE "Fuji recipe Ektar 100 (16 RAFs)"
LUT_3D_SIZE 9
0.0155749 0.0151176 0.0130039
0.0876325 0.0101280 0.0083599
0.1703002 0.0053746 0.0052531
0.4070223 0.0083325 0.0104516
0.5244766 0.0112946 0.0156310
0.6239386 0.0134026 0.0201016
0.7360815 0.0146150 0.0177780
0.8710719 0.0089325 0.0091236
0.9916608 0.0083080 0.0083041
0.0257068 0.0875305 0.0126156
0.0939956 0.0953082 0.0160762
0.2326819 0.0823471 0.0095319
0.3862910 0.0885032 0.0084300
0.5009944 0.0923983 0.0094230
0.6289727 0.0773835 0.0166568
0.7395638 0.0822466 0.0207686
0.8670155 0.1195602 0.0130602
0.9905808 0.1248333 0.0088249
0.0229414 0.2262297 0.0114905
0.0960940 0.1797416 0.0088315
0.2259056 0.2209687 0.0138113
0.3900562 0.2111006 0.0175589
0.5571908 0.1908886 0.0118227
0.6767967 0.2071144 0.0132673
0.7664208 0.2514121 0.0137796
0.8713579 0.2508351 0.0113694
0.9901851 0.2486759 0.0090568
0.0094027 0.3723973 0.0084382
0.1282960 0.3458352 0.0080878
0.2471136 0.3553917 0.0064606
0.3766618 0.3766410 0.0160174
0.5192234 0.3110090 0.0119014
0.6535141 0.3189653 0.0133326
0.8112909 0.3199586 0.0184071
0.8726717 0.3587753 0.0150243
0.9892158 0.3788936 0.0118033
0.0083168 0.4999589 0.0083045
0.1284925 0.4987766 0.0084063
0.2802773 0.4893790 0.0079545
0.4086299 0.5192329 0.0076377
0.5259411 0.5341628 0.0169560
0.6337553 0.4254324 0.0098205
0.7633867 0.4683418 0.0131100
0.8839382 0.4778942 0.0199878
0.9785302 0.4862495 0.0288593
0.0082858 0.6249977 0.0082888
0.1250014 0.6249173 0.0083510
0.2543841 0.6218929 0.0081873
0.3846649 0.5896941 0.0065768
0.4977205 0.5989835 0.0080322
0.6121964 0.6225938 0.0122868
0.7494171 0.6217840 0.0100164
0.8778205 0.6183944 0.0115645
0.9880618 0.6126866 0.0186618
0.0082859 0.7500000 0.0082859
0.1250001 0.7499990 0.0082865
0.2501261 0.7498128 0.0082840
0.3767991 0.7467256 0.0082598
0.5040764 0.7361009 0.0093105
0.6239105 0.7418597 0.0112266
0.7497237 0.7496942 0.0088796
0.8750404 0.7497320 0.0084795
0.9917184 0.7491904 0.0088500
0.0082859 0.8750000 0.0082859
0.1250000 0.8750000 0.0082859
0.2500001 0.8749997 0.0082859
0.3750118 0.8749775 0.0082862
0.5000966 0.8747794 0.0083204
0.6250141 0.8747686 0.0083612
0.7500044 0.8749540 0.0083382
0.8749664 0.8749023 0.0083863
0.9916999 0.8749793 0.0083076
0.0082859 0.9917141 0.0082859
0.1250000 0.9917141 0.0082859
0.2500000 0.9917141 0.0082859
0.3750000 0.9917141 0.0082859
0.5000001 0.9917139 0.0082859
0.6250001 0.9917138 0.0082860
0.7500003 0.9917122 0.0082872
0.8749989 0.9917086 0.0082893
0.9917134 0.9917129 0.0082868
0.0085015 0.0477006 0.0978861
0.1145287 0.0370895 0.0907384
0.2235618 0.0251925 0.0816838
0.3566617 0.0192159 0.0791215
0.5124249 0.0145928 0.0709845
0.6314136 0.0138505 0.0703397
0.7378420 0.0169116 0.0858834
0.8684520 0.0110301 0.1205438
0.9912438 0.0085770 0.1248636
0.0060210 0.1018454 0.1214430
0.1231970 0.1326985 0.1327844
0.2529262 0.1242074 0.1206984
0.3466744 0.0837565 0.0847901
0.4767824 0.0627952 0.0662983
0.6574571 0.0626426 0.0639525
0.7517950 0.0623573 0.0632761
0.8423234 0.1030971 0.0968756
0.9781771 0.1230598 0.1210866
0.0070145 0.2075803 0.1323333
0.1048582 0.2091571 0.0996859
0.2544575 0.2585459 0.1330864
0.4082413 0.2228718 0.1020466
0.5581546 0.2014626 0.0791425
0.6971822 0.1887650 0.0731465
0.7583120 0.1664464 0.0888005
0.8530088 0.1617208 0.1005616
0.9730787 0.2329028 0.1204757
0.0091051 0.3690337 0.1267357
0.1394579 0.3378798 0.1042052
0.2184517 0.3538975 0.1028939
0.4151861 0.4015323 0.1072819
0.5652381 0.3442762 0.0874999
0.7366166 0.3444172 0.0839458
0.8158613 0.3256190 0.0644490
0.8642983 0.3435412 0.0848897
0.9850314 0.3804069 0.1205770
0.0082561 0.4997610 0.1254713
0.1024119 0.4925145 0.1381801
0.2332185 0.4701796 0.1235490
0.3843946 0.5216811 0.0825050
0.5461543 0.5172198 0.0740517
0.6643996 0.4623159 0.0880457
0.8120335 0.4466060 0.1072817
0.9120722 0.4712645 0.1163009
0.9652068 0.4773420 0.0987220
0.0082812 0.6248388 0.1250775
0.1211036 0.6203096 0.1272647
0.2366680 0.6089595 0.1300563
0.3524865 0.5983506 0.1142088
0.5242972 0.6184705 0.0698287
0.6467119 0.6459954 0.0899362
0.7497844 0.5901283 0.1234655
0.8900070 0.5856676 0.1350791
0.9914737 0.5653156 0.1408910
0.0082858 0.7499984 0.1250006
0.1249653 0.7498856 0.1250488
0.2491522 0.7482244 0.1255853
0.3708474 0.7399285 0.1275377
0.5229201 0.7302839 0.1174485
0.6492916 0.7253758 0.1274960
0.7494274 0.7415261 0.1422596
0.8678744 0.7407414 0.1345989
0.9926984 0.7322835 0.1415197
0.0082859 0.8750000 0.1250000
0.1249999 0.8749996 0.1250001
0.2500008 0.8749844 0.1250037
0.3749232 0.8745965 0.1251165
0.5004490 0.8738958 0.1251637
0.6264741 0.8720618 0.1264623
0.7512507 0.8680729 0.1280935
0.8692263 0.8581825 0.1317600
0.9889401 0.8710722 0.1274475
0.0082859 0.9917141 0.1250000
0.1250000 0.9917141 0.1250000
0.2500000 0.9917141 0.1250000
0.3750000 0.9917132 0.1250003
0.4999992 0.9917097 0.1250017
0.6250042 0.9917021 0.1250044
0.7500530 0.9913750 0.1250905
0.8748031 0.9906362 0.1253887
0.9913989 0.9911028 0.1253156
0.0120199 0.0519952 0.2394253
0.1193323 0.0546214 0.2444570
0.2475519 0.0311823 0.2336704
0.3741796 0.0278545 0.2451009
0.5080921 0.0313318 0.2621685
0.6258649 0.0136131 0.2404049
0.7493155 0.0117803 0.2399919
0.8734859 0.0101484 0.2467238
0.9915138 0.0084137 0.2497956
0.0024137 0.1387584 0.2424614
0.1072905 0.1423021 0.2429873
0.2590145 0.1405387 0.2312229
0.3633097 0.1293617 0.2262134
0.5098328 0.1364619 0.2236961
0.6329099 0.1163226 0.1960879
0.7699136 0.1155247 0.1946420
0.8578317 0.1192005 0.2069741
0.9835290 0.1269300 0.2444973
0.0060115 0.2235492 0.2603095
0.0691789 0.2485657 0.2571497
0.2845344 0.2958971 0.2967438
0.4485656 0.2978356 0.2939641
0.5147225 0.2165493 0.2266339
0.6952184 0.2184313 0.2295787
0.7931185 0.2013957 0.2067828
0.8599429 0.1907950 0.1853240
0.9488097 0.2324225 0.2318901
0.0097358 0.3665221 0.2586870
0.0856576 0.3528016 0.2654522
0.1913179 0.3744598 0.2463876
0.4314369 0.4325125 0.2973938
0.5668370 0.3819593 0.2583391
0.7212568 0.3714511 0.2354788
0.7834505 0.3302531 0.2050979
0.8651485 0.3030954 0.2225689
0.9481679 0.3257008 0.2489273
0.0081861 0.4991364 0.2499374
0.0530071 0.4834373 0.2436995
0.0909419 0.4819046 0.2174726
0.3131517 0.4938391 0.2289437
0.5627427 0.5444281 0.2543003
0.7081940 0.5030042 0.2458853
0.8287877 0.4929906 0.2392127
0.9144478 0.5032425 0.2391993
0.9797600 0.5314534 0.2494774
0.0082065 0.6242419 0.2501191
0.1028094 0.6032765 0.2532705
0.1295334 0.5702329 0.2334165
0.2427547 0.5854080 0.2021574
0.5164531 0.6390576 0.2366101
0.6839376 0.6539569 0.2432831
0.7971976 0.5936341 0.2661096
0.8928347 0.5790304 0.2544544
0.9848486 0.5865681 0.2568542
0.0082849 0.7499822 0.2500018
0.1245982 0.7491438 0.2500437
0.2432066 0.7400709 0.2479853
0.3521039 0.7074189 0.2332601
0.4270216 0.6862164 0.2403790
0.6839910 0.7196105 0.2613063
0.7489284 0.6972368 0.2597728
0.8314812 0.6952335 0.2394367
0.9973791 0.6731358 0.2834133
0.0082859 0.8750000 0.2500000
0.1249996 0.8749977 0.2499998
0.2500016 0.8749088 0.2499839
0.3747607 0.8713497 0.2495100
0.4936367 0.8597060 0.2514297
0.6251977 0.8641060 0.2526984
0.7554579 0.8254380 0.2510664
0.8415939 0.7639645 0.2450371
0.9481928 0.8118939 0.2665802
0.0082859 0.9917141 0.2500000
0.1250000 0.9917141 0.2500000
0.2500001 0.9917139 0.2500000
0.3750001 0.9916973 0.2500010
0.4999678 0.9915563 0.2500262
0.6249123 0.9914165 0.2501498
0.7503214 0.9892577 0.2502308
0.8729727 0.9734333 0.2517803
0.9840713 0.9703292 0.2562732
0.0081932 0.0245662 0.3663392
0.1313621 0.0358472 0.3689617
0.2439367 0.0280790 0.3740988
0.3941563 0.0331570 0.3795364
0.5156206 0.0444843 0.3738204
0.6286922 0.0243885 0.3790254
0.7499598 0.0118848 0.3752323
0.8748686 0.0085717 0.3747799
0.9917061 0.0082955 0.3749879
0.0035607 0.1679552 0.3449284
0.1022134 0.1714227 0.3915364
0.2341923 0.1693532 0.3935789
0.4451970 0.1866111 0.4187504
0.5834602 0.1629573 0.4041235
0.6618144 0.1604377 0.4036953
0.7677330 0.1512969 0.3585173
0.8704258 0.1287969 0.3670565
0.9903517 0.1259979 0.3733285
0.0025677 0.2621530 0.3778201
0.0476205 0.2567642 0.3833025
0.2521893 0.2947893 0.4130687
0.4125482 0.3044386 0.4226166
0.5489177 0.2717132 0.3922085
0.6383838 0.2441316 0.3462798
0.7857758 0.2270862 0.3409276
0.8752722 0.2584730 0.3396918
0.9604672 0.2535286 0.3495136
0.0067099 0.3572410 0.3983413
0.0492927 0.3647688 0.4091037
0.1903934 0.4013229 0.4106292
0.4463516 0.4554819 0.4585821
0.5657794 0.4173665 0.4184201
0.6631306 0.3650155 0.3720304
0.7711565 0.3522035 0.3595471
0.8761991 0.3359081 0.3590400
0.9311766 0.3399458 0.3482776
0.0080323 0.4970591 0.3775426
0.0816332 0.4873270 0.3586277
0.1487859 0.4818988 0.3673200
0.3597691 0.5036308 0.3784953
0.5707611 0.5566877 0.4338389
0.6715325 0.5148363 0.4080109
0.7993884 0.5057124 0.3804675
0.8805556 0.4982829 0.3714146
0.9649481 0.5114272 0.3708680
0.0082516 0.6246781 0.3747802
0.1092646 0.6130600 0.3661619
0.1544221 0.5912237 0.3344043
0.3362866 0.6016458 0.3684776
0.4612037 0.6146212 0.3712902
0.6938052 0.6754199 0.4148259
0.7293361 0.5752154 0.3712745
0.9096677 0.6278684 0.4175927
0.9763927 0.6376593 0.4153766
0.0082852 0.7499890 0.3749962
0.1245299 0.7492266 0.3747273
0.2442772 0.7445323 0.3715402
0.3706968 0.7261097 0.3651776
0.4241211 0.6930228 0.3370859
0.5952786 0.7070743 0.3793961
0.7781067 0.7395167 0.4035057
0.8556509 0.7113401 0.3900374
0.9893180 0.6969730 0.4202083
0.0082859 0.8750000 0.3750000
0.1249995 0.8749986 0.3749995
0.2500034 0.8749633 0.3749808
0.3752136 0.8711690 0.3736150
0.4921022 0.8426075 0.3697420
0.5864716 0.8108066 0.3854067
0.7426444 0.8175830 0.3789438
0.8493293 0.7799544 0.3560135
0.9938329 0.7523298 0.4248167
0.0082859 0.9917141 0.3750000
0.1250000 0.9917141 0.3750000
0.2500001 0.9917139 0.3750000
0.3750032 0.9916765 0.3749928
0.5000958 0.9906142 0.3750747
0.6240582 0.9866793 0.3760836
0.7484044 0.9852726 0.3782493
0.8848981 0.9610976 0.3797306
0.9971145 0.8291521 0.4286756
0.0082541 0.0109880 0.4997793
0.1250322 0.0111103 0.4989327
0.2495067 0.0123618 0.4983696
0.3775397 0.0133659 0.4988174
0.5030769 0.0130902 0.4977289
0.6278809 0.0152903 0.4977160
0.7496461 0.0108185 0.4992316
0.8749517 0.0084743 0.5000026
0.9917119 0.0082901 0.5000007
0.0068456 0.1746624 0.4968009
0.0977271 0.1616740 0.4922019
0.2391565 0.1526000 0.4811910
0.3968325 0.1686081 0.5001562
0.5385594 0.1753390 0.4996729
0.6605998 0.1592301 0.4763016
0.7627687 0.1625031 0.4989365
0.8720488 0.1370252 0.5027332
0.9913269 0.1254255 0.5000447
0.0022161 0.3114100 0.5137302
0.0403973 0.2709420 0.5117354
0.2118323 0.2823369 0.5173923
0.4054331 0.3084447 0.5480109
0.5534996 0.3086895 0.5417509
0.6982304 0.2845156 0.5235303
0.7942565 0.2747441 0.5156716
0.8629465 0.2764220 0.5133196
0.9863613 0.2536614 0.4951527
0.0031193 0.3749235 0.5046192
0.0231181 0.4058341 0.5359306
0.1792837 0.4070047 0.5349591
0.4070425 0.4328241 0.5488147
0.5604383 0.4385605 0.5489025
0.6792348 0.4103850 0.5246269
0.7898555 0.3745739 0.4984187
0.8664292 0.3761610 0.4903467
0.9572201 0.3760897 0.4654335
0.0067602 0.4924187 0.5176280
0.0593285 0.4941564 0.5299405
0.2271560 0.4889114 0.5137965
0.3615682 0.5398712 0.5554156
0.5982594 0.6011081 0.6066486
0.6689607 0.5415021 0.5364702
0.7630028 0.4970912 0.4927784
0.8515469 0.4662291 0.4818742
0.9151717 0.4637932 0.4677955
0.0082651 0.6243998 0.5005087
0.1205597 0.6201024 0.5018116
0.2335239 0.6107331 0.5182353
0.3214373 0.6019662 0.5298434
0.4846515 0.6213951 0.5249097
0.6980587 0.6796672 0.5792127
0.7674908 0.6391573 0.5586517
0.8411282 0.5955245 0.4919250
0.8811801 0.5678335 0.4546362
0.0082858 0.7499970 0.5000021
0.1249709 0.7499244 0.5000350
0.2499500 0.7482092 0.5010497
0.3718856 0.7353701 0.5029633
0.4822292 0.7129142 0.4722337
0.6130325 0.7206448 0.5141128
0.7898139 0.7634874 0.5563087
0.7013329 0.5503998 0.3681705
0.9782084 0.7162292 0.5395949
0.0082859 0.8750000 0.5000000
0.1250000 0.8749999 0.5000001
0.2500056 0.8749803 0.5000076
0.3753771 0.8738713 0.4995066
0.5031237 0.8543701 0.4929334
0.6060278 0.7987903 0.4800895
0.7039795 0.7911090 0.5207635
0.8569968 0.8094714 0.5195060
0.9976478 0.7722149 0.5373871
0.0082859 0.9917141 0.5000000
0.1250000 0.9917141 0.5000000
0.2500000 0.9917141 0.5000000
0.3750072 0.9917001 0.4999957
0.5002136 0.9905631 0.4996814
0.6265112 0.9786992 0.4996678
0.7429308 0.9386562 0.5144208
0.8695638 0.9450805 0.5189365
0.9987516 0.8174583 0.5409701
0.0082829 0.0084719 0.6249234
0.1249300 0.0084637 0.6249147
0.2499714 0.0083757 0.6249388
0.3750327 0.0083861 0.6249576
0.5001023 0.0085343 0.6248905
0.6250889 0.0085141 0.6247972
0.7500836 0.0086619 0.6248536
0.8749856 0.0083549 0.6249759
0.9917132 0.0082877 0.6249995
0.0079229 0.1366585 0.6199654
0.1193927 0.1324934 0.6188892
0.2461326 0.1324927 0.6212674
0.3771157 0.1328220 0.6234709
0.5024698 0.1344224 0.6214867
0.6302972 0.1334855 0.6201718
0.7564433 0.1393530 0.6152958
0.8740280 0.1301851 0.6225773
0.9915358 0.1252379 0.6249347
0.0038599 0.3183472 0.5897740
0.0690710 0.2838001 0.5951385
0.2207335 0.2951545 0.6085840
0.3744951 0.3029574 0.6160955
0.5194511 0.2917528 0.6214842
0.6692254 0.2961442 0.6086192
0.7860844 0.3047721 0.6029310
0.8683591 0.2959378 0.6161280
0.9871976 0.2541316 0.6245282
0.0024624 0.4344915 0.6239255
0.0230690 0.4177398 0.6328662
0.1638406 0.4129106 0.6378683
0.3668909 0.4269843 0.6414706
0.5394124 0.4357675 0.6527244
0.6664196 0.4439912 0.6175109
0.7908715 0.4252959 0.6309252
0.8656932 0.4129656 0.6248903
0.9782072 0.3850532 0.6258982
0.0043507 0.5076689 0.6506829
0.0221026 0.5086824 0.6405624
0.1502027 0.5208690 0.6193580
0.3398336 0.5468774 0.6555186
0.5549508 0.5716243 0.6577297
0.6834742 0.5682657 0.6660262
0.7815825 0.5404276 0.6362042
0.8534592 0.5126136 0.6008881
0.9445714 0.5009148 0.5900602
0.0077926 0.6197170 0.6294159
0.1000794 0.6105104 0.6356915
0.1667979 0.5988690 0.6369753
0.3034120 0.6317416 0.6482721
0.5176746 0.6452162 0.6502245
0.7111633 0.7078398 0.7098111
0.7577851 0.6467487 0.6401308
0.8355492 0.5934395 0.5888735
0.8787771 0.5873648 0.5639431
0.0082804 0.7498807 0.6250589
0.1244798 0.7491124 0.6252437
0.2507117 0.7449795 0.6259815
0.3715485 0.7240368 0.6275466
0.4885328 0.7100136 0.6258809
0.6185225 0.7265976 0.6351725
0.7693382 0.7448306 0.6710784
0.8273414 0.7205178 0.6509925
0.8863126 0.6674185 0.5782705
0.0082859 0.8749999 0.6250001
0.1250032 0.8749976 0.6250004
0.2506225 0.8746428 0.6250660
0.3773738 0.8728570 0.6253499
0.5054785 0.8608680 0.6216964
0.6245593 0.8160036 0.6070164
0.7223571 0.7958126 0.6321671
0.8170928 0.7965591 0.6256132
0.9150354 0.7087083 0.5507622
0.0082859 0.9917141 0.6250000
0.1250000 0.9917141 0.6250000
0.2500044 0.9917105 0.6250006
0.3750195 0.9916891 0.6250060
0.5003051 0.9908014 0.6252069
0.6270144 0.9780653 0.6267327
0.7498489 0.9306749 0.6254683
0.8238429 0.8856960 0.6357557
0.9987075 0.8283355 0.6222517
0.0082858 0.0082886 0.7499986
0.1249994 0.0082875 0.7499989
0.2499997 0.0082868 0.7499993
0.3750001 0.0082868 0.7499996
0.5000002 0.0082870 0.7499993
0.6250005 0.0082872 0.7499990
0.7500011 0.0082907 0.7499961
0.8749998 0.0082869 0.7499993
0.9917141 0.0082859 0.7500000
0.0082630 0.1257613 0.7494121
0.1247547 0.1254088 0.7496439
0.2499368 0.1252247 0.7498376
0.3749989 0.1252442 0.7498512
0.5000020 0.1251191 0.7499084
0.6251041 0.1252094 0.7498568
0.7502043 0.1256253 0.7495564
0.8749660 0.1254174 0.7497820
0.9917002 0.1250307 0.7499887
0.0075511 0.2675394 0.7355663
0.1180014 0.2587360 0.7426904
0.2450958 0.2586954 0.7443985
0.3741293 0.2581425 0.7451649
0.4993970 0.2566080 0.7476408
0.6288676 0.2564156 0.7454733
0.7561611 0.2687798 0.7389047
0.8741040 0.2675461 0.7399642
0.9896477 0.2531930 0.7485026
0.0053225 0.4349451 0.7105408
0.0661322 0.4239390 0.7151313
0.2057045 0.4032035 0.7240047
0.3662359 0.4103363 0.7262552
0.4946093 0.4096658 0.7303619
0.6530241 0.4225634 0.7276566
0.7849072 0.4504874 0.7157819
0.8732347 0.4427875 0.7166944
0.9728938 0.4098071 0.7428576
0.0031363 0.5454686 0.7165293
0.0146081 0.5507176 0.7242606
0.1748941 0.5497220 0.7094170
0.3426253 0.5423317 0.7241032
0.4929970 0.5631976 0.7278320
0.6344846 0.5577062 0.7327253
0.7868744 0.5761993 0.7405542
0.8746144 0.5563444 0.7266160
0.9395666 0.5423554 0.7338154
0.0064780 0.6108487 0.7431396
0.0580959 0.6048318 0.7372619
0.1818545 0.6317480 0.7441991
0.3104671 0.6526281 0.7425900
0.4808556 0.6556147 0.7288944
0.6887237 0.7137134 0.7776944
0.7851962 0.6963763 0.7573251
0.8541856 0.6266977 0.7141112
0.9182091 0.6279007 0.7089326
0.0082413 0.7489682 0.7499486
0.1220732 0.7469953 0.7501948
0.2887216 0.7359868 0.7424361
0.5609359 0.6745820 0.6970950
0.4552175 0.7271011 0.7432865
0.6561389 0.7507049 0.7553518
0.7877121 0.7860481 0.7872890
0.8228365 0.7242075 0.7088991
0.8830743 0.6813103 0.6694646
0.0082859 0.8749976 0.7500002
0.1250384 0.8749537 0.7499989
0.2603973 0.8695055 0.7483573
0.4174086 0.8433083 0.7406717
0.5045866 0.8399034 0.7446147
0.5988926 0.8062752 0.7215279
0.7298234 0.8101041 0.7041534
0.8233622 0.8026003 0.7308264
0.8737629 0.7569570 0.6890508
0.0082859 0.9917141 0.7500000
0.1250047 0.9917113 0.7499996
0.2507089 0.9911736 0.7499177
0.3779339 0.9885926 0.7495249
0.5005956 0.9889349 0.7496653
0.6248318 0.9763430 0.7458946
0.7562491 0.9420471 0.7318150
0.8221170 0.8644280 0.7193800
0.9717675 0.8079791 0.6589441
0.0082859 0.0082859 0.8750000
0.1250000 0.0082859 0.8750000
0.2500000 0.0082859 0.8750000
0.3750000 0.0082859 0.8750000
0.5000000 0.0082859 0.8750000
0.6250000 0.0082859 0.8750000
0.7500000 0.0082859 0.8750000
0.8750000 0.0082859 0.8750000
0.9917141 0.0082859 0.8750000
0.0082858 0.1250048 0.8749956
0.1249992 0.1250018 0.8749983
0.2499997 0.1250010 0.8749992
0.3749999 0.1250009 0.8749993
0.4999999 0.1250007 0.8749996
0.6250004 0.1250009 0.8749993
0.7500010 0.1250050 0.8749962
0.8749999 0.1250046 0.8749965
0.9917138 0.1250008 0.8749995
0.0082763 0.2502853 0.8746546
0.1248699 0.2502340 0.8747901
0.2499238 0.2501127 0.8748667
0.3750117 0.2500901 0.8749164
0.4999826 0.2500846 0.8749243
0.6250803 0.2501788 0.8748791
0.7502065 0.2507569 0.8744707
0.8749897 0.2507384 0.8744462
0.9916420 0.2501774 0.8748892
0.0079621 0.3847225 0.8660174
0.1184003 0.3837765 0.8670466
0.2471696 0.3781779 0.8721370
0.3727933 0.3781978 0.8721102
0.5006601 0.3777676 0.8726889
0.6270280 0.3820317 0.8711757
0.7560444 0.3908357 0.8630396
0.8755174 0.3953903 0.8608706
0.9865614 0.3879054 0.8678286
0.0063135 0.5404484 0.8254995
0.0628850 0.5458050 0.8129772
0.2089118 0.5227803 0.8413949
0.3652868 0.5225438 0.8512338
0.4974605 0.5364346 0.8474490
0.6390741 0.5504068 0.8378296
0.7728165 0.5522278 0.8390053
0.8830482 0.5561730 0.8197551
0.9472631 0.5643742 0.8152679
0.0066421 0.6210582 0.8356199
0.0256506 0.6286195 0.7966226
0.1441341 0.6529960 0.8118343
0.2971437 0.6745615 0.8040218
0.4873758 0.6646197 0.8075379
0.6192620 0.6649204 0.8188998
0.7651751 0.6603185 0.8189074
0.8675799 0.6582999 0.8031543
0.9212545 0.6564616 0.8031680
0.0082973 0.7472772 0.8728148
0.1055052 0.7340890 0.8621140
0.2241481 0.7339697 0.8554893
0.3567236 0.7204147 0.7970650
0.4607429 0.7394417 0.8064117
0.6755191 0.8056259 0.8633974
0.7552583 0.7829289 0.8314943
0.8655886 0.7773100 0.8221914
0.9115558 0.7313817 0.7925528
0.0082868 0.8749691 0.8749891
0.1247429 0.8742977 0.8747574
0.2991651 0.8514361 0.8553287
0.5790405 0.7389951 0.7613351
0.4970727 0.8395612 0.8450485
0.6300898 0.8226791 0.8362357
0.7321386 0.8098366 0.8081892
0.8653682 0.8579987 0.8548927
0.8910142 0.7888862 0.7716748
0.0082859 0.9917141 0.8750000
0.1250271 0.9916978 0.8749915
0.2540947 0.9885926 0.8733647
0.3919494 0.9736853 0.8655547
0.5017340 0.9883668 0.8733444
0.6271739 0.9789751 0.8713464
0.7401209 0.9211254 0.8381330
0.8363752 0.8707619 0.8083237
0.9063950 0.8340342 0.7697457
0.0082859 0.0082859 0.9917141
0.1250000 0.0082859 0.9917141
0.2500000 0.0082859 0.9917141
0.3750000 0.0082859 0.9917141
0.5000000 0.0082859 0.9917141
0.6250000 0.0082859 0.9917141
0.7500000 0.0082859 0.9917141
0.8750000 0.0082859 0.9917141
0.9917141 0.0082859 0.9917141
0.0082859 0.1250000 0.9917141
0.1250000 0.1250000 0.9917141
0.2500000 0.1250000 0.9917141
0.3750000 0.1250000 0.9917141
0.5000000 0.1250000 0.9917141
0.6250000 0.1250000 0.9917141
0.7500000 0.1250000 0.9917141
0.8750000 0.1250000 0.9917141
0.9917141 0.1250000 0.9917141
0.0082859 0.2500013 0.9917129
0.1249995 0.2500011 0.9917130
0.2499999 0.2500002 0.9917139
0.3749999 0.2500002 0.9917139
0.5000000 0.2500001 0.9917140
0.6250004 0.2500010 0.9917133
0.7500011 0.2500046 0.9917101
0.8750001 0.2500060 0.9917092
0.9917132 0.2500036 0.9917115
0.0082778 0.3754914 0.9912378
0.1247671 0.3754440 0.9912768
0.2499343 0.3750759 0.9916325
0.3749816 0.3750329 0.9916778
0.4999991 0.3750713 0.9916559
0.6250373 0.3752378 0.9915072
0.7500753 0.3752420 0.9914575
0.8750675 0.3756156 0.9910750
0.9914495 0.3758051 0.9909332
0.0080235 0.5079833 0.9760628
0.1128477 0.5138545 0.9715006
0.2414976 0.5057897 0.9839864
0.3717562 0.5031763 0.9882305
0.4997325 0.5032356 0.9872376
0.6254041 0.5018362 0.9887167
0.7511913 0.5033855 0.9874896
0.8759854 0.5048250 0.9837626
0.9870008 0.5078433 0.9789956
0.0079147 0.6273400 0.9690630
0.0579626 0.6435427 0.8857111
0.1424804 0.6492031 0.9012546
0.3532462 0.6464208 0.9500324
0.4900934 0.6465766 0.9557918
0.6215200 0.6397256 0.9694700
0.7500835 0.6334330 0.9750355
0.8761644 0.6425636 0.9550877
0.9659420 0.6457974 0.9353572
0.0082679 0.7483496 0.9880692
0.0926106 0.7283244 0.9388284
0.1510848 0.7178397 0.9087388
0.3431450 0.7419195 0.9144837
0.4823246 0.7579752 0.8779078
0.6061136 0.7658877 0.8956366
0.7607208 0.8027886 0.9232933
0.8728627 0.7626767 0.8931305
0.9270861 0.7520404 0.8622620
0.0082904 0.8749402 0.9916597
0.1240321 0.8732606 0.9901305
0.2572140 0.8694419 0.9844688
0.4138936 0.8478757 0.9530540
0.5068041 0.8418423 0.9388100
0.6351315 0.8297712 0.8967007
0.7610710 0.8575414 0.9030457
0.8463472 0.8584669 0.8944152
0.9093512 0.8106874 0.8495574
0.0082859 0.9917140 0.9917141
0.1250040 0.9917095 0.9917107
0.2508177 0.9910908 0.9911569
0.3783845 0.9881140 0.9884958
0.5005859 0.9893888 0.9899987
0.6445858 0.9784530 0.9849973
0.7955117 0.9290506 0.9616687
0.8297550 0.8834599 0.8991184
0.9359672 0.9295945 0.9266090
