looks/recipe_eterna_bleach.cube
TITLE "Fuji recipe Eterna Cinema (16 RAFs)"
LUT_3D_SIZE 9
0.0215853 0.0221050 0.0215470
0.0889705 0.0661355 0.0673684
0.1729203 0.1172860 0.1203933
0.3146073 0.1773276 0.1804301
0.4824701 0.2758205 0.2819049
0.5855606 0.3206836 0.3292679
0.7238349 0.2247814 0.2314218
0.8522215 0.0874419 0.0898880
0.9909822 0.0101664 0.0102232
0.0439756 0.0722053 0.0407994
0.0951341 0.0957360 0.0719927
0.2102372 0.1689184 0.1439633
0.3488657 0.2587930 0.2268698
0.4787738 0.2942532 0.2464183
0.5933233 0.2981659 0.2507270
0.7193325 0.3332517 0.2871946
0.8488278 0.2278072 0.1421014
0.9869443 0.1387046 0.0257004
0.0319892 0.2035759 0.0293408
0.1125332 0.1510085 0.0875868
0.1926145 0.1935229 0.1204081
0.3589076 0.3003392 0.2224718
0.5048609 0.3846230 0.3041870
0.6478329 0.4600198 0.3618496
0.7538677 0.3340158 0.1335746
0.8694315 0.2888707 0.0726735
0.9885538 0.2598366 0.0241920
0.0109149 0.3682008 0.0106644
0.1367563 0.3146060 0.0554561
0.2442901 0.3042312 0.1792103
0.3535076 0.3546790 0.1894017
0.4643542 0.4050665 0.2534998
0.6648145 0.5166181 0.3568347
0.7870156 0.5479953 0.3443976
0.8792592 0.4288064 0.1010398
0.9898027 0.3787653 0.0160760
0.0083596 0.4998885 0.0083534
0.1314929 0.4948952 0.0175366
0.3005069 0.4570020 0.1472095
0.4135856 0.4859732 0.2691358
0.5139577 0.5117992 0.2092425
0.6071835 0.5181906 0.2467404
0.7049570 0.5326983 0.2073497
0.8837428 0.5385897 0.0985970
0.9908388 0.5027143 0.0153677
0.0082869 0.6249988 0.0082869
0.1252504 0.6247586 0.0086128
0.2630679 0.6184089 0.0315346
0.4238209 0.5909548 0.1883634
0.5181006 0.6093293 0.2321352
0.6199592 0.6229253 0.0621283
0.7442653 0.6230310 0.0370806
0.8751993 0.6264092 0.0146609
0.9918095 0.6289225 0.0198508
0.0082859 0.7500000 0.0082859
0.1250035 0.7499978 0.0082899
0.2509881 0.7493486 0.0099126
0.3920316 0.7290314 0.0620199
0.5169646 0.7045258 0.1634283
0.6188168 0.7302169 0.0911217
0.7491622 0.7494002 0.0109345
0.8749703 0.7499980 0.0086074
0.9917210 0.7501500 0.0091206
0.0082859 0.8750000 0.0082859
0.1250000 0.8750000 0.0082859
0.2500122 0.8749863 0.0083060
0.3753921 0.8744099 0.0093058
0.5018131 0.8706411 0.0172700
0.6247805 0.8714265 0.0160051
0.7499195 0.8748704 0.0085780
0.8749990 0.8749989 0.0082903
0.9917123 0.8749992 0.0082929
0.0082859 0.9917141 0.0082859
0.1250000 0.9917141 0.0082859
0.2500000 0.9917141 0.0082859
0.3750007 0.9917129 0.0082875
0.5000112 0.9916824 0.0083308
0.6249996 0.9916824 0.0083308
0.7499995 0.9917129 0.0082876
0.8749991 0.9917125 0.0082899
0.9917109 0.9917108 0.0082958
0.0445481 0.0478205 0.0861213
0.1002066 0.0602132 0.0979835
0.2079660 0.0959879 0.1440124
0.3276442 0.1310789 0.1880151
0.4750577 0.1960459 0.2526452
0.5998857 0.2407569 0.3005320
0.7204662 0.2795175 0.3421510
0.8472214 0.1197531 0.2159537
0.9893432 0.0158536 0.1313094
0.0698709 0.1039115 0.1062097
0.1193427 0.1229415 0.1234222
0.2145501 0.1823014 0.1827702
0.3096196 0.2402438 0.2444179
0.4265063 0.3139007 0.3216718
0.6087518 0.4332382 0.4440534
0.7093489 0.4922102 0.5061496
0.8187863 0.5006332 0.5140322
0.9638759 0.2273891 0.2308596
0.0553564 0.1979328 0.1280197
0.1647889 0.2093229 0.1575616
0.2324625 0.2355988 0.1970339
0.3701178 0.3170281 0.2741010
0.5125218 0.4120079 0.3709010
0.6028759 0.4603532 0.4305109
0.7243149 0.4862427 0.4537458
0.8514903 0.5213661 0.4890056
0.9477543 0.4681251 0.4085706
0.0142155 0.3670577 0.1269730
0.1601395 0.3117797 0.1567400
0.2662107 0.3126397 0.2221318
0.3624903 0.3578201 0.2643197
0.4648283 0.4127703 0.3329746
0.7170037 0.5944892 0.4990944
0.8053021 0.6384391 0.5495204
0.8386301 0.5973254 0.5038946
0.9587768 0.4592041 0.2658764
0.0086506 0.4996679 0.1251682
0.1385751 0.4790972 0.1380648
0.2918985 0.4186440 0.2347083
0.4205878 0.4786169 0.3146866
0.5166698 0.5305617 0.3161063
0.5978991 0.5282828 0.3723036
0.7873199 0.6380596 0.4606617
0.9000657 0.6694245 0.4664213
0.9648107 0.5798952 0.3009180
0.0083628 0.6249670 0.1250654
0.1286378 0.6222848 0.1296874
0.2686092 0.5992205 0.1604501
0.4544619 0.5872704 0.3219926
0.5467545 0.6080734 0.3863919
0.6145555 0.6263945 0.2500537
0.7464037 0.6469135 0.3050141
0.8657025 0.6518879 0.2367442
0.9944998 0.7393864 0.4079020
0.0082915 0.7499956 0.1250048
0.1253524 0.7496426 0.1254561
0.2536498 0.7457594 0.1318017
0.4081594 0.7181181 0.1981427
0.5526680 0.6769324 0.3478036
0.6208752 0.6974304 0.3387029
0.7457371 0.7461140 0.1543605
0.8724152 0.7495066 0.1412042
0.9919834 0.7571617 0.1570158
0.0082859 0.8750000 0.1250000
0.1250039 0.8749951 0.1250048
0.2501187 0.8748320 0.1252077
0.3767643 0.8718663 0.1296395
0.5093717 0.8558801 0.1572070
0.6252293 0.8538054 0.1623729
0.7491108 0.8731995 0.1289807
0.8741096 0.8741141 0.1279885
0.9896346 0.8739566 0.1295067
0.0082859 0.9917141 0.1250000
0.1250000 0.9917141 0.1250000
0.2500004 0.9917135 0.1250007
0.3750292 0.9916518 0.1250738
0.5000675 0.9913077 0.1254845
0.6250037 0.9914193 0.1253983
0.7499664 0.9915684 0.1252120
0.8740678 0.9899973 0.1282517
0.9884599 0.9883406 0.1331707
0.0755570 0.0816813 0.2432261
0.1417656 0.0719767 0.2271781
0.2369951 0.0485163 0.2364949
0.3635393 0.0493783 0.2557232
0.4942226 0.0341673 0.2585702
0.6227198 0.0386514 0.2654606
0.7472783 0.0401637 0.2684951
0.8725438 0.0266271 0.2616491
0.9909832 0.0110343 0.2517857
0.1315394 0.1658054 0.2033687
0.1809054 0.1836566 0.2107403
0.2223700 0.1884431 0.2241402
0.3233034 0.2438055 0.2860327
0.4648006 0.2845133 0.3426330
0.6177372 0.3564968 0.4175791
0.7400249 0.3673505 0.4368223
0.8762667 0.4062685 0.4858253
0.9772060 0.2062310 0.3167132
0.1133576 0.2240645 0.2344787
0.1769621 0.2240054 0.2282039
0.2728672 0.2777036 0.2789787
0.4108844 0.3694428 0.3713329
0.4633178 0.3851756 0.3934835
0.5973638 0.4701070 0.4840194
0.7340451 0.5611184 0.5769665
0.8578309 0.6382707 0.6548902
0.9377240 0.6228532 0.6355209
0.0337965 0.3593865 0.2515680
0.1827574 0.3198156 0.2652277
0.2750663 0.3218121 0.2661509
0.4153606 0.4227618 0.3781220
0.5231845 0.4664744 0.4209971
0.7025301 0.5911471 0.5341069
0.7374634 0.6030781 0.5766511
0.8569111 0.6530272 0.6248802
0.9408415 0.6315084 0.5972589
0.0106149 0.4986856 0.2507795
0.1610232 0.4691181 0.2694182
0.2985720 0.4087021 0.3199067
0.4104762 0.4659509 0.3557855
0.4994188 0.4968382 0.3962569
0.6156570 0.5635760 0.4825834
0.8425949 0.7187425 0.6047398
0.8993286 0.7289897 0.6214111
0.9280295 0.6795824 0.5713117
0.0093783 0.6245465 0.2505429
0.1743359 0.5929482 0.2883822
0.3361570 0.5387519 0.3833432
0.4102478 0.5262844 0.4032995
0.5584117 0.6100181 0.4242821
0.6160654 0.6068975 0.4563188
0.7247508 0.6594691 0.4996306
0.8438986 0.7296371 0.5626416
0.9968856 0.8460346 0.6889310
0.0084432 0.7498959 0.2500836
0.1330818 0.7420233 0.2565105
0.2878663 0.6992935 0.3026053
0.4299615 0.6442198 0.4048530
0.5301055 0.6529083 0.4643095
0.6595792 0.7079674 0.4660236
0.7266535 0.7182550 0.4580492
0.8504508 0.7485423 0.3923843
0.9846799 0.7949116 0.4219829
0.0082868 0.8749991 0.2500005
0.1251163 0.8748512 0.2500949
0.2522808 0.8712299 0.2530516
0.3887548 0.8459296 0.2814243
0.5194209 0.7760422 0.3821536
0.6344354 0.8195225 0.3593072
0.7313927 0.8317319 0.3258031
0.8258118 0.8272995 0.3492327
0.9223158 0.8401980 0.3635063
0.0082859 0.9917141 0.2500000
0.1250002 0.9917138 0.2500002
0.2500124 0.9916923 0.2500148
0.3754532 0.9907815 0.2507961
0.5029153 0.9800934 0.2621570
0.6236882 0.9763445 0.2685224
0.7471932 0.9803391 0.2616982
0.8431792 0.9330955 0.3327958
0.8832025 0.8792231 0.4579312
0.0281343 0.0315796 0.3637837
0.1496062 0.0554976 0.3613652
0.2592431 0.0504777 0.3740793
0.3728189 0.0268664 0.3722080
0.5070279 0.0637444 0.3954841
0.6232266 0.0682175 0.4008992
0.7494154 0.0183612 0.3797822
0.8749161 0.0148758 0.3784718
0.9916115 0.0088322 0.3752877
0.1712846 0.2276734 0.3239543
0.2223153 0.2261207 0.3351356
0.3005428 0.2654639 0.3672931
0.3779436 0.2578832 0.3731053
0.5000167 0.3522190 0.4586603
0.6126174 0.3824377 0.5156485
0.7538638 0.3303163 0.4985204
0.8718596 0.2893578 0.4811172
0.9886327 0.1396957 0.3842632
0.2130561 0.2926913 0.3516304
0.2328981 0.2733139 0.3153079
0.3179510 0.3238757 0.3638550
0.3836952 0.3510620 0.3960287
0.4818355 0.4109581 0.4598365
0.6010973 0.4735043 0.5220982
0.7544276 0.5548038 0.6123492
0.8716208 0.5529803 0.6198824
0.9681079 0.4190551 0.5115197
0.1092930 0.3640043 0.3794445
0.2464540 0.3390749 0.3594636
0.3203431 0.3775542 0.3809060
0.4280374 0.4336299 0.4371107
0.5433309 0.4926908 0.4867199
0.6233763 0.5331166 0.5393332
0.7626877 0.6247333 0.6463447
0.8827219 0.7009655 0.7266292
0.9513431 0.7213297 0.7444628
0.0180174 0.4962529 0.3763180
0.1757070 0.4667514 0.3755111
0.2988448 0.4047922 0.3755827
0.4133385 0.4628220 0.3891999
0.5165190 0.5210585 0.4822468
0.6408621 0.5869396 0.5439442
0.8503887 0.7369562 0.6597854
0.8867348 0.7460560 0.7065031
0.9728819 0.7130416 0.6742173
0.0097367 0.6244197 0.3752889
0.1903886 0.5842751 0.3949719
0.3431778 0.5221567 0.4388997
0.4024141 0.5217310 0.4353692
0.5637278 0.6152738 0.4826959
0.5837429 0.5899655 0.5079622
0.7150295 0.6657025 0.5976347
0.9029808 0.7988651 0.6948469
0.9937378 0.8528423 0.7301266
0.0085292 0.7498208 0.3750487
0.1376086 0.7368660 0.3792613
0.3232402 0.6579649 0.4328479
0.4299003 0.6327062 0.4768557
0.5514646 0.6797692 0.5457702
0.6861064 0.7304572 0.5454954
0.6964461 0.7013568 0.5655729
0.8071323 0.7475797 0.6155739
0.9698591 0.8696536 0.7222606
0.0082873 0.8749986 0.3750003
0.1252851 0.8746744 0.3751251
0.2556460 0.8655184 0.3791277
0.3916782 0.8341474 0.4004945
0.5424390 0.7631121 0.4906882
0.6169882 0.7475955 0.5576673
0.6844226 0.7317917 0.5334851
0.7401729 0.7479434 0.5640263
0.8918697 0.8408898 0.5838380
0.0082859 0.9917141 0.3750000
0.1250007 0.9917132 0.3750003
0.2500238 0.9916666 0.3750160
0.3756228 0.9904960 0.3756827
0.5133372 0.9567061 0.4038281
0.6259495 0.8649415 0.4969177
0.7373281 0.9441838 0.4164535
0.7908897 0.8432340 0.5172517
0.8139374 0.8093168 0.6326521
0.0115253 0.0121774 0.4984864
0.1292889 0.0151478 0.4981901
0.2523300 0.0167928 0.4974725
0.3774208 0.0170354 0.5004043
0.5027027 0.0355552 0.5027750
0.6254647 0.0394302 0.5069463
0.7488448 0.0205881 0.5036548
0.8745844 0.0100050 0.5005610
0.9917082 0.0083117 0.5000096
0.1065993 0.2024880 0.4741224
0.2320797 0.2407704 0.4833529
0.3131557 0.2444213 0.4787399
0.4153843 0.2478950 0.5097278
0.5182339 0.3354351 0.5265756
0.6428385 0.3953879 0.5874898
0.7351760 0.3614618 0.5964627
0.8674312 0.1841730 0.5271960
0.9913375 0.1267904 0.5009103
0.3046724 0.3916371 0.4824942
0.3554709 0.4032755 0.4936180
0.3861309 0.3932777 0.4806603
0.4551153 0.4227355 0.5187876
0.5315194 0.4553332 0.5476367
0.6350949 0.5159901 0.6141911
0.7720307 0.5948592 0.6981310
0.8662617 0.4551266 0.6284545
0.9868650 0.2864777 0.5226731
0.2647861 0.4168809 0.4901612
0.3355354 0.4270053 0.4860609
0.3740560 0.4193333 0.4662484
0.4685993 0.4741355 0.5191464
0.5729308 0.5299242 0.5727625
0.6280737 0.5471423 0.5986369
0.7301126 0.5840346 0.6418797
0.8873127 0.6517539 0.7254863
0.9693831 0.6432133 0.7176691
0.0853576 0.4940588 0.5052165
0.2782080 0.4916776 0.5178711
0.3612605 0.4627045 0.4801964
0.4543330 0.5082448 0.5113260
0.5861012 0.5925447 0.6025838
0.6667353 0.6183989 0.6132538
0.8126804 0.7129846 0.6927941
0.8381250 0.7019874 0.7186562
0.9514615 0.7755080 0.8080679
0.0126942 0.6244717 0.5012638
0.1569740 0.6129394 0.5040156
0.3289762 0.5367965 0.4847461
0.4567212 0.5920643 0.5373018
0.5529649 0.6048042 0.5316284
0.6284811 0.6310639 0.5992957
0.7482579 0.6994022 0.6590954
0.9348576 0.8335049 0.7516825
0.9826971 0.8453919 0.7694411
0.0083823 0.7499543 0.5000147
0.1278440 0.7474701 0.4998994
0.2630712 0.7316006 0.4997081
0.4055159 0.7242113 0.5163217
0.5679150 0.6993329 0.5896339
0.6899843 0.7356966 0.6045263
0.7063168 0.7154782 0.6258822
0.7443617 0.7001157 0.6316655
0.9876521 0.8969988 0.7790082
0.0082862 0.8749997 0.5000000
0.1250481 0.8749453 0.5000004
0.2509058 0.8734227 0.5000391
0.3794244 0.8707114 0.5025548
0.5497990 0.8320331 0.5575230
0.6789546 0.7991933 0.6601321
0.7421772 0.7922274 0.6506871
0.7916291 0.7984275 0.6405914
0.9623004 0.9039262 0.7621692
0.0082859 0.9917141 0.5000000
0.1250001 0.9917139 0.5000000
0.2500024 0.9917086 0.5000001
0.3751513 0.9915338 0.5000775
0.5083999 0.9757048 0.5087798
0.6351953 0.9017754 0.5559532
0.7475784 0.8973985 0.6164100
0.7644880 0.8129139 0.6289870
0.9180231 0.9183454 0.5806006
0.0084716 0.0084973 0.6249336
0.1253176 0.0087755 0.6248218
0.2502312 0.0089082 0.6247801
0.3752605 0.0091612 0.6248637
0.5001079 0.0100051 0.6246947
0.6251084 0.0103686 0.6250546
0.7500018 0.0102771 0.6253208
0.8749340 0.0086813 0.6250710
0.9917119 0.0083036 0.6250057
0.0310817 0.1451555 0.6213507
0.1516975 0.1544326 0.6155742
0.2676337 0.1573033 0.6115390
0.3876075 0.1569918 0.6213488
0.5073864 0.1683225 0.6229029
0.6270617 0.1761475 0.6273656
0.7615062 0.2252447 0.6540226
0.8738972 0.1706080 0.6406952
0.9909492 0.1311679 0.6274400
0.2868346 0.4247507 0.6092922
0.3403392 0.4085191 0.5798149
0.4135873 0.4290545 0.5887055
0.5024306 0.4505907 0.6344805
0.5619955 0.4436457 0.6347213
0.6450966 0.4687319 0.6555986
0.8026309 0.5957415 0.7582927
0.9001082 0.6129315 0.7994353
0.9809120 0.3218689 0.6600000
0.3954500 0.5181757 0.6162652
0.4386437 0.5307900 0.6277759
0.4676940 0.5185055 0.6138588
0.4993717 0.5086018 0.5983707
0.6069334 0.5691380 0.6731734
0.6469051 0.5739338 0.6653868
0.7850841 0.6617280 0.7613249
0.8921102 0.7189925 0.8255118
0.9545668 0.5138742 0.7080311
0.2902197 0.5547526 0.6506146
0.4232092 0.5803818 0.6535519
0.4347236 0.5163211 0.5763187
0.5520696 0.6018127 0.6568918
0.6166127 0.6208996 0.6650333
0.6688888 0.6284516 0.6575649
0.7651513 0.6835427 0.7264363
0.8650927 0.7383426 0.7959059
0.9515802 0.6607128 0.7392874
0.0529907 0.6250731 0.6315264
0.2703259 0.6045322 0.6222919
0.3816340 0.5933729 0.6144090
0.4964868 0.6009076 0.6339801
0.5719625 0.6053779 0.6147345
0.7064382 0.7134498 0.7267944
0.7997294 0.7532365 0.7406660
0.9214060 0.8277249 0.7854288
0.9262238 0.8015235 0.8166634
0.0090357 0.7498279 0.6250987
0.1350925 0.7446020 0.6245312
0.2821542 0.7355424 0.6302855
0.4573157 0.6807187 0.6373726
0.5383921 0.6446391 0.6256455
0.6992458 0.7400562 0.6602606
0.7553653 0.7587050 0.7242969
0.8012315 0.7616026 0.7326061
0.9776245 0.8967649 0.8170143
0.0082877 0.8749992 0.6250003
0.1250390 0.8749751 0.6250045
0.2510079 0.8742360 0.6251934
0.3879868 0.8590539 0.6272821
0.5267854 0.8055587 0.6363337
0.6671213 0.7854912 0.6954442
0.7712284 0.8208454 0.7373211
0.7893666 0.7940906 0.7328242
0.9344341 0.8810018 0.7872175
0.0082859 0.9917141 0.6250000
0.1250000 0.9917141 0.6250000
0.2500048 0.9917093 0.6250010
0.3751832 0.9913764 0.6250325
0.5017468 0.9884287 0.6258497
0.6470446 0.9585519 0.6487337
0.7697315 0.8959105 0.7213339
0.8267854 0.8882543 0.7602507
0.9821326 0.9421933 0.7957439
0.0082895 0.0082902 0.7499986
0.1250061 0.0082951 0.7499959
0.2500049 0.0082972 0.7499952
0.3750038 0.0082966 0.7499977
0.5000039 0.0083039 0.7499969
0.6250017 0.0083086 0.7499977
0.7500051 0.0083378 0.7500032
0.8749998 0.0083089 0.7500029
0.9917138 0.0082889 0.7500005
0.0108802 0.1274276 0.7493619
0.1274724 0.1277843 0.7486688
0.2521276 0.1283972 0.7487980
0.3766767 0.1284294 0.7493810
0.5008003 0.1277557 0.7495153
0.6252995 0.1280648 0.7496264
0.7506596 0.1304461 0.7504866
0.8753123 0.1305609 0.7511132
0.9915801 0.1261010 0.7502311
0.1317683 0.3355207 0.7279513
0.1949686 0.3052242 0.7210710
0.3017812 0.3065684 0.7299821
0.4162112 0.3148674 0.7361773
0.5162610 0.2962028 0.7425392
0.6336629 0.2915342 0.7467846
0.7645284 0.3427610 0.7633006
0.8840067 0.3635283 0.7801411
0.9863533 0.2936064 0.7624819
0.4202391 0.5665874 0.7085770
0.4167645 0.5376158 0.7042904
0.4321829 0.5076599 0.6977670
0.5291860 0.5391793 0.7134745
0.6122356 0.5664617 0.7482861
0.6793097 0.5545149 0.7476246
0.7866415 0.6335492 0.7915710
0.9051349 0.7334594 0.8754820
0.9567697 0.5811775 0.8249784
0.4658768 0.6362548 0.7424622
0.5183348 0.6619602 0.7665597
0.5065100 0.6070015 0.7043260
0.5658766 0.6165123 0.7159223
0.6349017 0.6507448 0.7376357
0.7159919 0.6757530 0.7806117
0.7879537 0.7200471 0.8080265
0.8765914 0.7583930 0.8548850
0.9565042 0.7364916 0.8702614
0.2495804 0.6650267 0.7743250
0.4048088 0.6692719 0.7637545
0.4994536 0.6579251 0.7286791
0.5693592 0.6578752 0.7188805
0.6460870 0.6916484 0.7458384
0.7315157 0.7389638 0.7783108
0.7775732 0.7413653 0.7726930
0.8688300 0.7944020 0.8283228
0.9188387 0.7881670 0.8428771
0.0222980 0.7495700 0.7515540
0.1736898 0.7474713 0.7546773
0.3687128 0.7285359 0.7471793
0.5386679 0.7046870 0.7376030
0.6201386 0.7204858 0.7505817
0.6982864 0.7349622 0.7510490
0.7851197 0.7924539 0.8071652
0.8612522 0.8240283 0.8233724
0.9704315 0.8927253 0.8479047
0.0083646 0.8749853 0.7500114
0.1258108 0.8747407 0.7500546
0.2588012 0.8715826 0.7499009
0.4203826 0.8419405 0.7452998
0.5317768 0.8235084 0.7420498
0.6619238 0.7814341 0.7473544
0.7660012 0.8065752 0.7683144
0.8061890 0.8072326 0.7883254
0.9464195 0.9014941 0.8428118
0.0082861 0.9917141 0.7500001
0.1250056 0.9917132 0.7500018
0.2502591 0.9915798 0.7500068
0.3763269 0.9905954 0.7500123
0.5036300 0.9887968 0.7511791
0.6504436 0.9594939 0.7643585
0.7719097 0.9015898 0.7879410
0.8312611 0.8813249 0.8171980
0.9553774 0.9224697 0.8332815
0.0082859 0.0082859 0.8750000
0.1250000 0.0082859 0.8750000
0.2500000 0.0082859 0.8750000
0.3750000 0.0082859 0.8750000
0.5000000 0.0082859 0.8750000
0.6250000 0.0082859 0.8750000
0.7500000 0.0082860 0.8750000
0.8750000 0.0082860 0.8750000
0.9917141 0.0082859 0.8750000
0.0083929 0.1251032 0.8749553
0.1250272 0.1250315 0.8749796
0.2500194 0.1250295 0.8749841
0.3750154 0.1250331 0.8749861
0.5000057 0.1250212 0.8749924
0.6250034 0.1250149 0.8749968
0.7500055 0.1250440 0.8749959
0.8750054 0.1250841 0.8750037
0.9917107 0.1250340 0.8750020
0.0197868 0.2582477 0.8709029
0.1286492 0.2531684 0.8733518
0.2514178 0.2515936 0.8741345
0.3768651 0.2528799 0.8738343
0.5012932 0.2531675 0.8741853
0.6253418 0.2514518 0.8746049
0.7507464 0.2547850 0.8746037
0.8760142 0.2630695 0.8757864
0.9909125 0.2575390 0.8756653
0.1782581 0.4653423 0.8411628
0.2045184 0.4267335 0.8533030
0.2880456 0.4059983 0.8598425
0.4037759 0.4074832 0.8603854
0.5217703 0.4127850 0.8618835
0.6373980 0.4093050 0.8689423
0.7674279 0.4612238 0.8693595
0.8860779 0.5238275 0.8872868
0.9809427 0.4721943 0.8880084
0.4071818 0.6547897 0.8340158
0.4389043 0.6430341 0.8324367
0.4483621 0.6075642 0.8287146
0.5463764 0.6304816 0.8293424
0.5950193 0.6067746 0.8213070
0.6935317 0.6324582 0.8496469
0.8313388 0.7386044 0.8897203
0.9001259 0.7829037 0.9163387
0.9677960 0.8130957 0.9479334
0.4854382 0.7379136 0.8649400
0.5580304 0.7501554 0.8557581
0.5823675 0.7599180 0.8635895
0.6423793 0.7613367 0.8452898
0.6760918 0.7295148 0.8200284
0.7337074 0.7462770 0.8338299
0.8058569 0.7711746 0.8595627
0.8724518 0.7896121 0.8848624
0.9383762 0.8437157 0.9295977
0.1208698 0.7604898 0.8797364
0.3242279 0.7644457 0.8722700
0.4355780 0.7555521 0.8533853
0.6258908 0.7574201 0.8234365
0.6806216 0.7698783 0.8305827
0.8160793 0.8631075 0.8932033
0.8094944 0.8200194 0.8615391
0.8746827 0.8394873 0.8570427
0.9301208 0.8587583 0.8953997
0.0110856 0.8749751 0.8753020
0.1518502 0.8758357 0.8791607
0.3187752 0.8714853 0.8790195
0.6008440 0.8020756 0.8211114
0.6515363 0.8242193 0.8601135
0.7256790 0.8141730 0.8374156
0.7871752 0.8230062 0.8381041
0.8592747 0.8707563 0.8895020
0.9535867 0.9088623 0.8763061
0.0083222 0.9917089 0.8750049
0.1260474 0.9915660 0.8751677
0.2591494 0.9877558 0.8739129
0.4122399 0.9674440 0.8653671
0.5307978 0.9688641 0.8747432
0.6740783 0.9330128 0.8614713
0.7708980 0.8718900 0.8463343
0.8226458 0.8462191 0.8485642
0.9325545 0.9109682 0.8631179
0.0082859 0.0082859 0.9917141
0.1250000 0.0082859 0.9917141
0.2500000 0.0082859 0.9917141
0.3750000 0.0082859 0.9917141
0.5000000 0.0082859 0.9917141
0.6250000 0.0082859 0.9917141
0.7500000 0.0082859 0.9917141
0.8750000 0.0082859 0.9917141
0.9917141 0.0082859 0.9917141
0.0082862 0.1250003 0.9917139
0.1250001 0.1250001 0.9917141
0.2500000 0.1250000 0.9917141
0.3750000 0.1250000 0.9917141
0.5000000 0.1250000 0.9917141
0.6250000 0.1250000 0.9917141
0.7500000 0.1250001 0.9917141
0.8750001 0.1250005 0.9917141
0.9917141 0.1250003 0.9917141
0.0084606 0.2501320 0.9916402
0.1250532 0.2500506 0.9916865
0.2500076 0.2500090 0.9917077
0.3750067 0.2500103 0.9917079
0.5000076 0.2500185 0.9917041
0.6250055 0.2500158 0.9917087
0.7500210 0.2500965 0.9916962
0.8750112 0.2501948 0.9916840
0.9917032 0.2501247 0.9917016
0.0151610 0.3789252 0.9893159
0.1277969 0.3769383 0.9904438
0.2511148 0.3759698 0.9910574
0.3760055 0.3761779 0.9910218
0.5005001 0.3758965 0.9910981
0.6257718 0.3766327 0.9912039
0.7528592 0.3853147 0.9897588
0.8759050 0.3877030 0.9897352
0.9907973 0.3938808 0.9909216
0.0953256 0.5364560 0.9696627
0.1888725 0.5336596 0.9747688
0.2750447 0.5174719 0.9842635
0.3983437 0.5176947 0.9790090
0.5155194 0.5178468 0.9791217
0.6414559 0.5283022 0.9817299
0.7681990 0.5516200 0.9786387
0.8866031 0.5970122 0.9769198
0.9798380 0.7051437 0.9819897
0.3791795 0.7262570 0.9301360
0.4953609 0.7545192 0.9255062
0.4839076 0.7286477 0.9470543
0.5586580 0.7402613 0.9478798
0.6377049 0.7271098 0.9329035
0.7181267 0.7287855 0.9309961
0.8085127 0.7341051 0.9607579
0.8929212 0.7875406 0.9580072
0.9568548 0.8465950 0.9681846
0.1636518 0.7688193 0.9748391
0.5700088 0.8356863 0.9590569
0.6379415 0.8440352 0.9551971
0.7045441 0.8641022 0.9452575
0.7475626 0.8515021 0.9244772
0.7769877 0.8409600 0.9130207
0.8079464 0.8143318 0.8578828
0.8748266 0.8432897 0.9246580
0.9296737 0.8739305 0.9496251
0.0236190 0.8754170 0.9913455
0.2856701 0.8813142 0.9875846
0.6094694 0.8980420 0.9822110
0.6061468 0.8280998 0.8997058
0.6951970 0.8536893 0.9236942
0.7779669 0.8604285 0.9150496
0.8639844 0.9080006 0.9394965
0.8722571 0.8843966 0.9155062
0.9329305 0.9017085 0.9311258
0.0085025 0.9916834 0.9917092
0.1312429 0.9908316 0.9915860
0.2799796 0.9860753 0.9904639
0.4170033 0.9645418 0.9684177
0.5947950 0.9372649 0.9585255
0.7242544 0.8798000 0.9162256
0.8115923 0.8718633 0.9049613
0.8920568 0.9289486 0.9468461
0.9437562 0.9542447 0.9564584
