looks/recipe_reala100.cube
TITLE "Fuji recipe Reala 100 (16 RAFs)"
LUT_3D_SIZE 33
0.0275795 0.0323448 0.0291127
0.0449500 0.0394419 0.0339190
0.0695881 0.0415819 0.0335154
0.0905982 0.0413086 0.0314219
0.1122114 0.0426277 0.0310128
0.1341719 0.0452686 0.0317399
0.1508097 0.0462220 0.0313551
0.1578494 0.0435255 0.0286705
0.1702684 0.0425819 0.0271248
0.2170698 0.0506058 0.0279094
0.3023015 0.0684671 0.0296814
0.3447739 0.0795900 0.0310642
0.3691624 0.0839878 0.0306477
0.3960923 0.0870161 0.0295404
0.4234384 0.0883792 0.0289313
0.4694501 0.0973590 0.0301796
0.5089169 0.1061727 0.0312207
0.5407135 0.1128011 0.0316786
0.5704585 0.1189627 0.0319953
0.5982180 0.1241222 0.0318830
0.6248591 0.1279280 0.0312010
0.6476629 0.1275221 0.0298640
0.6651787 0.1140685 0.0274063
0.6922350 0.0929509 0.0256336
0.7294689 0.0773824 0.0261589
0.7633603 0.0586427 0.0227146
0.7985619 0.0402479 0.0184048
0.8351671 0.0286214 0.0160581
0.8695786 0.0199954 0.0131782
0.9030805 0.0137300 0.0105835
0.9360422 0.0103232 0.0091466
0.9677321 0.0089082 0.0085499
0.9915367 0.0084662 0.0083635
0.0252029 0.0402924 0.0294903
0.0431420 0.0505006 0.0372690
0.0675466 0.0577647 0.0406993
0.0898166 0.0588281 0.0382882
0.1119104 0.0584105 0.0360203
0.1339359 0.0593012 0.0360133
0.1537794 0.0599477 0.0359281
0.1692304 0.0601576 0.0347670
0.1857009 0.0611113 0.0336907
0.2238938 0.0663300 0.0328317
0.2944449 0.0784031 0.0330051
0.3381245 0.0850776 0.0332961
0.3672411 0.0888485 0.0325094
0.3947141 0.0925747 0.0317469
0.4213666 0.0972149 0.0324573
0.4657517 0.1079511 0.0340400
0.5054514 0.1169802 0.0346289
0.5383985 0.1236301 0.0345611
0.5691666 0.1297664 0.0343487
0.5975586 0.1348762 0.0338630
0.6243531 0.1383324 0.0328650
0.6475627 0.1378063 0.0313316
0.6668772 0.1289371 0.0302485
0.6951100 0.1167329 0.0308974
0.7278189 0.1055474 0.0313812
0.7597874 0.0877006 0.0274774
0.7960086 0.0708467 0.0238321
0.8321812 0.0584754 0.0204754
0.8668492 0.0473677 0.0157570
0.9014073 0.0390385 0.0117951
0.9352350 0.0345149 0.0096258
0.9674025 0.0326298 0.0087218
0.9914051 0.0320262 0.0084311
0.0239544 0.0567373 0.0322614
0.0397956 0.0678828 0.0391801
0.0632798 0.0776070 0.0456757
0.0881151 0.0802808 0.0457566
0.1114982 0.0796544 0.0427062
0.1336250 0.0802672 0.0409157
0.1586147 0.0826698 0.0401981
0.1851850 0.0871667 0.0402942
0.2087426 0.0920770 0.0412104
0.2380241 0.0953588 0.0401708
0.2855723 0.0980345 0.0381236
0.3272520 0.0972926 0.0360200
0.3625107 0.1009614 0.0350310
0.3881746 0.1047569 0.0354968
0.4109042 0.1094217 0.0385479
0.4543488 0.1191071 0.0399437
0.4960314 0.1267554 0.0391529
0.5316798 0.1322377 0.0377863
0.5649970 0.1371261 0.0362998
0.5953137 0.1412498 0.0349831
0.6227136 0.1436270 0.0336928
0.6480388 0.1433512 0.0329426
0.6741922 0.1429016 0.0351946
0.7039110 0.1417541 0.0385592
0.7294583 0.1335449 0.0373853
0.7587690 0.1187866 0.0333192
0.7949352 0.1068531 0.0312060
0.8292176 0.0942516 0.0259588
0.8637250 0.0810259 0.0187436
0.8993817 0.0712939 0.0132794
0.9341387 0.0660211 0.0103144
0.9668893 0.0637648 0.0090400
0.9911646 0.0629857 0.0085902
0.0275742 0.0822240 0.0363216
0.0378610 0.0879205 0.0405275
0.0568816 0.0952197 0.0473593
0.0825099 0.1000537 0.0519176
0.1084442 0.0999878 0.0505869
0.1325254 0.1000640 0.0481233
0.1604486 0.1023007 0.0463354
0.1922374 0.1072396 0.0453745
0.2234531 0.1141340 0.0456443
0.2546624 0.1193790 0.0452892
0.2896658 0.1207222 0.0431093
0.3253722 0.1230148 0.0408231
0.3650781 0.1307798 0.0400875
0.3904998 0.1316894 0.0392963
0.4163066 0.1293929 0.0397048
0.4590311 0.1347565 0.0392814
0.4965294 0.1389098 0.0382451
0.5303803 0.1404553 0.0365635
0.5637421 0.1411698 0.0349905
0.5945528 0.1433160 0.0337449
0.6218455 0.1459125 0.0334815
0.6491336 0.1497125 0.0360774
0.6824198 0.1557390 0.0407747
0.7110798 0.1583173 0.0433476
0.7328777 0.1524156 0.0409815
0.7608709 0.1428424 0.0376634
0.7942331 0.1352905 0.0357031
0.8267318 0.1240698 0.0290555
0.8615072 0.1116809 0.0206821
0.8978695 0.1028877 0.0147521
0.9330354 0.0979194 0.0113410
0.9661922 0.0955083 0.0096232
0.9907535 0.0945350 0.0089009
0.0287547 0.0988493 0.0341322
0.0370169 0.1014304 0.0391939
0.0545099 0.1107020 0.0491021
0.0764259 0.1186336 0.0562198
0.1009726 0.1205694 0.0581880
0.1273598 0.1194424 0.0564202
0.1580692 0.1202512 0.0542145
0.1944820 0.1247939 0.0530453
0.2322467 0.1321047 0.0525345
0.2677104 0.1387011 0.0512832
0.3042285 0.1445718 0.0496525
0.3421211 0.1516832 0.0485607
0.3813054 0.1589725 0.0468073
0.4089552 0.1603107 0.0431759
0.4429210 0.1622262 0.0389636
0.4822926 0.1676654 0.0358713
0.5076178 0.1671804 0.0350258
0.5343561 0.1631072 0.0337739
0.5653858 0.1583160 0.0339186
0.5963129 0.1577652 0.0347792
0.6245258 0.1570169 0.0347267
0.6537519 0.1606379 0.0375203
0.6866322 0.1653621 0.0399708
0.7139047 0.1672705 0.0407300
0.7361895 0.1648584 0.0393336
0.7631544 0.1613346 0.0380785
0.7931524 0.1576609 0.0364009
0.8249078 0.1495683 0.0298693
0.8603294 0.1406979 0.0223744
0.8967047 0.1343952 0.0170082
0.9316896 0.1300703 0.0131084
0.9651467 0.1273603 0.0105518
0.9901246 0.1261019 0.0093443
0.0275322 0.1141989 0.0310936
0.0393741 0.1162424 0.0393500
0.0572791 0.1264840 0.0522244
0.0742976 0.1359880 0.0597276
0.0940433 0.1397109 0.0628977
0.1193408 0.1397779 0.0631243
0.1512081 0.1385023 0.0606200
0.1916859 0.1413319 0.0593842
0.2343014 0.1484636 0.0596926
0.2725656 0.1548684 0.0581411
0.3120567 0.1629374 0.0567626
0.3538689 0.1733074 0.0571535
0.3975698 0.1812338 0.0551872
0.4308152 0.1829317 0.0495337
0.4639434 0.1846702 0.0421050
0.4986804 0.1902237 0.0376120
0.5194609 0.1910489 0.0352389
0.5423907 0.1915888 0.0349599
0.5717077 0.1935199 0.0382864
0.6015671 0.1950122 0.0436817
0.6280007 0.1859470 0.0411131
0.6563026 0.1804760 0.0379331
0.6869956 0.1782405 0.0353896
0.7155930 0.1777884 0.0340940
0.7412817 0.1785128 0.0347221
0.7683119 0.1793877 0.0359133
0.7959828 0.1779118 0.0342429
0.8269473 0.1739264 0.0296314
0.8610286 0.1697827 0.0248145
0.8953803 0.1655834 0.0197916
0.9299848 0.1616190 0.0149291
0.9640340 0.1588113 0.0114456
0.9895127 0.1574602 0.0097621
0.0271437 0.1429372 0.0297451
0.0446485 0.1420761 0.0406001
0.0607193 0.1443104 0.0517569
0.0729105 0.1504122 0.0595178
0.0894473 0.1572017 0.0668319
0.1130312 0.1618509 0.0706564
0.1442115 0.1588773 0.0670107
0.1849446 0.1597458 0.0659175
0.2275283 0.1660902 0.0669557
0.2675306 0.1719738 0.0652944
0.3076685 0.1798663 0.0650647
0.3510740 0.1939482 0.0689562
0.3985508 0.2027294 0.0670339
0.4388587 0.2043673 0.0599956
0.4780194 0.2053317 0.0523333
0.5204543 0.2126231 0.0488729
0.5415142 0.2124512 0.0435666
0.5615631 0.2163470 0.0432265
0.5879695 0.2253523 0.0484104
0.6099792 0.2316087 0.0569897
0.6314828 0.2250874 0.0530460
0.6577653 0.2151289 0.0439966
0.6877021 0.2065912 0.0360860
0.7178968 0.2006823 0.0304317
0.7460339 0.1991236 0.0299409
0.7733491 0.1995466 0.0307062
0.8009778 0.1993430 0.0298104
0.8312783 0.1991652 0.0288061
0.8622938 0.1978033 0.0261059
0.8947008 0.1949250 0.0210859
0.9291707 0.1918314 0.0157391
0.9635435 0.1896144 0.0118908
0.9892388 0.1885352 0.0100095
0.0262657 0.1819829 0.0275062
0.0453586 0.1753063 0.0360896
0.0630233 0.1688397 0.0464060
0.0737674 0.1670271 0.0563400
0.0855913 0.1721835 0.0675187
0.1048417 0.1815943 0.0769641
0.1311951 0.1865903 0.0795628
0.1692076 0.1902320 0.0818431
0.2123595 0.1951932 0.0830179
0.2562736 0.2001879 0.0790928
0.2995758 0.2061773 0.0783712
0.3418145 0.2180894 0.0833588
0.3891871 0.2241873 0.0801010
0.4377945 0.2224766 0.0691377
0.4935804 0.2301150 0.0650319
0.5557666 0.2444095 0.0653195
0.5712203 0.2365780 0.0549262
0.5893948 0.2376829 0.0516525
0.6118475 0.2487772 0.0588480
0.6242402 0.2563919 0.0692313
0.6428836 0.2575798 0.0669674
0.6707465 0.2557455 0.0564283
0.6987196 0.2488891 0.0438142
0.7237823 0.2374672 0.0330069
0.7495947 0.2290881 0.0283814
0.7767367 0.2253191 0.0264326
0.8048265 0.2244339 0.0254882
0.8344609 0.2248684 0.0259951
0.8641912 0.2243687 0.0242116
0.8959639 0.2228501 0.0198330
0.9300286 0.2212452 0.0151766
0.9639681 0.2200896 0.0118122
0.9893866 0.2194758 0.0100815
0.0213457 0.2231297 0.0217307
0.0427699 0.2138209 0.0287899
0.0648332 0.2023788 0.0401869
0.0784791 0.1940747 0.0533068
0.0860344 0.1915874 0.0646318
0.0986511 0.2003562 0.0780973
0.1208322 0.2141726 0.0908164
0.1532112 0.2234812 0.0962694
0.1980686 0.2288678 0.0965615
0.2445402 0.2351469 0.0924099
0.2926245 0.2441500 0.0957502
0.3376391 0.2498070 0.0980535
0.3897789 0.2519607 0.0926120
0.4397474 0.2423387 0.0768207
0.4942412 0.2498109 0.0744153
0.5660692 0.2652465 0.0749396
0.5894102 0.2574500 0.0620031
0.6175854 0.2616855 0.0594690
0.6494153 0.2780242 0.0711585
0.6584544 0.2836305 0.0806552
0.6730518 0.2879018 0.0796168
0.7003985 0.2942694 0.0707286
0.7172237 0.2883008 0.0554593
0.7325021 0.2760811 0.0409319
0.7541670 0.2656015 0.0318753
0.7795058 0.2571021 0.0257544
0.8073091 0.2532065 0.0225549
0.8371474 0.2520152 0.0215719
0.8672434 0.2515582 0.0199061
0.8988540 0.2512137 0.0168775
0.9320439 0.2509078 0.0137269
0.9649603 0.2506110 0.0113039
0.9897869 0.2503791 0.0099232
0.0169316 0.2643244 0.0171803
0.0404964 0.2553738 0.0237750
0.0667777 0.2426312 0.0359274
0.0835314 0.2303372 0.0496191
0.0894895 0.2190887 0.0603858
0.0979502 0.2202580 0.0752159
0.1182109 0.2368178 0.0958794
0.1445174 0.2554997 0.1087903
0.1778048 0.2677608 0.1105236
0.2227463 0.2751951 0.1061212
0.2859379 0.2766795 0.1044410
0.3381029 0.2831094 0.1086983
0.3935289 0.2899034 0.1090485
0.4363367 0.2764545 0.0935680
0.4698111 0.2745809 0.0901854
0.5337955 0.2831947 0.0874999
0.5818972 0.2842574 0.0768223
0.6337128 0.2917230 0.0734637
0.6780877 0.3071119 0.0818856
0.7008411 0.3154102 0.0882559
0.7162439 0.3214260 0.0899675
0.7261356 0.3232606 0.0822336
0.7309278 0.3178361 0.0675434
0.7428862 0.3116595 0.0545775
0.7614740 0.3045463 0.0433363
0.7835993 0.2953714 0.0330134
0.8095206 0.2876660 0.0247528
0.8394120 0.2830241 0.0190775
0.8702182 0.2814507 0.0161401
0.9018411 0.2811793 0.0139598
0.9341347 0.2812779 0.0120562
0.9660488 0.2813522 0.0105187
0.9903179 0.2813555 0.0095826
0.0144713 0.3033755 0.0151602
0.0386402 0.2952850 0.0201053
0.0665653 0.2807852 0.0297017
0.0858570 0.2626767 0.0414214
0.0965432 0.2465453 0.0554246
0.1064322 0.2428851 0.0739636
0.1211479 0.2548337 0.0961198
0.1432072 0.2774367 0.1170082
0.1697793 0.2993932 0.1274354
0.2092011 0.3082698 0.1219050
0.2774632 0.3064222 0.1111403
0.3336555 0.3065213 0.1100467
0.3775178 0.3145167 0.1153886
0.4123850 0.3116649 0.1076639
0.4386750 0.3012876 0.1005265
0.4784361 0.3004803 0.1012603
0.5304586 0.3055354 0.0969721
0.6035035 0.3139960 0.0899263
0.6641450 0.3287629 0.0938348
0.7069364 0.3362392 0.0941544
0.7295668 0.3421591 0.0952877
0.7350877 0.3435389 0.0896044
0.7413528 0.3436890 0.0801233
0.7554095 0.3449141 0.0726518
0.7713577 0.3413163 0.0610608
0.7899678 0.3335079 0.0463973
0.8126348 0.3237914 0.0316105
0.8407784 0.3169195 0.0207940
0.8716186 0.3137838 0.0154060
0.9034999 0.3125294 0.0124776
0.9354947 0.3123178 0.0107811
0.9669256 0.3123970 0.0097561
0.9908352 0.3124625 0.0091827
0.0119556 0.3380050 0.0123263
0.0361083 0.3311510 0.0156311
0.0650772 0.3176690 0.0221013
0.0890841 0.2998168 0.0326565
0.1074872 0.2837045 0.0493839
0.1208061 0.2750218 0.0710851
0.1328882 0.2779272 0.0952052
0.1517446 0.2979383 0.1222158
0.1755354 0.3261183 0.1408565
0.2032307 0.3419349 0.1406544
0.2538365 0.3471686 0.1294201
0.3196829 0.3396067 0.1160946
0.3702500 0.3364722 0.1121731
0.4072624 0.3414622 0.1100836
0.4347514 0.3386977 0.1066573
0.4638106 0.3302584 0.1091885
0.4998404 0.3262739 0.1101238
0.5484921 0.3334785 0.1097116
0.6028677 0.3443387 0.1084983
0.6639053 0.3478748 0.0985191
0.6983435 0.3528374 0.0942620
0.7203638 0.3591910 0.0915139
0.7480077 0.3677997 0.0921026
0.7680603 0.3730238 0.0899629
0.7823566 0.3728126 0.0800047
0.7962421 0.3659504 0.0606418
0.8153607 0.3562934 0.0391924
0.8416185 0.3490417 0.0239150
0.8719078 0.3453579 0.0161316
0.9037757 0.3440396 0.0123472
0.9359466 0.3437476 0.0103105
0.9674196 0.3436788 0.0092738
0.9912152 0.3436776 0.0088293
0.0100604 0.3712418 0.0101078
0.0340017 0.3664718 0.0120221
0.0642967 0.3569960 0.0164461
0.0927194 0.3437833 0.0254326
0.1169958 0.3291290 0.0408377
0.1362855 0.3176044 0.0637369
0.1529633 0.3159447 0.0939592
0.1688527 0.3284379 0.1243113
0.1881253 0.3546249 0.1492899
0.2078516 0.3735488 0.1576684
0.2375427 0.3831568 0.1505663
0.2921165 0.3812002 0.1317939
0.3629910 0.3727771 0.1135255
0.4229401 0.3800288 0.1142687
0.4597026 0.3877969 0.1215310
0.4812726 0.3802217 0.1246422
0.5008973 0.3588305 0.1183754
0.5314950 0.3520826 0.1165884
0.5659148 0.3564390 0.1141832
0.6038854 0.3615400 0.1068002
0.6323028 0.3665853 0.0973764
0.6765428 0.3746685 0.0902364
0.7397467 0.3867159 0.0958572
0.7751442 0.3947480 0.0992210
0.7883360 0.3952616 0.0892940
0.7988236 0.3901310 0.0669029
0.8164704 0.3836763 0.0424171
0.8422798 0.3787461 0.0248865
0.8724000 0.3760232 0.0159577
0.9040756 0.3751242 0.0120886
0.9361985 0.3750854 0.0101598
0.9676432 0.3750568 0.0091146
0.9914147 0.3749932 0.0086531
0.0090426 0.4042469 0.0090255
0.0328560 0.4016342 0.0100596
0.0639179 0.3962077 0.0129376
0.0946497 0.3876617 0.0194030
0.1239177 0.3771965 0.0327651
0.1515154 0.3690096 0.0573310
0.1746871 0.3673901 0.0914270
0.1917924 0.3737398 0.1265414
0.2050112 0.3850682 0.1512941
0.2219855 0.3996793 0.1645643
0.2445503 0.4136178 0.1656564
0.2794441 0.4175117 0.1489083
0.3468199 0.4144283 0.1241667
0.4274700 0.4149550 0.1163751
0.4735609 0.4163055 0.1276077
0.4909615 0.4130136 0.1350133
0.5052149 0.3963912 0.1241707
0.5334662 0.3752859 0.1107499
0.5639867 0.3714244 0.1087020
0.5896459 0.3774676 0.1105863
0.6094341 0.3837188 0.1015524
0.6529807 0.3924766 0.0889322
0.7268736 0.4027952 0.0883840
0.7697828 0.4104776 0.0907177
0.7849970 0.4120248 0.0814954
0.7971073 0.4106020 0.0611616
0.8161444 0.4089178 0.0393503
0.8426731 0.4075975 0.0235993
0.8730522 0.4068960 0.0157385
0.9045781 0.4066250 0.0123248
0.9364459 0.4066989 0.0105244
0.9677167 0.4065599 0.0093456
0.9914417 0.4063811 0.0087381
0.0085795 0.4366476 0.0085680
0.0322934 0.4354739 0.0091115
0.0635530 0.4328337 0.0108234
0.0957133 0.4284647 0.0155948
0.1292434 0.4237173 0.0282078
0.1629718 0.4200540 0.0533591
0.1902476 0.4160405 0.0872569
0.2088547 0.4140779 0.1218691
0.2231063 0.4170800 0.1491293
0.2415655 0.4308454 0.1699351
0.2620624 0.4477086 0.1770317
0.2850953 0.4551955 0.1648449
0.3352869 0.4579613 0.1426812
0.4147903 0.4502811 0.1213315
0.4680262 0.4356781 0.1188946
0.4891354 0.4290240 0.1227466
0.5048556 0.4214277 0.1108028
0.5350982 0.4045369 0.0928315
0.5715010 0.3964205 0.0935849
0.5944769 0.3964294 0.0990369
0.6111209 0.4020015 0.0915401
0.6475598 0.4126911 0.0777195
0.7114792 0.4233618 0.0708191
0.7548702 0.4300711 0.0696246
0.7755939 0.4325404 0.0624879
0.7928389 0.4341541 0.0480192
0.8150923 0.4360648 0.0329942
0.8429370 0.4376864 0.0224072
0.8735521 0.4389444 0.0175591
0.9047394 0.4389365 0.0145373
0.9362875 0.4384548 0.0118968
0.9675265 0.4379864 0.0099833
0.9913203 0.4377108 0.0090144
0.0083990 0.4684562 0.0083970
0.0320321 0.4680216 0.0086832
0.0634050 0.4670372 0.0098552
0.0962959 0.4652290 0.0137205
0.1305039 0.4622253 0.0235741
0.1643640 0.4576396 0.0424373
0.1935415 0.4507669 0.0689162
0.2173003 0.4451782 0.1003857
0.2390260 0.4473898 0.1354984
0.2583661 0.4590749 0.1676125
0.2742468 0.4716783 0.1846340
0.2937748 0.4812453 0.1807391
0.3289255 0.4878216 0.1615850
0.3910240 0.4844044 0.1318865
0.4506182 0.4664633 0.1086144
0.4810333 0.4541973 0.0985702
0.5010046 0.4508956 0.0855717
0.5312684 0.4444463 0.0705324
0.5702971 0.4319548 0.0702566
0.5954665 0.4261695 0.0738500
0.6149548 0.4305987 0.0683058
0.6461958 0.4415245 0.0578975
0.6948274 0.4525866 0.0512984
0.7384016 0.4584038 0.0486604
0.7658534 0.4606693 0.0438524
0.7885222 0.4629452 0.0355041
0.8141416 0.4659942 0.0275312
0.8432372 0.4688884 0.0227899
0.8736405 0.4704392 0.0203151
0.9044546 0.4703228 0.0170139
0.9359090 0.4696852 0.0133401
0.9672595 0.4691887 0.0106415
0.9911727 0.4689382 0.0092958
0.0083369 0.4999189 0.0083398
0.0319240 0.4997804 0.0085157
0.0631609 0.4993800 0.0092673
0.0955964 0.4983288 0.0116884
0.1286847 0.4957820 0.0175138
0.1614644 0.4910670 0.0286262
0.1927986 0.4845909 0.0467337
0.2228861 0.4794183 0.0742596
0.2500101 0.4791043 0.1107985
0.2704001 0.4824973 0.1483816
0.2886116 0.4899708 0.1755348
0.3117437 0.5017124 0.1850077
0.3399743 0.5102393 0.1712087
0.3852021 0.5158415 0.1429465
0.4328629 0.5101969 0.1140022
0.4670531 0.4974830 0.0899074
0.4959231 0.4938986 0.0720544
0.5282642 0.4898380 0.0562680
0.5657785 0.4756375 0.0485964
0.5945797 0.4680089 0.0472083
0.6191944 0.4706859 0.0433471
0.6492462 0.4788234 0.0374503
0.6884477 0.4873258 0.0340929
0.7282666 0.4917064 0.0328648
0.7587337 0.4930697 0.0304387
0.7855041 0.4946086 0.0265433
0.8137805 0.4972717 0.0237751
0.8436252 0.4998918 0.0232995
0.8736870 0.5008457 0.0217522
0.9042737 0.5007316 0.0180408
0.9357296 0.5004283 0.0139290
0.9671444 0.5001996 0.0109146
0.9911102 0.5000855 0.0094128
0.0083099 0.5312281 0.0083147
0.0318377 0.5311728 0.0084068
0.0628378 0.5309541 0.0087743
0.0946354 0.5302874 0.0099042
0.1267923 0.5286619 0.0126828
0.1592293 0.5255600 0.0186138
0.1921316 0.5211327 0.0303374
0.2248989 0.5164216 0.0509779
0.2545777 0.5119633 0.0809101
0.2804836 0.5099519 0.1161889
0.3050253 0.5138234 0.1497254
0.3249378 0.5201243 0.1688308
0.3484649 0.5280820 0.1666542
0.3818639 0.5371577 0.1502100
0.4122451 0.5404229 0.1285776
0.4497796 0.5396697 0.1046389
0.4897848 0.5401779 0.0831685
0.5251693 0.5353251 0.0603497
0.5605927 0.5229604 0.0403461
0.5926424 0.5152146 0.0304875
0.6221649 0.5148823 0.0257108
0.6531350 0.5191157 0.0229484
0.6876779 0.5241220 0.0227388
0.7226470 0.5264589 0.0229715
0.7538118 0.5266702 0.0215766
0.7834634 0.5273899 0.0200867
0.8137385 0.5292195 0.0207540
0.8438993 0.5304400 0.0217648
0.8738798 0.5308008 0.0204271
0.9044823 0.5309448 0.0170336
0.9359130 0.5310740 0.0133432
0.9672600 0.5311680 0.0106417
0.9911729 0.5312149 0.0092959
0.0082950 0.5624917 0.0082995
0.0317776 0.5624657 0.0083365
0.0626301 0.5623629 0.0084765
0.0940874 0.5620444 0.0089119
0.1257787 0.5612432 0.0100896
0.1579466 0.5596203 0.0130531
0.1908249 0.5568980 0.0198019
0.2237646 0.5527386 0.0327834
0.2558634 0.5476408 0.0538353
0.2866665 0.5438382 0.0834198
0.3112533 0.5415851 0.1165079
0.3269200 0.5414907 0.1425977
0.3447894 0.5467410 0.1566131
0.3741727 0.5549660 0.1571288
0.4048998 0.5618424 0.1459620
0.4425999 0.5686482 0.1263892
0.4816127 0.5709928 0.0985344
0.5190718 0.5685893 0.0681778
0.5549957 0.5634695 0.0423732
0.5896919 0.5592719 0.0262669
0.6232098 0.5568159 0.0182047
0.6557750 0.5575534 0.0159464
0.6883067 0.5594259 0.0170425
0.7201042 0.5601565 0.0178233
0.7508994 0.5601360 0.0168189
0.7818921 0.5602894 0.0157701
0.8133032 0.5608176 0.0170466
0.8439111 0.5610389 0.0180371
0.8742003 0.5612257 0.0170335
0.9049779 0.5615839 0.0145825
0.9363561 0.5619704 0.0119262
0.9675395 0.5622534 0.0099821
0.9913241 0.5623944 0.0090140
0.0082887 0.5937466 0.0082914
0.0317519 0.5937365 0.0083046
0.0625427 0.5936981 0.0083502
0.0938642 0.5935763 0.0084981
0.1253289 0.5932494 0.0089657
0.1571159 0.5924960 0.0103127
0.1893953 0.5909608 0.0137240
0.2221959 0.5882785 0.0211952
0.2552697 0.5843165 0.0352947
0.2863496 0.5790676 0.0586264
0.3107698 0.5728171 0.0900324
0.3285309 0.5677379 0.1204029
0.3477775 0.5683534 0.1435538
0.3780854 0.5753439 0.1566582
0.4140217 0.5837345 0.1550621
0.4442677 0.5893737 0.1369606
0.4759896 0.5922384 0.1043607
0.5133394 0.5937344 0.0701910
0.5512604 0.5940750 0.0434277
0.5878774 0.5937356 0.0259369
0.6228786 0.5928059 0.0165663
0.6562724 0.5923266 0.0132318
0.6882930 0.5922934 0.0134191
0.7193085 0.5922801 0.0138922
0.7500721 0.5923667 0.0133302
0.7813075 0.5924587 0.0126575
0.8128852 0.5923805 0.0133671
0.8438411 0.5922995 0.0139291
0.8745378 0.5924543 0.0133437
0.9055142 0.5928176 0.0119273
0.9368352 0.5932111 0.0103937
0.9678410 0.5934989 0.0092711
0.9914859 0.5936427 0.0087130
0.0082866 0.6249987 0.0082878
0.0317440 0.6249955 0.0082920
0.0625150 0.6249833 0.0083067
0.0937863 0.6249434 0.0083555
0.1251289 0.6248259 0.0085282
0.1566362 0.6245046 0.0090924
0.1884858 0.6237378 0.0107232
0.2209028 0.6221551 0.0150105
0.2535678 0.6189340 0.0246021
0.2845807 0.6131651 0.0419592
0.3115646 0.6055230 0.0668782
0.3354944 0.5985125 0.0951240
0.3594456 0.5954491 0.1219683
0.3866017 0.5973826 0.1382474
0.4214392 0.6038621 0.1398795
0.4495979 0.6092782 0.1255911
0.4795474 0.6146647 0.0983074
0.5147201 0.6194509 0.0680976
0.5511227 0.6223323 0.0424968
0.5875636 0.6239399 0.0251498
0.6225374 0.6246173 0.0158860
0.6556956 0.6245713 0.0119243
0.6877404 0.6242245 0.0109467
0.7189894 0.6240634 0.0109182
0.7500342 0.6241344 0.0106733
0.7813196 0.6242184 0.0104096
0.8126988 0.6241142 0.0106940
0.8437934 0.6240348 0.0109174
0.8747845 0.6241372 0.0106398
0.9059062 0.6243791 0.0099850
0.9371836 0.6246408 0.0092792
0.9680583 0.6248312 0.0087591
0.9916012 0.6249270 0.0084993
0.0082860 0.6562496 0.0082865
0.0317421 0.6562487 0.0082877
0.0625079 0.6562451 0.0082924
0.0937605 0.6562328 0.0083089
0.1250459 0.6561922 0.0083714
0.1564230 0.6560636 0.0086145
0.1880404 0.6556800 0.0094660
0.2200695 0.6546267 0.0120085
0.2523364 0.6521417 0.0181110
0.2838928 0.6474966 0.0294046
0.3139121 0.6409934 0.0461918
0.3424715 0.6339661 0.0677856
0.3679951 0.6281033 0.0896161
0.3942275 0.6264451 0.1027349
0.4275284 0.6304176 0.1054184
0.4577670 0.6356094 0.0983902
0.4874489 0.6413952 0.0819773
0.5188960 0.6467570 0.0596568
0.5527032 0.6509668 0.0379440
0.5880231 0.6538358 0.0225995
0.6225520 0.6553518 0.0145608
0.6554471 0.6558691 0.0110121
0.6874185 0.6558555 0.0096306
0.7188171 0.6557936 0.0093081
0.7500363 0.6558201 0.0091997
0.7813357 0.6558464 0.0091375
0.8125988 0.6558005 0.0092308
0.8437666 0.6557724 0.0092915
0.8749163 0.6558256 0.0091825
0.9061157 0.6559435 0.0089424
0.9373689 0.6560704 0.0086856
0.9681732 0.6561621 0.0084883
0.9916627 0.6562095 0.0083846
0.0082859 0.6874999 0.0082860
0.0317417 0.6874996 0.0082864
0.0625062 0.6874986 0.0082878
0.0937536 0.6874950 0.0082935
0.1250202 0.6874804 0.0083195
0.1563403 0.6874219 0.0084393
0.1878093 0.6872066 0.0089068
0.2195494 0.6865425 0.0103459
0.2515261 0.6849438 0.0137978
0.2833565 0.6819483 0.0201289
0.3146275 0.6774359 0.0296857
0.3446911 0.6717104 0.0426473
0.3727081 0.6663071 0.0562520
0.4016291 0.6640855 0.0657247
0.4336045 0.6655234 0.0695459
0.4645501 0.6685886 0.0681310
0.4932358 0.6723580 0.0597205
0.5229111 0.6769122 0.0450184
0.5554456 0.6813994 0.0295633
0.5895099 0.6846468 0.0184673
0.6231441 0.6863800 0.0127050
0.6555940 0.6870830 0.0101663
0.6873167 0.6872903 0.0090433
0.7187287 0.6873248 0.0086637
0.7500133 0.6873346 0.0085806
0.7812916 0.6873319 0.0085777
0.8125347 0.6873158 0.0086080
0.8437485 0.6873130 0.0086232
0.8749629 0.6873353 0.0085917
0.9061942 0.6873790 0.0085216
0.9374408 0.6874257 0.0084412
0.9682201 0.6874608 0.0083718
0.9916897 0.6874800 0.0083314
0.0082859 0.7187500 0.0082859
0.0317416 0.7187499 0.0082860
0.0625058 0.7187496 0.0082865
0.0937516 0.7187484 0.0082885
0.1250098 0.7187423 0.0082999
0.1562937 0.7187123 0.0083560
0.1876501 0.7185950 0.0085763
0.2191442 0.7182332 0.0092550
0.2507762 0.7173627 0.0108794
0.2824089 0.7157222 0.0138325
0.3138200 0.7131462 0.0182732
0.3447647 0.7097000 0.0245673
0.3754982 0.7063434 0.0320711
0.4064257 0.7042914 0.0386851
0.4371391 0.7037776 0.0423864
0.4675685 0.7047415 0.0426168
0.4966234 0.7068591 0.0382833
0.5265506 0.7102388 0.0298308
0.5584441 0.7138262 0.0207681
0.5912924 0.7164379 0.0142376
0.6239195 0.7178267 0.0108507
0.6558565 0.7184072 0.0093711
0.6873578 0.7186217 0.0087051
0.7187082 0.7186867 0.0084470
0.7499926 0.7186981 0.0083863
0.7812552 0.7186913 0.0083891
0.8124965 0.7186838 0.0084106
0.8437234 0.7186840 0.0084327
0.8749533 0.7186902 0.0084355
0.9061947 0.7187041 0.0084149
0.9374461 0.7187198 0.0083777
0.9682259 0.7187329 0.0083391
0.9916945 0.7187406 0.0083147
0.0082859 0.7500000 0.0082859
0.0317416 0.7500000 0.0082859
0.0625057 0.7499999 0.0082860
0.0937506 0.7499995 0.0082868
0.1250037 0.7499967 0.0082910
0.1562665 0.7499833 0.0083120
