looks/recipe_trix400.cube
TITLE "Fuji recipe Tri-X 400 (16 RAFs)"
LUT_3D_SIZE 5
0.0788658 0.0788658 0.0788658
0.1302512 0.1302512 0.1302512
0.2406021 0.2406021 0.2406021
0.2565462 0.2565462 0.2565462
0.3360987 0.3360987 0.3360987
0.1373847 0.1373847 0.1373847
0.2360238 0.2360238 0.2360238
0.3152561 0.3152561 0.3152561
0.3502126 0.3502126 0.3502126
0.4166756 0.4166756 0.4166756
0.1722482 0.1722482 0.1722482
0.3528087 0.3528087 0.3528087
0.3997030 0.3997030 0.3997030
0.4254696 0.4254696 0.4254696
0.5001650 0.5001650 0.5001650
0.2555240 0.2555240 0.2555240
0.3367651 0.3367651 0.3367651
0.4366271 0.4366271 0.4366271
0.5028653 0.5028653 0.5028653
0.5834560 0.5834560 0.5834560
0.3360953 0.3360953 0.3360953
0.4166667 0.4166667 0.4166667
0.5000002 0.5000002 0.5000002
0.5833355 0.5833355 0.5833355
0.6639090 0.6639090 0.6639090
0.1246205 0.1246205 0.1246205
0.1861020 0.1861020 0.1861020
0.2740399 0.2740399 0.2740399
0.3375716 0.3375716 0.3375716
0.4166365 0.4166365 0.4166365
0.2384208 0.2384208 0.2384208
0.3265954 0.3265954 0.3265954
0.3796802 0.3796802 0.3796802
0.4182943 0.4182943 0.4182943
0.4943520 0.4943520 0.4943520
0.2560695 0.2560695 0.2560695
0.4254028 0.4254028 0.4254028
0.4886185 0.4886185 0.4886185
0.5485871 0.5485871 0.5485871
0.5882119 0.5882119 0.5882119
0.3361054 0.3361054 0.3361054
0.4247667 0.4247667 0.4247667
0.5824293 0.5824293 0.5824293
0.6296820 0.6296820 0.6296820
0.6731133 0.6731133 0.6731133
0.4166667 0.4166667 0.4166667
0.4972381 0.4972381 0.4972381
0.5806546 0.5806546 0.5806546
0.6641856 0.6641856 0.6641856
0.7434838 0.7434838 0.7434838
0.1726228 0.1726228 0.1726228
0.2530483 0.2530483 0.2530483
0.3365808 0.3365808 0.3365808
0.4196483 0.4196483 0.4196483
0.4999999 0.4999999 0.4999999
0.3351147 0.3351147 0.3351147
0.3650441 0.3650441 0.3650441
0.4237146 0.4237146 0.4237146
0.4790579 0.4790579 0.4790579
0.5786038 0.5786038 0.5786038
0.3868259 0.3868259 0.3868259
0.4839208 0.4839208 0.4839208
0.5870499 0.5870499 0.5870499
0.6015297 0.6015297 0.6015297
0.6416922 0.6416922 0.6416922
0.4194592 0.4194592 0.4194592
0.5028725 0.5028725 0.5028725
0.6301513 0.6301513 0.6301513
0.6954699 0.6954699 0.6954699
0.7316213 0.7316213 0.7316213
0.5000000 0.5000000 0.5000000
0.5805714 0.5805714 0.5805714
0.6640639 0.6640639 0.6640639
0.7519172 0.7519172 0.7519172
0.8263803 0.8263803 0.8263803
0.2555240 0.2555240 0.2555240
0.3360959 0.3360959 0.3360959
0.4194288 0.4194288 0.4194288
0.5027615 0.5027615 0.5027615
0.5833333 0.5833333 0.5833333
0.3376848 0.3376848 0.3376848
0.4176479 0.4176479 0.4176479
0.4999906 0.4999906 0.4999906
0.5799096 0.5799096 0.5799096
0.6621157 0.6621157 0.6621157
0.4971911 0.4971911 0.4971911
0.5457081 0.5457081 0.5457081
0.5929320 0.5929320 0.5929320
0.6473839 0.6473839 0.6473839
0.7057985 0.7057985 0.7057985
0.5064560 0.5064560 0.5064560
0.5990294 0.5990294 0.5990294
0.7052142 0.7052142 0.7052142
0.7826250 0.7826250 0.7826250
0.7831149 0.7831149 0.7831149
0.5833333 0.5833333 0.5833333
0.6639056 0.6639056 0.6639056
0.7531710 0.7531710 0.7531710
0.8511883 0.8511883 0.8511883
0.8330159 0.8330159 0.8330159
0.3360953 0.3360953 0.3360953
0.4166667 0.4166667 0.4166667
0.5000000 0.5000000 0.5000000
0.5833333 0.5833333 0.5833333
0.6639047 0.6639047 0.6639047
0.4166667 0.4166667 0.4166667
0.4972381 0.4972381 0.4972381
0.5805714 0.5805714 0.5805714
0.6639038 0.6639038 0.6639038
0.7444736 0.7444736 0.7444736
0.5001218 0.5001218 0.5001218
0.5823911 0.5823911 0.5823911
0.6643329 0.6643329 0.6643329
0.7362725 0.7362725 0.7362725
0.8134031 0.8134031 0.8134031
0.5836275 0.5836275 0.5836275
0.6700453 0.6700453 0.6700453
0.7532810 0.7532810 0.7532810
0.7961375 0.7961375 0.7961375
0.8216503 0.8216503 0.8216503
0.6639047 0.6639047 0.6639047
0.7441509 0.7441509 0.7441509
0.8188261 0.8188261 0.8188261
0.8938310 0.8938310 0.8938310
0.9414456 0.9414456 0.9414456
