looks/recipe_cinestill800t.cube
TITLE "Fuji recipe CineStill 800T (16 RAFs)"
LUT_3D_SIZE 5
0.0890616 0.1101246 0.1040860
0.3835334 0.1115227 0.1219419
0.6215546 0.1415933 0.1714295
0.7500710 0.0180184 0.0200111
0.9917140 0.0082861 0.0082861
0.0499058 0.2645516 0.0318527
0.3250878 0.2865099 0.0748404
0.6019228 0.3190158 0.1022139
0.7509140 0.2527342 0.0216212
0.9917101 0.2500026 0.0082943
0.0091404 0.4995455 0.0084341
0.2356847 0.4941164 0.0372907
0.5227498 0.4966053 0.0499184
0.7508129 0.5005612 0.0206733
0.9917043 0.5000051 0.0082986
0.0082866 0.7499994 0.0082860
0.2523703 0.7279322 0.0146157
0.4493183 0.6992815 0.0268741
0.7504328 0.7487771 0.0104569
0.9916600 0.7499762 0.0083808
0.0082859 0.9917141 0.0082859
0.2500036 0.9916996 0.0082878
0.4998702 0.9913031 0.0083425
0.7499995 0.9917132 0.0082867
0.9917140 0.9917140 0.0082860
0.0414691 0.1135373 0.2970635
0.2709775 0.0564984 0.2745983
0.5130441 0.0298054 0.2565535
0.7505490 0.0159152 0.2527532
0.9917132 0.0082875 0.2500007
0.0370575 0.2895138 0.3161354
0.3601313 0.3810131 0.3876458
0.6262475 0.3627645 0.3922355
0.7812957 0.3646196 0.3955741
0.9907175 0.2507945 0.2509638
0.0131576 0.5038044 0.2554462
0.2164533 0.5170158 0.2388922
0.5992679 0.5426474 0.3004910
0.7570035 0.5387770 0.2835686
0.9911996 0.5001786 0.2505159
0.0083234 0.7498605 0.2500424
0.2308534 0.7188979 0.2445798
0.4676566 0.6887753 0.1855370
0.7647112 0.6973847 0.2862223
0.9082248 0.7256324 0.3006964
0.0082859 0.9917141 0.2500000
0.2500066 0.9916775 0.2499966
0.5004680 0.9732337 0.2492907
0.7353297 0.9641668 0.2571649
0.9865419 0.9850098 0.2544881
0.0096480 0.0148793 0.5010074
0.2616252 0.0273511 0.5072896
0.5099696 0.0324493 0.5124636
0.7499961 0.0083189 0.5000169
0.9917141 0.0082859 0.5000000
0.0383411 0.3424644 0.5938615
0.2965809 0.3193701 0.5664686
0.6366414 0.3892053 0.6614060
0.7527965 0.2928043 0.5168566
0.9909859 0.2508633 0.5003654
0.0151592 0.4964441 0.5191027
0.2614281 0.5564637 0.5951692
0.5447952 0.5599191 0.5745955
0.7152456 0.5462276 0.6025193
0.9669322 0.5065447 0.5188302
0.0082946 0.7499639 0.4999735
0.2568007 0.7407138 0.4947772
0.4880298 0.7111691 0.4945341
0.7533782 0.7216666 0.5378984
0.8840183 0.7566558 0.5352110
0.0082859 0.9917141 0.5000000
0.2500334 0.9916336 0.4999830
0.4970755 0.9582804 0.4959396
0.7207506 0.9254985 0.5033635
0.8159214 0.8143417 0.5116771
0.0082910 0.0083088 0.7499959
0.2500005 0.0083048 0.7499937
0.5000108 0.0083164 0.7499970
0.7500000 0.0082873 0.7500001
0.9917141 0.0082859 0.7500000
0.0225238 0.3303659 0.7517281
0.2551418 0.2917106 0.7383895
0.5220273 0.2898382 0.7541531
0.7483824 0.2643539 0.7543001
0.9917134 0.2500010 0.7499998
0.0355549 0.5275267 0.7851459
0.2267292 0.5283809 0.7367152
0.4911558 0.5188287 0.7187475
0.7353633 0.5565055 0.7913917
0.9906168 0.5004237 0.7497776
0.0086611 0.7492363 0.7501488
0.3075422 0.7007355 0.7269948
0.5026377 0.7231768 0.7496735
0.6681899 0.6997426 0.7066501
0.9453973 0.7476751 0.7389000
0.0082860 0.9917140 0.7500000
0.2501535 0.9914452 0.7499999
0.4980277 0.9460173 0.7368576
0.6793584 0.8697698 0.6945773
0.7893608 0.8367307 0.6946648
0.0082859 0.0082859 0.9917141
0.2500000 0.0082859 0.9917141
0.5000000 0.0082859 0.9917141
0.7500000 0.0082859 0.9917141
0.9917141 0.0082859 0.9917141
0.0083168 0.2501562 0.9915637
0.2499938 0.2500321 0.9916802
0.5000178 0.2500688 0.9916653
0.7499867 0.2500913 0.9916830
0.9917141 0.2500000 0.9917141
0.0226665 0.5276245 0.9388332
0.2497582 0.5153549 0.9419534
0.4968180 0.5096251 0.9668196
0.7248421 0.5395472 0.9473639
0.9916955 0.5000068 0.9917065
0.0187245 0.7362803 0.9802328
0.2499926 0.7152947 0.9178599
0.4828888 0.7382934 0.8868427
0.6323281 0.6822056 0.8472368
0.9747363 0.7505834 0.9835919
0.0082871 0.9917113 0.9917135
0.2523190 0.9877694 0.9887760
0.5229914 0.9378953 0.9828651
0.6333807 0.8521578 0.9066608
0.7133291 0.8743141 0.8955170
