looks/recipe_cinestill800t.cube
TITLE "Fuji recipe CineStill 800T (16 RAFs)"
LUT_3D_SIZE 9
0.0890616 0.1101246 0.1040860
0.2886311 0.1070387 0.1179992
0.3835334 0.1115227 0.1219419
0.5321954 0.1283539 0.1495139
0.6215546 0.1415933 0.1714295
0.6635353 0.0857495 0.1035283
0.7500710 0.0180184 0.0200111
0.8749395 0.0084527 0.0084766
0.9917140 0.0082861 0.0082861
0.0542999 0.1809913 0.0489263
0.1948117 0.1866298 0.0685003
0.3820585 0.2029215 0.0931705
0.4871048 0.2051564 0.1080545
0.5687431 0.1757182 0.1241534
0.6655838 0.1697379 0.1141233
0.7514825 0.1418422 0.0413920
0.8746871 0.1255487 0.0093387
0.9917127 0.1250014 0.0082883
0.0499058 0.2645516 0.0318527
0.1198832 0.2766190 0.0325597
0.3250878 0.2865099 0.0748404
0.5100040 0.3061427 0.0966093
0.6019228 0.3190158 0.1022139
0.6411197 0.2810386 0.0428597
0.7509140 0.2527342 0.0216212
0.8747857 0.2502595 0.0093037
0.9917101 0.2500026 0.0082943
0.0163170 0.3705437 0.0112340
0.1283332 0.3553626 0.0231689
0.2208768 0.3972827 0.0345760
0.4446724 0.4053936 0.0767525
0.6096606 0.4129341 0.1063744
0.6835521 0.4252914 0.1019690
0.7505526 0.3845746 0.0229427
0.8749431 0.3750477 0.0084218
0.9917134 0.3750001 0.0082873
0.0091404 0.4995455 0.0084341
0.1444274 0.4931687 0.0166580
0.2356847 0.4941164 0.0372907
0.3776934 0.5060454 0.0452438
0.5227498 0.4966053 0.0499184
0.6717378 0.5012526 0.0723028
0.7508129 0.5005612 0.0206733
0.8747308 0.5003471 0.0091982
0.9917043 0.5000051 0.0082986
0.0083408 0.6249637 0.0082953
0.1292794 0.6211596 0.0097570
0.2561359 0.5850993 0.0295525
0.3215072 0.5864291 0.0398332
0.4790860 0.6200662 0.0157557
0.6259825 0.6239511 0.0114142
0.7524894 0.6239296 0.0208042
0.8735390 0.6245640 0.0134955
0.9916481 0.6249986 0.0083816
0.0082866 0.7499994 0.0082860
0.1252706 0.7496514 0.0083823
0.2523703 0.7279322 0.0146157
0.3399026 0.6673223 0.0355499
0.4493183 0.6992815 0.0268741
0.6221727 0.7483891 0.0089321
0.7504328 0.7487771 0.0104569
0.8747199 0.7494620 0.0094421
0.9916600 0.7499762 0.0083808
0.0082859 0.8750000 0.0082859
0.1250069 0.8749860 0.0082883
0.2503562 0.8731836 0.0086227
0.3726573 0.8513280 0.0129383
0.4901966 0.8549731 0.0122296
0.6241630 0.8740864 0.0084748
0.7500000 0.8749804 0.0083086
0.8749955 0.8749841 0.0083083
0.9917082 0.8749944 0.0082972
0.0082859 0.9917141 0.0082859
0.1250000 0.9917141 0.0082859
0.2500036 0.9916996 0.0082878
0.3750005 0.9913046 0.0083413
0.4998702 0.9913031 0.0083425
0.6249866 0.9916910 0.0082919
0.7499995 0.9917132 0.0082867
0.8749999 0.9917140 0.0082860
0.9917140 0.9917140 0.0082860
0.0561440 0.1191199 0.2043208
0.2254962 0.1283153 0.2207952
0.3360290 0.1045921 0.1706939
0.4723048 0.1090824 0.1784844
0.5921501 0.1160232 0.1902448
0.6838426 0.1268410 0.2088125
0.7511576 0.0375434 0.1462013
0.8746973 0.0091219 0.1256089
0.9917134 0.0082870 0.1250008
0.0412737 0.1948112 0.2111138
0.2028509 0.2274081 0.2304187
0.3621802 0.2210502 0.2337233
0.4993216 0.2227449 0.2464593
0.6360423 0.2489655 0.2785800
0.7267257 0.2594795 0.2983384
0.7604095 0.2170409 0.2388278
0.8723367 0.1321509 0.1332621
0.9916646 0.1250634 0.1250712
0.0400424 0.2624879 0.1702688
0.1599608 0.3072929 0.1633805
0.3332495 0.3196350 0.1935655
0.5078382 0.3315823 0.2170781
0.6325375 0.3520191 0.2431593
0.6799787 0.3005955 0.2356268
0.7698195 0.2941429 0.2413003
0.8677037 0.2631417 0.1540881
0.9914345 0.2501871 0.1254085
0.0220946 0.3727209 0.1267380
0.1485583 0.3794048 0.1247161
0.2676020 0.4078662 0.1233249
0.4739089 0.4229662 0.1776387
0.6377235 0.4474775 0.2134852
0.7056261 0.4460649 0.2028974
0.7510294 0.3904097 0.1446267
0.8735290 0.3753582 0.1305991
0.9916457 0.3750139 0.1251104
0.0093985 0.4998671 0.1262566
0.1396217 0.4908561 0.1258394
0.2609453 0.5054471 0.0869497
0.3827321 0.5127286 0.0981007
0.6038292 0.5233786 0.1973368
0.7056713 0.5167265 0.2062256
0.7518780 0.5134323 0.1695735
0.8717613 0.5041855 0.1306666
0.9915751 0.5000864 0.1251121
0.0083700 0.6248352 0.1252581
0.1285041 0.6213220 0.1252416
0.2731470 0.5956689 0.0998443
0.3619060 0.6005392 0.0746863
0.4682549 0.6166712 0.1084776
0.6640689 0.6143042 0.1756035
0.7804499 0.6117577 0.2050034
0.8554063 0.6235464 0.1696956
0.9878429 0.6258637 0.1292004
0.0082874 0.7499956 0.1250036
0.1254039 0.7494897 0.1248813
0.2565347 0.7200202 0.1121008
0.3301120 0.6368280 0.0729431
0.4295576 0.6622611 0.0810343
0.6135374 0.7421072 0.1255080
0.7588246 0.7288306 0.1522128
0.8644415 0.7330014 0.1563232
0.9825196 0.7463872 0.1353858
0.0082859 0.8750000 0.1250000
0.1250110 0.8749801 0.1249954
0.2506048 0.8724257 0.1243578
0.3745410 0.8262127 0.1119257
0.4737334 0.8011266 0.1145267
0.6166381 0.8627200 0.1273804
0.7477708 0.8721445 0.1271453
0.8741207 0.8726859 0.1278904
0.9892598 0.8727885 0.1281494
0.0082859 0.9917141 0.1250000
0.1250000 0.9917141 0.1250000
0.2500096 0.9916835 0.1249944
0.3750336 0.9906706 0.1248372
0.4993830 0.9882484 0.1249278
0.6247292 0.9906204 0.1253311
0.7497590 0.9912716 0.1252308
0.8749737 0.9916511 0.1250536
0.9916623 0.9916397 0.1250716
0.0414691 0.1135373 0.2970635
0.1426042 0.1004097 0.3077263
0.2709775 0.0564984 0.2745983
0.3860509 0.0330203 0.2585934
0.5130441 0.0298054 0.2565535
0.6314421 0.0283179 0.2555067
0.7505490 0.0159152 0.2527532
0.8749254 0.0085516 0.2500999
0.9917132 0.0082875 0.2500007
0.0433197 0.2145067 0.3606021
0.1816100 0.2162024 0.3355068
0.3485329 0.2534235 0.3851872
0.4808144 0.2528371 0.3535818
0.6162515 0.2534717 0.3501145
0.7099959 0.2440406 0.3423363
0.7601969 0.1960483 0.2940457
0.8710290 0.1383134 0.2586261
0.9915737 0.1251849 0.2501216
0.0370575 0.2895138 0.3161354
0.1545816 0.3303492 0.3417673
0.3601313 0.3810131 0.3876458
0.4775472 0.3404450 0.3623716
0.6262475 0.3627645 0.3922355
0.7053583 0.3603883 0.3958305
0.7812957 0.3646196 0.3955741
0.8527178 0.2917310 0.3018270
0.9907175 0.2507945 0.2509638
0.0234621 0.3783025 0.2628489
0.1317768 0.4118527 0.2852026
0.2935354 0.4439517 0.3039084
0.4780841 0.4524502 0.3288156
0.6180699 0.4650315 0.3479348
0.7142185 0.4496985 0.3414006
0.7622317 0.4014319 0.3510890
0.8536027 0.3932526 0.3122328
0.9895330 0.3759575 0.2527248
0.0131576 0.5038044 0.2554462
0.0683291 0.5201610 0.2678671
0.2164533 0.5170158 0.2388922
0.4142041 0.5308986 0.2532974
0.5992679 0.5426474 0.3004910
0.7114502 0.5593994 0.3298188
0.7570035 0.5387770 0.2835686
0.8699033 0.5047370 0.2584260
0.9911996 0.5001786 0.2505159
0.0092921 0.6227723 0.2513536
0.1050416 0.6057795 0.2608142
0.1740168 0.6133035 0.2301094
0.3659246 0.6102805 0.2007068
0.5261363 0.6069897 0.2340553
0.6910867 0.6167279 0.3040623
0.7766092 0.6222323 0.3153628
0.8440250 0.6334746 0.2814718
0.9701380 0.6306259 0.2598079
0.0083234 0.7498605 0.2500424
0.1243108 0.7464281 0.2506878
0.2308534 0.7188979 0.2445798
0.3445900 0.6603324 0.1757743
0.4676566 0.6887753 0.1855370
0.5981554 0.7170214 0.2545912
0.7647112 0.6973847 0.2862223
0.8270730 0.6877891 0.3149216
0.9082248 0.7256324 0.3006964
0.0082860 0.8749996 0.2500001
0.1250123 0.8749401 0.2499970
0.2497056 0.8713762 0.2497228
0.3774294 0.8309012 0.2292147
0.4827379 0.7646031 0.2043483
0.5964981 0.7834056 0.2471640
0.7036283 0.8274943 0.2575724
0.8607636 0.8429129 0.2747146
0.9414664 0.8344036 0.2878020
0.0082859 0.9917141 0.2500000
0.1250000 0.9917139 0.2500000
0.2500066 0.9916775 0.2499966
0.3752863 0.9897450 0.2495679
0.5004680 0.9732337 0.2492907
0.6184171 0.9700910 0.2508265
0.7353297 0.9641668 0.2571649
0.8729713 0.9874110 0.2521341
0.9865419 0.9850098 0.2544881
0.0242005 0.0548985 0.3893545
0.1437323 0.0723135 0.4023235
0.2666985 0.0400926 0.3905285
0.4029900 0.0532666 0.4116782
0.5074387 0.0288618 0.3922977
0.6263268 0.0118774 0.3766398
0.7500195 0.0085743 0.3750284
0.8749918 0.0083260 0.3750072
0.9917138 0.0082865 0.3750001
0.0342525 0.2228965 0.4522175
0.1877872 0.2301642 0.4801615
0.3389296 0.2413947 0.4728127
0.5114967 0.2708971 0.5474066
0.5913399 0.2419988 0.4777620
0.6636082 0.1953020 0.4235383
0.7513586 0.1400868 0.3792570
0.8736054 0.1297078 0.3762847
0.9916626 0.1250681 0.3750194
0.0381749 0.3123343 0.4848192
0.1387639 0.3153934 0.4443279
0.3028157 0.3349114 0.4568210
0.4802462 0.3700967 0.5060745
0.6224111 0.3820829 0.5075184
0.7072214 0.3939906 0.5104843
0.7648863 0.3518292 0.4466301
0.8587843 0.2899740 0.4016438
0.9898543 0.2522594 0.3765000
0.0274401 0.3767459 0.4179815
0.1201220 0.4196275 0.4427391
0.3146583 0.4653406 0.4852873
0.4542360 0.4626473 0.4753068
0.5868493 0.4714098 0.4999376
0.6730651 0.4675927 0.5052617
0.7644138 0.4623493 0.5055559
0.8257816 0.4522173 0.4811547
0.9808699 0.3815708 0.3838931
0.0130162 0.5026562 0.3723702
0.0694007 0.5169671 0.3689822
0.2224213 0.5183375 0.3826187
0.4197906 0.5484056 0.4322616
0.5833582 0.5520293 0.4434278
0.6944269 0.5765722 0.4742613
0.7531605 0.5416167 0.4329286
0.8560416 0.5032272 0.4133806
0.9878150 0.5002857 0.3785743
0.0097524 0.6225505 0.3740183
0.0860225 0.5984661 0.3633243
0.1538210 0.6059805 0.3504577
0.3540659 0.6101955 0.3530985
0.5255845 0.6152666 0.3805114
0.6888108 0.6398056 0.4281179
0.7738773 0.6690767 0.4505699
0.8423102 0.6677797 0.4267466
0.9811838 0.6308102 0.3804794
0.0083353 0.7497888 0.3749709
0.1226267 0.7434822 0.3729810
0.2368063 0.7267758 0.3588643
0.2913301 0.6981101 0.3392378
0.4809788 0.6970330 0.3405314
0.6042285 0.6967834 0.3741494
0.7622523 0.6992640 0.4180217
0.8143629 0.7197053 0.4326598
0.8967531 0.7341038 0.3979522
0.0082861 0.8749991 0.3749999
0.1250113 0.8749319 0.3749844
0.2502542 0.8705842 0.3739986
0.3570147 0.8249307 0.3593417
0.4748242 0.7384902 0.3002380
0.5621694 0.7435427 0.3407174
0.6559312 0.7732400 0.3439095
0.8275166 0.7819352 0.4118905
0.8308508 0.7626570 0.4196576
0.0082859 0.9917141 0.3750000
0.1250001 0.9917139 0.3750000
0.2500074 0.9916323 0.3749871
0.3758538 0.9884722 0.3740219
0.4991472 0.9491648 0.3595186
0.5958695 0.9071734 0.3477140
0.7099790 0.9160825 0.3606755
0.8660578 0.9654277 0.3821655
0.9184418 0.9068153 0.4045908
0.0096480 0.0148793 0.5010074
0.1300041 0.0238054 0.5023345
0.2616252 0.0273511 0.5072896
0.3940037 0.0399969 0.5148055
0.5099696 0.0324493 0.5124636
0.6254386 0.0117292 0.5018803
0.7499961 0.0083189 0.5000169
0.8749999 0.0082864 0.4999999
0.9917141 0.0082859 0.5000000
0.0266971 0.2202414 0.5532051
0.1666635 0.2204173 0.5470926
0.2871888 0.2248419 0.5539774
0.4877723 0.2554416 0.6007686
0.6126493 0.2882516 0.6343013
0.6402434 0.1778463 0.5402197
0.7499405 0.1273397 0.5012092
0.8749319 0.1252783 0.5000377
0.9917083 0.1250095 0.5000015
0.0383411 0.3424644 0.5938615
0.1485841 0.3355887 0.5897898
0.2965809 0.3193701 0.5664686
0.4710019 0.3561847 0.6078822
0.6366414 0.3892053 0.6614060
0.6827960 0.3538514 0.6141904
0.7527965 0.2928043 0.5168566
0.8676256 0.2688573 0.5069506
0.9909859 0.2508633 0.5003654
0.0339777 0.3893643 0.5587874
0.1423594 0.4243549 0.5485977
0.2859281 0.4498037 0.5657826
0.4299005 0.4564540 0.5692874
0.5868899 0.4696215 0.5929939
0.6945888 0.4911032 0.6162571
0.7548330 0.4739537 0.5806174
0.8233459 0.4521711 0.5665245
0.9798068 0.3843046 0.5081960
0.0151592 0.4964441 0.5191027
0.1178173 0.5108138 0.5180846
0.2614281 0.5564637 0.5951692
0.4316486 0.5749967 0.6002889
0.5447952 0.5599191 0.5745955
0.6359385 0.5535322 0.5766826
0.7152456 0.5462276 0.6025193
0.8201363 0.5320234 0.5956061
0.9669322 0.5065447 0.5188302
0.0091834 0.6240965 0.4997585
0.1205671 0.6141877 0.4965225
0.2556021 0.6175276 0.5050479
0.3649425 0.6294807 0.5216209
0.5175191 0.6365909 0.5462933
0.6535092 0.6358247 0.5404845
0.7155098 0.6376551 0.5292892
0.8462810 0.6547319 0.5238259
0.9813067 0.6312265 0.5034738
0.0082946 0.7499639 0.4999735
0.1247099 0.7490333 0.4994245
0.2568007 0.7407138 0.4947772
0.3353852 0.7148628 0.4730516
0.4880298 0.7111691 0.4945341
0.6174017 0.6906489 0.4855428
0.7533782 0.7216666 0.5378984
0.8100249 0.7578099 0.5677372
0.8840183 0.7566558 0.5352110
0.0082859 0.8749999 0.4999999
0.1250177 0.8749821 0.4999936
0.2511313 0.8716562 0.4988436
0.3710423 0.8332027 0.4842251
0.4612625 0.7695758 0.4627908
0.5792037 0.7708077 0.4773326
0.7154477 0.7720323 0.5019619
0.8012643 0.7781445 0.5272397
0.8093247 0.7991909 0.5505749
0.0082859 0.9917141 0.5000000
0.1250001 0.9917139 0.5000000
0.2500334 0.9916336 0.4999830
0.3753313 0.9866051 0.4991241
0.4970755 0.9582804 0.4959396
0.6104580 0.9149808 0.4932762
0.7207506 0.9254985 0.5033635
0.8323464 0.8929188 0.5173212
0.8159214 0.8143417 0.5116771
0.0084600 0.0089469 0.6250534
0.1252606 0.0093894 0.6248995
0.2502050 0.0093498 0.6248742
0.3760843 0.0102505 0.6252759
0.5016261 0.0118181 0.6257435
0.6251202 0.0090451 0.6251966
0.7499990 0.0083082 0.6250076
0.8750000 0.0082859 0.6250000
0.9917141 0.0082859 0.6250000
0.0174569 0.1590948 0.6324630
0.1316644 0.1629091 0.6275238
0.2535398 0.1540609 0.6262429
0.3969202 0.1687531 0.6343682
0.5253014 0.1733907 0.6412364
0.6377601 0.1627403 0.6431468
0.7500295 0.1274038 0.6261702
0.8749962 0.1250124 0.6250016
0.9917139 0.1250003 0.6250000
0.0366902 0.3634793 0.6911063
0.1490695 0.3288819 0.6542442
0.2870746 0.3426641 0.6581076
0.4190184 0.3401795 0.6639684
0.5946304 0.3842522 0.7188962
0.7046298 0.3916764 0.7340659
0.7494494 0.2706992 0.6399738
0.8744406 0.2514491 0.6249386
0.9916508 0.2500834 0.6250055
0.0388254 0.4605468 0.7154079
0.1234484 0.4376281 0.6739713
0.2629440 0.4242468 0.6526924
0.4055374 0.4221198 0.6529650
0.5687285 0.4693739 0.7038616
0.7049032 0.4920639 0.7405183
0.7463903 0.4124597 0.6369191
0.8602771 0.3969638 0.6273497
0.9874238 0.3786318 0.6257613
0.0236636 0.5005735 0.6617034
0.1059826 0.5151463 0.6411361
0.2467531 0.5305958 0.6589648
0.4068108 0.5614080 0.6731250
0.5190243 0.5418913 0.6491641
0.6627612 0.5762312 0.6837004
0.7215099 0.5628902 0.6505561
0.8329022 0.5217829 0.6364294
0.9813758 0.5027361 0.6268371
0.0100918 0.6223971 0.6265845
0.1237464 0.6094272 0.6362433
0.2187160 0.5962703 0.6407314
0.3914137 0.6266054 0.6547611
0.5125134 0.6522357 0.6760978
0.6188118 0.6398579 0.6494446
0.6896008 0.6194293 0.6358296
0.8210198 0.6266909 0.6399450
0.9873240 0.6263763 0.6250446
0.0083148 0.7499487 0.6250244
0.1257010 0.7480128 0.6257221
0.2540290 0.7246243 0.6302630
0.3620195 0.7100468 0.5900666
0.4829672 0.7141685 0.6300789
0.5849191 0.6955728 0.6314340
0.7082521 0.7145904 0.6381727
0.7634351 0.7135658 0.6248034
0.9223065 0.7658138 0.6387544
0.0082861 0.8749998 0.6250001
0.1250385 0.8749514 0.6250102
0.2506938 0.8733037 0.6247095
0.3782587 0.8456656 0.6161889
0.4672394 0.7852241 0.5960315
0.5756275 0.7792102 0.6007537
0.7050203 0.7833642 0.6093663
0.7912709 0.7934257 0.6389814
0.8052167 0.8131119 0.6589776
0.0082859 0.9917141 0.6250000
0.1250002 0.9917139 0.6250001
0.2500127 0.9916902 0.6249946
0.3758075 0.9890987 0.6246320
0.5069674 0.9392948 0.6168240
0.5776843 0.8769165 0.6141473
0.6989286 0.9032652 0.6043038
0.7854105 0.8350720 0.6024590
0.7969378 0.8261960 0.6045207
0.0082910 0.0083088 0.7499959
0.1250026 0.0083129 0.7499914
0.2500005 0.0083048 0.7499937
0.3750094 0.0083149 0.7499937
0.5000108 0.0083164 0.7499970
0.6250054 0.0083082 0.7500013
0.7500000 0.0082873 0.7500001
0.8750000 0.0082859 0.7500000
0.9917141 0.0082859 0.7500000
0.0089348 0.1305401 0.7496833
0.1248957 0.1289437 0.7490861
0.2504131 0.1273421 0.7492955
0.3755022 0.1272640 0.7493149
0.5011227 0.1277631 0.7500902
0.6259816 0.1277713 0.7503526
0.7499868 0.1253464 0.7500612
0.8749993 0.1250019 0.7500004
0.9917141 0.1250000 0.7500000
0.0225238 0.3303659 0.7517281
0.1265353 0.2959833 0.7434732
0.2551418 0.2917106 0.7383895
0.3826303 0.2790679 0.7393578
0.5220273 0.2898382 0.7541531
0.6490507 0.3186040 0.7694657
0.7483824 0.2643539 0.7543001
0.8749071 0.2501693 0.7500502
0.9917134 0.2500010 0.7499998
0.0417795 0.4536919 0.7698919
0.1375374 0.4439691 0.7578282
0.2563342 0.4277419 0.7330208
0.3889300 0.4205446 0.7195582
0.5326629 0.4582431 0.7415118
0.6856519 0.5068948 0.8197514
0.7406690 0.4262882 0.7763817
0.8740205 0.3764133 0.7502097
0.9916589 0.3750466 0.7499781
0.0355549 0.5275267 0.7851459
0.1053118 0.5281061 0.7473181
0.2267292 0.5283809 0.7367152
0.3872239 0.5350401 0.7356708
0.4911558 0.5188287 0.7187475
0.6456694 0.5685045 0.7830063
0.7353633 0.5565055 0.7913917
0.8571135 0.5124333 0.7437883
0.9906168 0.5004237 0.7497776
0.0155979 0.6142882 0.7554232
0.1182083 0.5986356 0.7473413
0.2130904 0.6145087 0.7385572
0.3553633 0.6263823 0.7462435
0.4934714 0.6383792 0.7375332
0.6106184 0.6329340 0.7287994
0.6961812 0.6452446 0.7422985
0.8016403 0.6301666 0.7352924
0.9874718 0.6252547 0.7494583
0.0086611 0.7492363 0.7501488
0.1402448 0.7402707 0.7471338
0.3075422 0.7007355 0.7269948
0.3735273 0.7103684 0.7350225
0.5026377 0.7231768 0.7496735
0.5724159 0.7062295 0.7262018
0.6681899 0.6997426 0.7066501
0.7676961 0.7154640 0.7195523
0.9453973 0.7476751 0.7389000
0.0083075 0.8749872 0.7499975
0.1277499 0.8728232 0.7495490
0.2607742 0.8621707 0.7480145
0.3819886 0.8346298 0.7485009
0.4618399 0.7806191 0.7114692
0.5830032 0.7919723 0.7173126
0.6405557 0.7444797 0.6884831
0.7476747 0.7782590 0.7131035
0.8163117 0.7927172 0.6996174
0.0082860 0.9917140 0.7500000
0.1250175 0.9916945 0.7499978
0.2501535 0.9914452 0.7499999
0.3766861 0.9848037 0.7494171
0.4980277 0.9460173 0.7368576
0.5624804 0.8381615 0.7005444
0.6793584 0.8697698 0.6945773
0.7591158 0.8205396 0.6794636
0.7893608 0.8367307 0.6946648
0.0082859 0.0082863 0.8749999
0.1250000 0.0082861 0.8749999
0.2500000 0.0082859 0.8750000
0.3750000 0.0082859 0.8750000
0.5000000 0.0082859 0.8750000
0.6250000 0.0082859 0.8750000
0.7500000 0.0082859 0.8750000
0.8750000 0.0082859 0.8750000
0.9917141 0.0082859 0.8750000
0.0083161 0.1252929 0.8748851
0.1249799 0.1251047 0.8749514
0.2500032 0.1250644 0.8749647
0.3750017 0.1250213 0.8749869
0.5000162 0.1250338 0.8749941
0.6250201 0.1250884 0.8749895
0.7499985 0.1250183 0.8749982
0.8749999 0.1250002 0.8750000
0.9917141 0.1250000 0.8750000
0.0102716 0.2609948 0.8696970
0.1248986 0.2552429 0.8722284
0.2498198 0.2539481 0.8720168
0.3751401 0.2516744 0.8735518
0.5013725 0.2532109 0.8740650
0.6268325 0.2566982 0.8740891
0.7497174 0.2523488 0.8747149
0.8749821 0.2500331 0.8749967
0.9917141 0.2500000 0.8750000
0.0228438 0.4212685 0.8475184
0.1229425 0.4149147 0.8484187
0.2470330 0.3925357 0.8574982
0.3755249 0.3864541 0.8557357
0.5153894 0.4118106 0.8543294
0.6359238 0.4330274 0.8637642
0.7419253 0.4107231 0.8735514
0.8736851 0.3767452 0.8750117
0.9917088 0.3750041 0.8750001
0.0386227 0.5473860 0.8331477
0.1034444 0.5440161 0.8353138
0.2547736 0.5358810 0.8255560
0.3820689 0.5303140 0.8170505
0.5068716 0.5241227 0.8099380
0.6219275 0.5625943 0.8354256
0.7128775 0.5690926 0.8725917
0.8671473 0.5049926 0.8749514
0.9916651 0.5000189 0.8749827
0.0274735 0.6047157 0.8582690
0.0923062 0.6001931 0.8355546
0.2340042 0.6529429 0.8419639
0.3473015 0.6214501 0.8013792
0.4720898 0.6049519 0.7826834
0.5792948 0.6065246 0.7844706
0.6874409 0.6389772 0.8328368
0.8576503 0.6276104 0.8648832
0.9909425 0.6250893 0.8746704
0.0101408 0.7460737 0.8745415
0.1521037 0.7310326 0.8624183
0.3873691 0.6585853 0.7652462
0.3380443 0.7070781 0.8128960
0.4835621 0.7249451 0.8269327
0.5616959 0.6925541 0.7817687
0.6516660 0.6951761 0.7766291
0.7873296 0.7251474 0.8206037
0.9743971 0.7492792 0.8671157
0.0083700 0.8748690 0.8750218
0.1330047 0.8685371 0.8710801
0.3170637 0.8005738 0.8283654
0.3708615 0.8147576 0.8307061
0.4870061 0.7936037 0.7928806
0.5575376 0.7662699 0.7872897
0.6288608 0.7523430 0.7688258
0.7101836 0.7484577 0.7649230
0.8371570 0.8078629 0.8040165
0.0082866 0.9917133 0.8749999
0.1252332 0.9914602 0.8748909
0.2520842 0.9881901 0.8734860
0.3761145 0.9840711 0.8712417
0.5031119 0.9593382 0.8596896
0.5805156 0.8493463 0.7964311
0.5914631 0.7507158 0.7168915
0.7082490 0.8221390 0.7874776
0.7791415 0.8455751 0.7382486
0.0082859 0.0082859 0.9917141
0.1250000 0.0082859 0.9917141
0.2500000 0.0082859 0.9917141
0.3750000 0.0082859 0.9917141
0.5000000 0.0082859 0.9917141
0.6250000 0.0082859 0.9917141
0.7500000 0.0082859 0.9917141
0.8750000 0.0082859 0.9917141
0.9917141 0.0082859 0.9917141
0.0082860 0.1250013 0.9917132
0.1249999 0.1250004 0.9917138
0.2500000 0.1250002 0.9917139
0.3750000 0.1250000 0.9917141
0.5000001 0.1250001 0.9917141
0.6250001 0.1250003 0.9917140
0.7500000 0.1250001 0.9917141
0.8750000 0.1250000 0.9917141
0.9917141 0.1250000 0.9917141
0.0083168 0.2501562 0.9915637
0.1249901 0.2500857 0.9916393
0.2499938 0.2500321 0.9916802
0.3750003 0.2500108 0.9917002
0.5000178 0.2500688 0.9916653
0.6250112 0.2501017 0.9916607
0.7499867 0.2500913 0.9916830
0.8749968 0.2500065 0.9917120
0.9917141 0.2500000 0.9917141
0.0092826 0.3799184 0.9869049
0.1241182 0.3789740 0.9876471
0.2500814 0.3785183 0.9881031
0.3746858 0.3757498 0.9908097
0.5009528 0.3779106 0.9879766
0.6253704 0.3810152 0.9871256
0.7474889 0.3863663 0.9860669
0.8743902 0.3758191 0.9913073
0.9917116 0.3750020 0.9917132
0.0226665 0.5276245 0.9388332
0.1129737 0.5306985 0.9378693
0.2497582 0.5153549 0.9419534
0.3726718 0.5111642 0.9722515
0.4968180 0.5096251 0.9668196
0.6244671 0.5224024 0.9521119
0.7248421 0.5395472 0.9473639
0.8702060 0.5028508 0.9885284
0.9916955 0.5000068 0.9917065
0.0462799 0.6157563 0.9227896
0.0989222 0.6227691 0.8887842
0.2346192 0.6730534 0.9189712
0.3657692 0.6415746 0.9043335
0.4892649 0.6245376 0.8982235
0.5876749 0.6133479 0.8780884
0.6701353 0.6269076 0.8843578
0.8633357 0.6252884 0.9839302
0.9914976 0.6250923 0.9916154
0.0187245 0.7362803 0.9802328
0.1275160 0.6969839 0.9461368
0.2499926 0.7152947 0.9178599
0.3547245 0.7236404 0.8879389
0.4828888 0.7382934 0.8868427
0.5698431 0.7041934 0.8470458
0.6323281 0.6822056 0.8472368
0.8119197 0.7505097 0.9427956
0.9747363 0.7505834 0.9835919
0.0087514 0.8742322 0.9914428
0.1287416 0.8650997 0.9866124
0.3175004 0.7982683 0.9062812
0.3567915 0.7926365 0.9210263
0.5092115 0.8182891 0.9377045
0.5781667 0.8057775 0.8974800
0.6208334 0.7503272 0.8357129
0.7197516 0.7812261 0.8718674
0.8562594 0.8170223 0.8978680
0.0082871 0.9917113 0.9917135
0.1252604 0.9914293 0.9915020
0.2523190 0.9877694 0.9887760
0.3778302 0.9859236 0.9896781
0.5229914 0.9378953 0.9828651
0.5830702 0.8656715 0.9576483
0.6333807 0.8521578 0.9066608
0.6670814 0.8530305 0.8955759
0.7133291 0.8743141 0.8955170
