looks/recipe_superia400.cube
TITLE "Fuji recipe Superia 400 (16 RAFs)"
LUT_3D_SIZE 9
0.0218638 0.0270883 0.0216515
0.1000907 0.0207885 0.0066835
0.1752845 0.0239192 0.0035878
0.3414153 0.0495556 0.0020490
0.4889096 0.0724897 0.0018673
0.6265283 0.1000308 0.0020187
0.7229836 0.0973836 0.0028480
0.8589128 0.0324920 0.0067946
0.9894459 0.0102497 0.0081737
0.0207155 0.1083393 0.0285645
0.0863284 0.1147763 0.0334917
0.2181646 0.1068670 0.0101821
0.3557096 0.1234739 0.0028520
0.4691999 0.1332036 0.0027762
0.6177841 0.1371196 0.0029011
0.7406968 0.1400951 0.0032349
0.8479005 0.1383258 0.0047582
0.9801046 0.1273966 0.0076401
0.0168281 0.2276880 0.0181273
0.0585910 0.1829199 0.0252083
0.1854255 0.2185601 0.0507564
0.3670608 0.2106020 0.0225519
0.5970970 0.2240740 0.0039115
0.6831952 0.2330959 0.0031999
0.7520164 0.2463029 0.0058366
0.8687089 0.2411744 0.0071169
0.9850931 0.2455288 0.0078138
0.0094154 0.3729239 0.0095814
0.1125010 0.3447399 0.0205876
0.1402685 0.3280221 0.0685750
0.3107297 0.3462543 0.0561908
0.4693767 0.3289604 0.0211099
0.5915591 0.2911265 0.0087234
0.7980726 0.3217455 0.0064649
0.8809982 0.3575235 0.0077540
0.9883453 0.3724550 0.0082457
0.0083032 0.4999585 0.0083176
0.1253454 0.4973439 0.0115869
0.2099983 0.4757283 0.0578689
0.2920451 0.5127451 0.0966287
0.4970561 0.4827441 0.0438881
0.6067728 0.4358390 0.0121562
0.6858779 0.3932609 0.0089250
0.8781698 0.4704448 0.0100502
0.9897332 0.4956674 0.0104041
0.0082859 0.6249989 0.0082876
0.1250241 0.6248230 0.0084056
0.2499931 0.6195026 0.0141634
0.3190103 0.5894582 0.0658023
0.4499057 0.6086677 0.0828527
0.6131938 0.6278960 0.0399937
0.7455421 0.6125724 0.0089287
0.8795993 0.6139269 0.0104798
0.9910842 0.6202847 0.0103260
0.0082859 0.7500000 0.0082859
0.1250001 0.7499985 0.0082874
0.2500332 0.7495989 0.0085894
0.3738465 0.7437847 0.0131952
0.4977899 0.7347692 0.0255356
0.6234760 0.7454209 0.0171946
0.7497433 0.7498183 0.0092400
0.8749474 0.7496431 0.0083757
0.9917257 0.7493569 0.0087402
0.0082859 0.8750000 0.0082859
0.1250000 0.8750000 0.0082859
0.2500001 0.8749986 0.0082865
0.3750270 0.8749374 0.0083223
0.5000013 0.8746375 0.0085060
0.6249995 0.8748565 0.0084277
0.7500026 0.8749794 0.0083294
0.8749928 0.8749594 0.0083480
0.9916205 0.8748946 0.0084473
0.0082859 0.9917141 0.0082859
0.1250000 0.9917141 0.0082859
0.2500000 0.9917141 0.0082859
0.3750000 0.9917141 0.0082859
0.5000001 0.9917139 0.0082860
0.6250001 0.9917139 0.0082861
0.7500000 0.9917139 0.0082861
0.8749994 0.9917082 0.0082910
0.9917063 0.9916988 0.0082993
0.0175592 0.0526076 0.0987430
0.1206269 0.0622013 0.1074153
0.2196990 0.0607818 0.0946089
0.3549376 0.0420274 0.0648946
0.4472465 0.0431386 0.0632880
0.6193662 0.0561599 0.0745089
0.7372927 0.0717142 0.0682942
0.8589966 0.0393947 0.0990030
0.9862873 0.0131350 0.1209198
0.0160885 0.1207457 0.1446132
0.1276721 0.1547582 0.1453827
0.2394978 0.1518103 0.1201898
0.3175819 0.1174705 0.0626784
0.4114254 0.0989425 0.0237073
0.5925319 0.1256916 0.0134309
0.7577992 0.1517520 0.0111608
0.8302419 0.1545976 0.0152048
0.9455360 0.1372358 0.0806977
0.0089183 0.2141460 0.1470114
0.0881479 0.2202915 0.1488899
0.2135668 0.2558735 0.1589383
0.3798385 0.2270892 0.0943592
0.5506237 0.2058909 0.0321761
0.6552112 0.1993295 0.0179384
0.7616746 0.2047607 0.0218256
0.8373474 0.2013555 0.0298621
0.9209063 0.1968553 0.0459376
0.0088397 0.3696694 0.1283463
0.1168303 0.3487456 0.1385282
0.1664475 0.3508129 0.1555930
0.3408814 0.3683646 0.1443381
0.5574838 0.3318287 0.0708510
0.7437901 0.3216493 0.0305168
0.8251693 0.3124789 0.0223571
0.8516419 0.2850031 0.0304678
0.9473469 0.3286141 0.0851766
0.0081767 0.4996494 0.1260949
0.1024179 0.4894952 0.1566153
0.1911389 0.4771022 0.1681919
0.3136773 0.5202513 0.1736193
0.4940622 0.5042061 0.1370359
0.6698449 0.4464355 0.0897493
0.7046207 0.3878932 0.0615188
0.9226149 0.4208801 0.0496387
0.9787301 0.4746249 0.1029625
0.0082758 0.6249109 0.1251022
0.1219993 0.6216948 0.1291253
0.2094349 0.6060783 0.1550195
0.3070302 0.5952715 0.1578403
0.4819203 0.6221553 0.1628446
0.6265934 0.6557547 0.1629311
0.7564273 0.5988928 0.1231022
0.8534935 0.5391779 0.0989523
0.9904578 0.5689076 0.1353589
0.0082858 0.7499987 0.1250013
0.1249351 0.7498929 0.1250971
0.2480007 0.7481964 0.1266027
0.3638355 0.7386814 0.1338040
0.5118358 0.7188675 0.1437470
0.6483591 0.7367378 0.1592130
0.7525984 0.7495540 0.1476832
0.8706497 0.7396334 0.1294358
0.9895884 0.7304210 0.1345076
0.0082859 0.8750000 0.1250000
0.1249999 0.8749998 0.1250001
0.2499876 0.8749833 0.1250117
0.3745666 0.8745343 0.1253452
0.4992464 0.8728083 0.1265830
0.6272883 0.8725923 0.1275873
0.7502902 0.8731775 0.1269448
0.8728360 0.8669623 0.1314974
0.9756036 0.8568537 0.1390004
0.0082859 0.9917141 0.1250000
0.1250000 0.9917141 0.1250000
0.2500000 0.9917141 0.1250000
0.3749993 0.9917128 0.1250008
0.4999891 0.9916973 0.1250128
0.6249846 0.9916900 0.1250229
0.7500132 0.9916449 0.1250386
0.8748271 0.9905908 0.1255476
0.9904038 0.9890326 0.1263718
0.0158242 0.0536655 0.2358217
0.1388985 0.0712139 0.2435299
0.2489090 0.0395133 0.2303477
0.3717824 0.0317092 0.2304622
0.4942448 0.0226743 0.2357272
0.6226551 0.0177369 0.2373972
0.7484646 0.0159712 0.2370126
0.8734888 0.0127920 0.2425697
0.9904714 0.0096428 0.2476858
0.0234274 0.1503392 0.2514440
0.1463034 0.1750806 0.2476498
0.2665788 0.1735524 0.2279182
0.3773959 0.1488853 0.1745179
0.4959950 0.1403919 0.1526925
0.6256478 0.1370685 0.1500826
0.7423289 0.1373190 0.1262758
0.8623428 0.1292815 0.1238394
0.9654146 0.1310609 0.1941454
0.0201523 0.2352030 0.2890576
0.0861555 0.2596273 0.2834594
0.2759689 0.3057256 0.2989925
0.4449213 0.3302661 0.2932465
0.4906857 0.2388204 0.1826860
0.6374732 0.2082426 0.1157838
0.7891967 0.1946789 0.0822146
0.8607430 0.1771537 0.0510669
0.9071027 0.1777270 0.0562629
0.0102198 0.3666632 0.2635786
0.0967871 0.3508792 0.2782792
0.1435566 0.3748023 0.2875827
0.3951466 0.4216589 0.3025505
0.5457097 0.3885020 0.2489922
0.7346460 0.3496552 0.1493776
0.7568834 0.3062481 0.1221367
0.8397771 0.2818982 0.0893587
0.9235704 0.2428613 0.0980459
0.0079420 0.4990047 0.2516094
0.0521966 0.4716608 0.2958704
0.0402929 0.4707702 0.3208556
0.2449104 0.4820800 0.2837518
0.5427751 0.5452453 0.2824212
0.6826261 0.4845343 0.2158255
0.8788079 0.4734560 0.1574846
0.9261808 0.4651019 0.1588073
0.9534502 0.4538546 0.1849168
0.0082217 0.6244850 0.2503130
0.1015018 0.6024901 0.2715387
0.0914420 0.5604068 0.3163419
0.0783019 0.5654266 0.3183263
0.4339677 0.6335081 0.2938095
0.6741118 0.6611689 0.2717993
0.7668867 0.5979934 0.2444541
0.8631208 0.5368884 0.1824507
0.9837698 0.5585477 0.1995961
0.0082843 0.7499825 0.2500094
0.1241541 0.7486585 0.2509187
0.2342587 0.7379248 0.2574421
0.2721240 0.7011214 0.2777362
0.2737309 0.6650995 0.3102878
0.6991057 0.7396227 0.2818393
0.7667622 0.7397029 0.2985888
0.8221911 0.7070614 0.2696737
0.9794442 0.6847283 0.2741165
0.0082859 0.8750000 0.2500000
0.1249982 0.8749959 0.2500020
0.2499130 0.8748891 0.2500423
0.3722541 0.8722851 0.2509614
0.4735897 0.8503363 0.2653158
0.5810348 0.8433605 0.2817273
0.7651123 0.8552786 0.2713936
0.8379497 0.7811301 0.2677982
0.8961937 0.7653247 0.2652656
0.0082859 0.9917141 0.2500000
0.1250000 0.9917141 0.2500000
0.2499999 0.9917140 0.2500000
0.3749952 0.9916973 0.2500065
0.4996934 0.9911966 0.2502366
0.6234005 0.9899940 0.2511970
0.7486671 0.9893188 0.2522280
0.8725253 0.9776677 0.2523786
0.9694322 0.9382818 0.2652033
0.0099396 0.0249692 0.3663672
0.1322877 0.0279184 0.3643622
0.2484234 0.0346295 0.3662980
0.3834593 0.0216565 0.3692893
0.5198649 0.0375630 0.3556368
0.6416453 0.0333454 0.3490747
0.7525558 0.0164719 0.3682694
0.8747871 0.0093120 0.3729478
0.9915434 0.0084467 0.3745880
0.0179491 0.1689651 0.3493547
0.1424113 0.1791067 0.3545322
0.2566205 0.1939084 0.3528374
0.4331928 0.1983823 0.3491728
0.5993745 0.1799410 0.2782204
0.7118771 0.1613205 0.2403298
0.7839116 0.1557374 0.2910848
0.8706531 0.1342157 0.3016846
0.9863324 0.1254867 0.3616081
0.0153217 0.2603723 0.4131608
0.0981566 0.2653165 0.4009415
0.2666456 0.3033861 0.3985843
0.4397245 0.3109286 0.3789059
0.5304949 0.2818004 0.3125018
0.6517965 0.2553126 0.2633628
0.7695238 0.2239074 0.2262829
0.8674256 0.2135209 0.1942224
0.9614962 0.2335922 0.2739055
0.0126541 0.3597059 0.4083905
0.0689577 0.3753285 0.4508802
0.2333586 0.4040476 0.4359825
0.4448654 0.4601811 0.4554580
0.5920281 0.4563744 0.4181331
0.6871307 0.3892189 0.3251016
0.7570577 0.3381188 0.2522578
0.8632391 0.3237610 0.2254307
0.9335191 0.2915237 0.2133396
0.0086971 0.4968500 0.3811354
0.0831830 0.4814259 0.3882664
0.1338444 0.4867876 0.4281097
0.3206808 0.5042171 0.4318903
0.5939178 0.5712705 0.4452372
0.6985046 0.5409672 0.4118492
0.8363439 0.5046864 0.3220474
0.8639544 0.4510569 0.2934096
0.9269841 0.4311437 0.2879761
0.0082528 0.6246853 0.3750527
0.1125722 0.6145832 0.3780116
0.1280065 0.5808250 0.3966933
0.2318187 0.5897496 0.3995214
0.4801150 0.6494246 0.4363153
0.7198638 0.6744005 0.4147683
0.7753949 0.6038421 0.3662935
0.9438365 0.6222618 0.3501719
0.9825172 0.6361006 0.3713311
0.0082851 0.7499921 0.3750013
0.1242069 0.7488185 0.3752718
0.2352795 0.7391896 0.3767420
0.3420420 0.7308445 0.3783263
0.3448085 0.6946834 0.4112965
0.5221570 0.7179971 0.4459177
0.8084708 0.7584401 0.4199916
0.8281634 0.6893697 0.3679708
0.9958031 0.7067471 0.3941115
0.0082859 0.8750000 0.3750000
0.1249982 0.8749959 0.3750006
0.2499247 0.8749112 0.3750083
0.3739846 0.8734808 0.3752681
0.4654183 0.8463045 0.3840465
0.5141707 0.7927517 0.4317024
0.6654134 0.8010206 0.4579949
0.8509409 0.7975568 0.3959454
0.9151369 0.7675951 0.3784678
0.0082859 0.9917141 0.3750000
0.1250000 0.9917141 0.3750000
0.2500000 0.9917141 0.3750000
0.3749930 0.9916937 0.3750034
0.4996487 0.9907351 0.3753238
0.6190025 0.9801251 0.3805311
0.7285447 0.9600356 0.3954248
0.8663120 0.9702975 0.3880910
0.9810796 0.9157435 0.3946054
0.0083486 0.0098387 0.4995713
0.1256421 0.0110485 0.4989489
0.2503749 0.0132054 0.4975042
0.3770514 0.0130542 0.4971707
0.5033984 0.0134737 0.4935504
0.6282555 0.0128077 0.4923077
0.7512273 0.0116357 0.4951117
0.8749738 0.0090261 0.4992098
0.9916823 0.0083456 0.4999394
0.0110766 0.1685913 0.5024045
0.1352258 0.1641011 0.4814325
0.2528567 0.1637372 0.4682811
0.4047669 0.1798755 0.4744207
0.5397537 0.1670995 0.4467741
0.6627741 0.1526572 0.4211347
0.7759436 0.1483222 0.4146073
0.8752980 0.1492943 0.4481390
0.9890896 0.1307198 0.4951189
0.0176037 0.3038110 0.5367172
0.1260643 0.2883543 0.5072535
0.2523484 0.2901658 0.4755287
0.4621352 0.3438145 0.4988177
0.5987403 0.3212687 0.4474107
0.7168205 0.2911591 0.3879186
0.8268373 0.2730443 0.3571365
0.8946827 0.2720360 0.3597321
0.9627446 0.2781409 0.4449805
0.0135046 0.3882250 0.5550662
0.0753109 0.4121073 0.5736125
0.2086993 0.3990206 0.5405645
0.4055228 0.4279953 0.5230953
0.6223713 0.4655827 0.5278053
0.6551031 0.4219699 0.4422024
0.8027107 0.3884030 0.4075990
0.8995394 0.3660215 0.3735452
0.9506569 0.3688388 0.4027672
0.0104569 0.4933847 0.5324248
0.0720058 0.4897795 0.5701044
0.2424366 0.4998479 0.5349284
0.3894883 0.5410234 0.5765376
0.6172941 0.6020656 0.5895947
0.7046478 0.5703999 0.5245951
0.7740282 0.5136114 0.4525352
0.8699488 0.4844947 0.4105431
0.9351864 0.4507999 0.3721754
0.0084563 0.6240311 0.5014812
0.1186848 0.6162053 0.5090502
0.2332601 0.6097970 0.5278624
0.3442056 0.6182662 0.5732715
0.4711048 0.6378673 0.5710645
0.7592607 0.7031999 0.5771975
0.8486106 0.7102646 0.6018291
0.8816195 0.6202447 0.4708258
0.9064509 0.5561004 0.4185033
0.0082873 0.7499914 0.5000073
0.1249825 0.7498791 0.5000755
0.2499826 0.7486476 0.5011629
0.3756816 0.7379141 0.5168486
0.4821283 0.7186869 0.5260661
0.6087001 0.7376373 0.5642796
0.8049856 0.7625453 0.5633274
0.8042009 0.6648468 0.4885750
0.9374847 0.7034420 0.4907866
0.0082859 0.8750000 0.5000000
0.1250000 0.8749998 0.5000001
0.2500083 0.8749889 0.5000066
0.3751140 0.8745661 0.5002830
0.4947312 0.8606581 0.5024636
0.5802640 0.8119041 0.5308743
0.6865034 0.8013062 0.5650520
0.8591846 0.8184841 0.5697971
0.9914699 0.7878565 0.5238991
0.0082859 0.9917141 0.5000000
0.1250000 0.9917141 0.5000000
0.2500001 0.9917141 0.5000001
0.3750019 0.9917091 0.5000008
0.4999665 0.9910564 0.5001087
0.6235879 0.9823276 0.5019354
0.7401836 0.9287673 0.5260931
0.8447818 0.9054496 0.5619822
0.9979243 0.8232099 0.5167595
0.0082901 0.0083851 0.6249736
0.1250082 0.0083872 0.6249400
0.2500016 0.0083735 0.6249257
0.3750305 0.0083848 0.6249316
0.5000438 0.0083948 0.6249055
0.6250384 0.0083642 0.6248782
0.7500533 0.0083962 0.6248403
0.8750038 0.0083945 0.6248642
0.9917114 0.0082957 0.6249910
0.0089885 0.1344743 0.6215482
0.1249134 0.1334590 0.6196259
0.2496217 0.1318904 0.6209750
0.3781606 0.1310364 0.6221091
0.5047594 0.1359236 0.6176731
0.6271886 0.1315033 0.6182834
0.7539656 0.1293578 0.6149344
0.8758075 0.1308767 0.6142228
0.9908440 0.1274282 0.6217898
0.0128404 0.3100433 0.6166798
0.1209643 0.2847613 0.5914154
0.2575521 0.2952080 0.5945907
0.4194266 0.3165759 0.5987633
0.5442326 0.3089547 0.5802555
0.6496975 0.2866794 0.5853531
0.7838720 0.2842191 0.5553624
0.8983793 0.2985355 0.5196678
0.9760214 0.2767940 0.5712236
0.0169952 0.4207548 0.6566979
0.1133523 0.4227818 0.6416436
0.2689320 0.4260738 0.6165740
0.4323457 0.4440760 0.6043662
0.5843069 0.4647870 0.6064493
0.7328919 0.4478890 0.5585634
0.7928911 0.4494491 0.5216334
0.9080694 0.4265399 0.4947267
0.9517649 0.4160136 0.5001742
0.0134430 0.4977578 0.6752348
0.0725682 0.5175385 0.6866255
0.2433246 0.5255408 0.6472306
0.4059741 0.5469768 0.6486441
0.6055291 0.5879700 0.6534806
0.7446684 0.5757678 0.6197637
0.8093185 0.5639260 0.5768594
0.8950658 0.5370184 0.5410271
0.9486457 0.5088636 0.5216529
0.0101409 0.6179561 0.6364154
0.1143396 0.6079069 0.6556244
0.2099351 0.6008913 0.6666856
0.3613203 0.6379600 0.6829672
0.5589037 0.6801589 0.7014326
0.7632422 0.7213093 0.6902030
0.8130192 0.6791212 0.6308562
0.8771819 0.6570930 0.5970071
0.9307103 0.5967264 0.5252811
0.0083453 0.7497830 0.6251770
0.1249364 0.7485707 0.6259764
0.2518449 0.7447573 0.6290842
0.4415227 0.7333102 0.6356362
0.5176129 0.7248918 0.6548268
0.6819597 0.7414199 0.6664332
0.8233747 0.7754708 0.6819252
0.8896291 0.7620792 0.6609833
0.9327902 0.7192578 0.5967435
0.0082860 0.8749997 0.6250002
0.1250030 0.8749960 0.6250015
0.2516838 0.8744670 0.6251217
0.3930503 0.8675907 0.6266900
0.5056011 0.8687199 0.6281978
0.6457742 0.8439898 0.6445335
0.7508977 0.8200947 0.6743582
0.8699103 0.8253882 0.6632828
0.9597034 0.8016337 0.6226088
0.0082859 0.9917141 0.6250000
0.1250003 0.9917140 0.6250000
0.2501068 0.9916635 0.6250113
0.3761701 0.9910117 0.6251562
0.5004625 0.9912412 0.6252697
0.6300065 0.9829679 0.6300870
0.7574415 0.9433274 0.6439547
0.8598089 0.8874949 0.6565707
0.9765219 0.8461233 0.6216241
0.0082859 0.0082872 0.7499993
0.1250000 0.0082870 0.7499992
0.2500000 0.0082867 0.7499994
0.3750001 0.0082863 0.7499998
0.5000004 0.0082871 0.7499990
0.6250001 0.0082866 0.7499993
0.7500003 0.0082865 0.7499990
0.8750001 0.0082866 0.7499989
0.9917141 0.0082861 0.7499998
0.0082950 0.1256366 0.7496997
0.1249890 0.1252064 0.7498001
0.2500156 0.1252090 0.7498208
0.3751058 0.1252485 0.7498520
0.5000814 0.1252229 0.7498016
0.6250222 0.1250877 0.7498807
0.7500367 0.1250679 0.7498894
0.8750509 0.1252306 0.7496478
0.9916872 0.1251249 0.7498597
0.0094048 0.2662178 0.7394575
0.1240698 0.2581748 0.7444733
0.2492155 0.2549116 0.7454130
0.3782043 0.2556098 0.7449306
0.5021304 0.2549066 0.7467012
0.6280395 0.2546122 0.7453172
0.7521055 0.2546884 0.7450084
0.8772520 0.2562048 0.7385945
0.9894467 0.2590722 0.7374613
0.0202348 0.4131879 0.7245898
0.1172966 0.4122077 0.7274918
0.2612722 0.4144363 0.7243626
0.3882328 0.4055045 0.7281840
0.5235023 0.4093493 0.7283857
0.6535668 0.4064789 0.7194677
0.7828687 0.4266635 0.6955767
0.8947930 0.4418720 0.6729128
0.9775719 0.4294164 0.6683235
0.0179897 0.5465382 0.7650650
0.1028983 0.5479021 0.7564945
0.2582100 0.5444402 0.7347016
0.4554595 0.5640604 0.7130070
0.5575035 0.5613924 0.7089156
0.6903798 0.5838307 0.7167817
0.8341724 0.5791178 0.6669717
0.9225197 0.5966582 0.6468393
0.9731843 0.5887453 0.6291755
0.0208128 0.6093152 0.7689523
0.1095951 0.6085240 0.7671387
0.2536844 0.6355793 0.7592947
0.4356343 0.6755432 0.7575650
0.5795715 0.6804684 0.7444686
0.7264346 0.6955513 0.7332767
0.8248000 0.6767744 0.6972501
0.8678767 0.6610889 0.6681622
0.9562335 0.6406810 0.6332305
0.0091173 0.7478738 0.7507487
0.1271806 0.7447325 0.7527191
0.2716348 0.7448921 0.7567712
0.6345487 0.7176242 0.7025454
0.5654913 0.7521166 0.7811421
0.7209243 0.7857393 0.7814679
0.8663287 0.8167365 0.7731110
0.8885725 0.7758846 0.7191169
0.9376367 0.7434811 0.6793279
0.0082896 0.8749925 0.7500019
0.1250516 0.8749467 0.7500116
0.2684848 0.8699229 0.7479109
0.5791873 0.8050420 0.7214465
0.5764710 0.8362669 0.7509180
0.6597622 0.8289824 0.7720144
0.7920034 0.8346776 0.7541630
0.8951635 0.8406218 0.7533503
0.9300618 0.8058814 0.7053487
0.0082859 0.9917141 0.7500000
0.1250093 0.9917105 0.7499992
0.2535575 0.9900284 0.7496271
0.4139862 0.9683197 0.7448241
0.5119543 0.9814022 0.7483665
0.6366007 0.9669661 0.7518544
0.7541129 0.9408480 0.7482620
0.8477623 0.8990663 0.7322971
0.9617695 0.8569509 0.7018921
0.0082859 0.0082859 0.8750000
0.1250000 0.0082859 0.8750000
0.2500000 0.0082859 0.8750000
0.3750000 0.0082859 0.8750000
0.5000000 0.0082859 0.8750000
0.6250000 0.0082859 0.8750000
0.7500000 0.0082859 0.8750000
0.8750000 0.0082859 0.8750000
0.9917141 0.0082859 0.8750000
0.0082861 0.1250046 0.8749962
0.1249997 0.1250015 0.8749990
0.2499999 0.1250005 0.8749995
0.3750002 0.1250005 0.8749995
0.5000001 0.1250003 0.8749997
0.6250001 0.1250002 0.8749998
0.7500001 0.1250002 0.8749998
0.8750001 0.1250007 0.8749990
0.9917139 0.1250010 0.8749988
0.0083561 0.2504377 0.8745586
0.1249355 0.2501952 0.8748153
0.2500071 0.2500714 0.8749356
0.3750091 0.2500440 0.8749584
0.5000226 0.2500431 0.8749613
0.6250135 0.2500384 0.8749574
0.7500305 0.2500799 0.8749180
0.8750510 0.2502510 0.8747424
0.9916849 0.2502116 0.8747303
0.0090454 0.3823956 0.8691006
0.1239982 0.3792037 0.8717250
0.2500591 0.3780750 0.8725472
0.3774758 0.3793204 0.8713496
0.5001272 0.3766527 0.8734026
0.6256531 0.3759982 0.8740745
0.7522688 0.3784470 0.8713726
0.8784542 0.3860935 0.8627860
0.9905590 0.3873376 0.8608828
0.0197842 0.5367353 0.8420558
0.1268472 0.5389528 0.8469294
0.2675394 0.5359688 0.8430726
0.4017707 0.5247145 0.8371831
0.5114763 0.5150292 0.8601091
0.6383926 0.5161346 0.8619579
0.7677737 0.5295259 0.8483088
0.8911667 0.5338280 0.8265404
0.9940165 0.5636015 0.7747622
0.0347215 0.6209442 0.8523621
0.1687376 0.6426145 0.8311371
0.2738952 0.6571016 0.8329735
0.4216515 0.6895993 0.8470349
0.5631936 0.6806857 0.8349538
0.7225924 0.6977776 0.8196871
0.7923473 0.6781763 0.8176562
0.9116700 0.6763147 0.7721946
0.9834467 0.6775122 0.7328711
0.0173047 0.7477825 0.8738430
0.1527598 0.7381923 0.8681918
0.2943836 0.7412464 0.8635727
0.4777912 0.7639485 0.8496625
0.6161934 0.7891025 0.8405522
0.7442694 0.8041165 0.8293035
0.8455315 0.8179924 0.8216126
0.8975245 0.7918550 0.7930936
0.9674462 0.7505796 0.7333860
0.0084020 0.8749244 0.8749885
0.1265901 0.8740590 0.8748731
0.2674052 0.8692028 0.8698211
0.5669597 0.8100939 0.7992100
0.5659081 0.8444452 0.8499472
0.7180195 0.8549498 0.8513309
0.8386743 0.8588387 0.8332098
0.9273660 0.8763445 0.8237778
0.9563152 0.8400191 0.7756442
0.0082860 0.9917141 0.8750000
0.1250105 0.9917080 0.8749978
0.2535575 0.9900284 0.8738785
0.4139862 0.9683197 0.8594351
0.5123738 0.9819155 0.8690285
0.6363639 0.9814539 0.8713271
0.7830322 0.9361025 0.8499640
0.8772311 0.8779495 0.8033584
0.9637407 0.8993368 0.8117949
0.0082859 0.0082859 0.9917141
0.1250000 0.0082859 0.9917141
0.2500000 0.0082859 0.9917141
0.3750000 0.0082859 0.9917141
0.5000000 0.0082859 0.9917141
0.6250000 0.0082859 0.9917141
0.7500000 0.0082859 0.9917141
0.8750000 0.0082859 0.9917141
0.9917141 0.0082859 0.9917141
0.0082859 0.1250000 0.9917141
0.1250000 0.1250000 0.9917141
0.2500000 0.1250000 0.9917141
0.3750000 0.1250000 0.9917141
0.5000000 0.1250000 0.9917141
0.6250000 0.1250000 0.9917141
0.7500000 0.1250000 0.9917141
0.8750000 0.1250000 0.9917141
0.9917141 0.1250000 0.9917141
0.0082860 0.2500010 0.9917131
0.1249999 0.2500004 0.9917137
0.2500000 0.2500001 0.9917140
0.3750001 0.2500002 0.9917139
0.5000000 0.2500001 0.9917141
0.6250000 0.2500000 0.9917141
0.7500001 0.2500002 0.9917139
0.8750002 0.2500013 0.9917128
0.9917140 0.2500014 0.9917126
0.0083143 0.3752162 0.9915065
0.1250057 0.3751767 0.9915808
0.2500127 0.3750873 0.9916358
0.3750273 0.3750558 0.9916443
0.5000002 0.3750111 0.9916987
0.6250059 0.3750089 0.9917063
0.7500135 0.3750250 0.9916825
0.8750259 0.3750803 0.9915924
0.9917207 0.3752869 0.9913327
0.0109894 0.5030546 0.9873783
0.1281014 0.5083541 0.9820202
0.2508747 0.5058084 0.9860489
0.3753177 0.5007794 0.9906401
0.5002205 0.5003154 0.9913236
0.6255918 0.5008701 0.9909424
0.7502446 0.5004926 0.9910497
0.8754362 0.5009337 0.9901069
0.9916707 0.5038837 0.9846170
0.0328854 0.6316848 0.9773626
0.1933523 0.6597785 0.9191526
0.2789550 0.6597086 0.9231209
0.3917634 0.6437064 0.9728022
0.5084274 0.6359006 0.9810461
0.6339331 0.6343580 0.9801998
0.7549658 0.6311634 0.9821700
0.8781088 0.6307439 0.9765891
0.9904249 0.6403920 0.9567856
0.0186992 0.7480547 0.9859796
0.1808644 0.7416364 0.9532847
0.3581778 0.7420580 0.8937675
0.4258643 0.7589018 0.9430158
0.5808162 0.7829053 0.9196478
0.6835029 0.7848327 0.9329699
0.7821175 0.7790484 0.9421270
0.8780640 0.7635610 0.9419324
0.9901466 0.7721826 0.8499953
0.0084223 0.8749141 0.9916410
0.1291954 0.8725946 0.9893888
0.2578259 0.8681159 0.9846541
0.3867213 0.8703167 0.9833490
0.5608351 0.8588067 0.9462444
0.7086290 0.8622730 0.9172320
0.8469875 0.8811021 0.8801874
0.9315094 0.8960698 0.8834389
0.9862444 0.8394735 0.8153314
0.0082861 0.9917139 0.9917141
0.1250100 0.9917033 0.9917086
0.2501188 0.9916437 0.9916470
0.3763446 0.9909081 0.9908196
0.5039581 0.9893214 0.9895080
0.6430782 0.9854410 0.9835703
0.8578721 0.9578210 0.9339634
0.9463429 0.9342157 0.8896865
0.9851815 0.9442433 0.8757809
