looks/recipe_classic_neg_signature.cube
TITLE "Fuji recipe Classic Neg Signature (16 RAFs)"
LUT_3D_SIZE 5
0.0275585 0.0337444 0.0274570
0.1818102 0.0251899 0.0033498
0.5016268 0.0765891 0.0023274
0.7340550 0.0798761 0.0043559
0.9911312 0.0087704 0.0082634
0.0179064 0.2308704 0.0218308
0.1805290 0.2436240 0.0552893
0.6237957 0.2342613 0.0058789
0.7776933 0.2612437 0.0083816
0.9852613 0.2463064 0.0081719
0.0083439 0.4999528 0.0083292
0.2330047 0.4878764 0.0596924
0.4856415 0.5294243 0.0715652
0.7577435 0.4795001 0.0127624
0.9901718 0.4988929 0.0091235
0.0082859 0.7500000 0.0082859
0.2500680 0.7495095 0.0086170
0.4976159 0.7383991 0.0195998
0.7499209 0.7498245 0.0085841
0.9914910 0.7496912 0.0084922
0.0082859 0.9917141 0.0082859
0.2500000 0.9917141 0.0082859
0.5000001 0.9917141 0.0082859
0.7499999 0.9917127 0.0082866
0.9917130 0.9917125 0.0082868
0.0259685 0.0657387 0.2496412
0.2484908 0.0471657 0.2447758
0.5336555 0.0417983 0.2364787
0.7530919 0.0146533 0.2391297
0.9912999 0.0087164 0.2493266
0.0182484 0.2445290 0.3085572
0.3232023 0.3525920 0.3483505
0.5640960 0.2697599 0.2034559
0.8243770 0.2243206 0.1210374
0.9077480 0.2095015 0.1050388
0.0079992 0.4993076 0.2519234
0.0301176 0.4874474 0.3355920
0.5889090 0.5651425 0.2900390
0.8308039 0.4710994 0.1897061
0.9295114 0.4901336 0.2320979
0.0082856 0.7499954 0.2500022
0.2448496 0.7459604 0.2524393
0.3899896 0.6904088 0.3117345
0.6998706 0.6441692 0.2583960
0.8803790 0.6180896 0.2549501
0.0082859 0.9917141 0.2500000
0.2500000 0.9917141 0.2500000
0.4999876 0.9916670 0.2500226
0.7498520 0.9911175 0.2501538
0.9882402 0.9859111 0.2512524
0.0088925 0.0103040 0.4997206
0.2502038 0.0113345 0.4986892
0.5054118 0.0128460 0.4944400
0.7511864 0.0109250 0.4965948
0.9917102 0.0083031 0.4999929
0.0218397 0.3121574 0.5416684
0.2804030 0.3140854 0.5008572
0.6386543 0.3371638 0.4670209
0.8697355 0.3072275 0.3960479
0.9860791 0.2555323 0.4897543
0.0138867 0.4990366 0.5414240
0.2327089 0.5337268 0.5959206
0.6198510 0.5947586 0.5780420
0.7592372 0.5145378 0.4502165
0.8711089 0.4503712 0.3850586
0.0082873 0.7499952 0.5000050
0.2585163 0.7473288 0.5015054
0.5085717 0.7182373 0.5029683
0.7004669 0.6665342 0.5147601
0.8107951 0.6264139 0.4530787
0.0082859 0.9917141 0.5000000
0.2500004 0.9917138 0.5000001
0.5000170 0.9916223 0.5000044
0.7434197 0.9603016 0.5018913
0.8119059 0.6854967 0.4416937
0.0082859 0.0082871 0.7499993
0.2500000 0.0082861 0.7499998
0.5000001 0.0082861 0.7499998
0.7500001 0.0082861 0.7499998
0.9917141 0.0082859 0.7500000
0.0099939 0.2575370 0.7453991
0.2511159 0.2545409 0.7474825
0.5013823 0.2521408 0.7488944
0.7513585 0.2546653 0.7454295
0.9906261 0.2517121 0.7483090
0.0331359 0.5464948 0.7535046
0.2821956 0.5517413 0.7298325
0.5400926 0.5470952 0.7066050
0.7642616 0.5415688 0.6527387
0.8653051 0.5371205 0.6038622
0.0093397 0.7489345 0.7500394
0.3189850 0.7286346 0.7273514
0.5263825 0.6893505 0.6981814
0.7364069 0.6985752 0.6590494
0.7889721 0.6406525 0.5851610
0.0082859 0.9917141 0.7500000
0.2500126 0.9917039 0.7499957
0.5001066 0.9911866 0.7498426
0.7291820 0.9430261 0.7200282
0.7863479 0.7098897 0.5886251
0.0082859 0.0082859 0.9917141
0.2500000 0.0082859 0.9917141
0.5000000 0.0082859 0.9917141
0.7500000 0.0082859 0.9917141
0.9917141 0.0082859 0.9917141
0.0082859 0.2500002 0.9917139
0.2500000 0.2500000 0.9917141
0.5000000 0.2500000 0.9917141
0.7500000 0.2500001 0.9917140
0.9917140 0.2500001 0.9917139
0.0107334 0.5012965 0.9889382
0.2519351 0.5031244 0.9853036
0.5000198 0.5000772 0.9915577
0.7500104 0.5000485 0.9915317
0.9913985 0.5001457 0.9910352
0.0094843 0.7493511 0.9904739
0.2629288 0.7364004 0.9596918
0.5125740 0.7471550 0.9699373
0.7514042 0.7460600 0.9213766
0.9614600 0.7359101 0.9371762
0.0082859 0.9917141 0.9917141
0.2500001 0.9917139 0.9917139
0.5000758 0.9916383 0.9916238
0.7496492 0.9572107 0.9515387
0.7801014 0.7490259 0.6899406
