looks/recipe_ektar100.cube
TITLE "Fuji recipe Ektar 100 (16 RAFs)"
LUT_3D_SIZE 5
0.0155749 0.0151176 0.0130039
0.1703002 0.0053746 0.0052531
0.5244766 0.0112946 0.0156310
0.7360815 0.0146150 0.0177780
0.9916608 0.0083080 0.0083041
0.0229414 0.2262297 0.0114905
0.2259056 0.2209687 0.0138113
0.5571908 0.1908886 0.0118227
0.7664208 0.2514121 0.0137796
0.9901851 0.2486759 0.0090568
0.0083168 0.4999589 0.0083045
0.2802773 0.4893790 0.0079545
0.5259411 0.5341628 0.0169560
0.7633867 0.4683418 0.0131100
0.9785302 0.4862495 0.0288593
0.0082859 0.7500000 0.0082859
0.2501261 0.7498128 0.0082840
0.5040764 0.7361009 0.0093105
0.7497237 0.7496942 0.0088796
0.9917184 0.7491904 0.0088500
0.0082859 0.9917141 0.0082859
0.2500000 0.9917141 0.0082859
0.5000001 0.9917139 0.0082859
0.7500003 0.9917122 0.0082872
0.9917134 0.9917129 0.0082868
0.0120199 0.0519952 0.2394253
0.2475519 0.0311823 0.2336704
0.5080921 0.0313318 0.2621685
0.7493155 0.0117803 0.2399919
0.9915138 0.0084137 0.2497956
0.0060115 0.2235492 0.2603095
0.2845344 0.2958971 0.2967438
0.5147225 0.2165493 0.2266339
0.7931185 0.2013957 0.2067828
0.9488097 0.2324225 0.2318901
0.0081861 0.4991364 0.2499374
0.0909419 0.4819046 0.2174726
0.5627427 0.5444281 0.2543003
0.8287877 0.4929906 0.2392127
0.9797600 0.5314534 0.2494774
0.0082849 0.7499822 0.2500018
0.2432066 0.7400709 0.2479853
0.4270216 0.6862164 0.2403790
0.7489284 0.6972368 0.2597728
0.9973791 0.6731358 0.2834133
0.0082859 0.9917141 0.2500000
0.2500001 0.9917139 0.2500000
0.4999678 0.9915563 0.2500262
0.7503214 0.9892577 0.2502308
0.9840713 0.9703292 0.2562732
0.0082541 0.0109880 0.4997793
0.2495067 0.0123618 0.4983696
0.5030769 0.0130902 0.4977289
0.7496461 0.0108185 0.4992316
0.9917119 0.0082901 0.5000007
0.0022161 0.3114100 0.5137302
0.2118323 0.2823369 0.5173923
0.5534996 0.3086895 0.5417509
0.7942565 0.2747441 0.5156716
0.9863613 0.2536614 0.4951527
0.0067602 0.4924187 0.5176280
0.2271560 0.4889114 0.5137965
0.5982594 0.6011081 0.6066486
0.7630028 0.4970912 0.4927784
0.9151717 0.4637932 0.4677955
0.0082858 0.7499970 0.5000021
0.2499500 0.7482092 0.5010497
0.4822292 0.7129142 0.4722337
0.7898139 0.7634874 0.5563087
0.9782084 0.7162292 0.5395949
0.0082859 0.9917141 0.5000000
0.2500000 0.9917141 0.5000000
0.5002136 0.9905631 0.4996814
0.7429308 0.9386562 0.5144208
0.9987516 0.8174583 0.5409701
0.0082858 0.0082886 0.7499986
0.2499997 0.0082868 0.7499993
0.5000002 0.0082870 0.7499993
0.7500011 0.0082907 0.7499961
0.9917141 0.0082859 0.7500000
0.0075511 0.2675394 0.7355663
0.2450958 0.2586954 0.7443985
0.4993970 0.2566080 0.7476408
0.7561611 0.2687798 0.7389047
0.9896477 0.2531930 0.7485026
0.0031363 0.5454686 0.7165293
0.1748941 0.5497220 0.7094170
0.4929970 0.5631976 0.7278320
0.7868744 0.5761993 0.7405542
0.9395666 0.5423554 0.7338154
0.0082413 0.7489682 0.7499486
0.2887216 0.7359868 0.7424361
0.4552175 0.7271011 0.7432865
0.7877121 0.7860481 0.7872890
0.8830743 0.6813103 0.6694646
0.0082859 0.9917141 0.7500000
0.2507089 0.9911736 0.7499177
0.5005956 0.9889349 0.7496653
0.7562491 0.9420471 0.7318150
0.9717675 0.8079791 0.6589441
0.0082859 0.0082859 0.9917141
0.2500000 0.0082859 0.9917141
0.5000000 0.0082859 0.9917141
0.7500000 0.0082859 0.9917141
0.9917141 0.0082859 0.9917141
0.0082859 0.2500013 0.9917129
0.2499999 0.2500002 0.9917139
0.5000000 0.2500001 0.9917140
0.7500011 0.2500046 0.9917101
0.9917132 0.2500036 0.9917115
0.0080235 0.5079833 0.9760628
0.2414976 0.5057897 0.9839864
0.4997325 0.5032356 0.9872376
0.7511913 0.5033855 0.9874896
0.9870008 0.5078433 0.9789956
0.0082679 0.7483496 0.9880692
0.1510848 0.7178397 0.9087388
0.4823246 0.7579752 0.8779078
0.7607208 0.8027886 0.9232933
0.9270861 0.7520404 0.8622620
0.0082859 0.9917140 0.9917141
0.2508177 0.9910908 0.9911569
0.5005859 0.9893888 0.9899987
0.7955117 0.9290506 0.9616687
0.9359672 0.9295945 0.9266090
