looks/recipe_reggies_portra.cube
TITLE "Fuji recipe Reggie's Portra (16 RAFs)"
LUT_3D_SIZE 5
0.0172250 0.0170061 0.0145883
0.1768379 0.0196694 0.0183824
0.5335686 0.0515242 0.0522327
0.7306212 0.0447026 0.0458424
0.9916345 0.0083405 0.0083368
0.0249888 0.2263376 0.0143456
0.2406299 0.2269080 0.0365603
0.5781242 0.2243957 0.0521386
0.7581379 0.2747842 0.0451853
0.9899292 0.2497420 0.0100956
0.0083254 0.4999610 0.0083088
0.2692591 0.4767079 0.0185777
0.5255145 0.5244128 0.0480905
0.7552953 0.4730594 0.0314885
0.9798036 0.5012046 0.0319223
0.0082859 0.7500000 0.0082859
0.2501230 0.7497754 0.0083101
0.5001360 0.7141399 0.0188668
0.7492209 0.7493575 0.0092707
0.9916613 0.7497569 0.0087374
0.0082859 0.9917141 0.0082859
0.2500000 0.9917141 0.0082859
0.5000001 0.9917136 0.0082860
0.7500000 0.9917108 0.0082890
0.9917124 0.9917114 0.0082891
0.0168535 0.0561842 0.2409549
0.2499197 0.0445001 0.2477988
0.5117071 0.0440378 0.2685075
0.7497971 0.0153858 0.2478279
0.9915549 0.0084417 0.2499680
0.0164976 0.2299476 0.2694502
0.3027359 0.3153782 0.3097004
0.5290906 0.2619551 0.2652250
0.7793361 0.2690288 0.2695108
0.9437888 0.2725554 0.2633747
0.0088324 0.4989883 0.2500938
0.1373459 0.4774962 0.2431472
0.5564052 0.5328121 0.2665451
0.8082307 0.5115322 0.2667134
0.9592224 0.5364085 0.2697372
0.0082878 0.7499781 0.2500010
0.2456515 0.7395539 0.2502521
0.4287599 0.6701677 0.2654243
0.7262171 0.6898109 0.2859875
0.9880050 0.6964410 0.3063810
0.0082859 0.9917141 0.2500000
0.2500001 0.9917139 0.2500000
0.4998918 0.9909809 0.2501968
0.7502232 0.9880100 0.2507294
0.9796906 0.9721849 0.2560840
0.0083946 0.0100243 0.4995106
0.2500268 0.0112920 0.4991289
0.5030970 0.0149086 0.4986377
0.7498313 0.0105147 0.4997556
0.9917117 0.0082913 0.5000010
0.0123399 0.3142326 0.5034881
0.2360896 0.3053257 0.4998016
0.5476295 0.3424141 0.5432128
0.7907000 0.3415497 0.5402474
0.9865553 0.2564518 0.4991989
0.0108619 0.4915601 0.5191459
0.2620561 0.4966212 0.5124188
0.5959222 0.6041610 0.5947686
0.7609330 0.5324587 0.5244420
0.9046502 0.4965776 0.4889497
0.0082868 0.7499909 0.5000046
0.2499603 0.7473365 0.5014522
0.4910359 0.7073324 0.4792374
0.7721617 0.7449993 0.5382953
0.9684598 0.7320762 0.5332007
0.0082859 0.9917141 0.5000000
0.2500001 0.9917141 0.5000000
0.5004663 0.9902023 0.4999391
0.7385162 0.9266905 0.5184565
0.9952708 0.8140671 0.5111656
0.0082859 0.0082867 0.7499995
0.2500000 0.0082867 0.7499996
0.5000003 0.0082867 0.7499996
0.7500002 0.0082873 0.7499992
0.9917141 0.0082859 0.7500000
0.0085724 0.2583761 0.7413688
0.2492444 0.2545089 0.7464893
0.5005603 0.2539368 0.7477397
0.7522295 0.2625902 0.7442045
0.9903691 0.2524300 0.7491844
0.0170674 0.5330814 0.6778522
0.2132178 0.5533912 0.7051454
0.5136898 0.5515472 0.7001857
0.7757036 0.5972415 0.7300217
0.9275109 0.5702958 0.7340546
0.0086958 0.7478335 0.7493324
0.2877871 0.7353776 0.7394851
0.4837530 0.7251927 0.7206842
0.7780374 0.7884935 0.7692264
0.8697148 0.6944525 0.6668696
0.0082859 0.9917141 0.7500000
0.2515174 0.9905677 0.7497371
0.5014994 0.9865527 0.7487430
0.7451102 0.9277331 0.7290735
0.9663706 0.8430871 0.6825176
0.0082859 0.0082859 0.9917141
0.2500000 0.0082859 0.9917141
0.5000000 0.0082859 0.9917141
0.7500000 0.0082859 0.9917141
0.9917141 0.0082859 0.9917141
0.0082859 0.2500002 0.9917139
0.2500000 0.2500001 0.9917141
0.5000000 0.2500000 0.9917141
0.7500001 0.2500013 0.9917131
0.9917131 0.2500041 0.9917115
0.0087400 0.5014211 0.9875131
0.2473523 0.5028469 0.9865475
0.5003255 0.5010772 0.9900912
0.7503491 0.5016130 0.9897640
0.9881834 0.5060438 0.9837428
0.0096222 0.7474931 0.9857311
0.2089705 0.7189571 0.8833175
0.4899080 0.7598574 0.8774536
0.7510067 0.7777914 0.9169959
0.9320530 0.7608759 0.8826358
0.0082859 0.9917141 0.9917141
0.2503019 0.9914846 0.9914882
0.5015175 0.9898655 0.9900128
0.7427633 0.8734486 0.8703882
0.9227914 0.9278399 0.8949036
