looks/recipe_kodachrome64.cube
TITLE "Fuji recipe Kodachrome 64 (16 RAFs)"
LUT_3D_SIZE 5
0.0168799 0.0167266 0.0141983
0.1727305 0.0192508 0.0175054
0.5226076 0.0502787 0.0493240
0.7314255 0.0455603 0.0446593
0.9916327 0.0083403 0.0083346
0.0244779 0.2253297 0.0139740
0.2355645 0.2224053 0.0352399
0.5757099 0.2247057 0.0515380
0.7570179 0.2722102 0.0450964
0.9899017 0.2497489 0.0100523
0.0083644 0.4999185 0.0083349
0.2684979 0.4759247 0.0179894
0.5223178 0.5281787 0.0498905
0.7493218 0.4701058 0.0315220
0.9803293 0.5015358 0.0313988
0.0082859 0.7500000 0.0082859
0.2501240 0.7497759 0.0083110
0.5028434 0.7201800 0.0177941
0.7495434 0.7495953 0.0087917
0.9916686 0.7495549 0.0090204
0.0082859 0.9917141 0.0082859
0.2500000 0.9917141 0.0082859
0.5000002 0.9917135 0.0082862
0.7500001 0.9917122 0.0082876
0.9917113 0.9917095 0.0082912
0.0210696 0.0603805 0.2443366
0.2485279 0.0439024 0.2458579
0.5097600 0.0435167 0.2662229
0.7496030 0.0152260 0.2474758
0.9915523 0.0084423 0.2499668
0.0159730 0.2273861 0.2630031
0.2989887 0.3121531 0.3042848
0.5223661 0.2584296 0.2578641
0.7764878 0.2661622 0.2635435
0.9436952 0.2724035 0.2607291
0.0088051 0.4989024 0.2499724
0.1367010 0.4753530 0.2388015
0.5579243 0.5355129 0.2687191
0.8125529 0.5163193 0.2674748
0.9569882 0.5346753 0.2629794
0.0082878 0.7499777 0.2500003
0.2452681 0.7389436 0.2500258
0.4301530 0.6716512 0.2659050
0.7301464 0.6918053 0.2845948
0.9916571 0.6943318 0.3107432
0.0082859 0.9917141 0.2500000
0.2500001 0.9917139 0.2500000
0.4998976 0.9909887 0.2501833
0.7503157 0.9883471 0.2507791
0.9754112 0.9649944 0.2574685
0.0083945 0.0100187 0.4994802
0.2501181 0.0106274 0.4991837
0.5030034 0.0144333 0.4984883
0.7497022 0.0104261 0.4996443
0.9917115 0.0082919 0.5000009
0.0123362 0.3170343 0.5011162
0.2458076 0.3184472 0.5133989
0.5438181 0.3453818 0.5373901
0.7917761 0.3448040 0.5352089
0.9865766 0.2566090 0.4991295
0.0109843 0.4890752 0.5169762
0.2675092 0.4998972 0.5102884
0.5968236 0.6066766 0.5911975
0.7640377 0.5337619 0.5197577
0.9193587 0.4977705 0.4912484
0.0082874 0.7499864 0.5000072
0.2500994 0.7469089 0.5018787
0.5060740 0.7164642 0.4948868
0.7766374 0.7508513 0.5394465
0.9708636 0.7380436 0.5356488
0.0082859 0.9917141 0.5000000
0.2500001 0.9917141 0.5000000
0.5004848 0.9902293 0.4998974
0.7377239 0.9243587 0.5153908
0.9987390 0.8207241 0.5135040
0.0082859 0.0082867 0.7499995
0.2500000 0.0082861 0.7499999
0.5000001 0.0082861 0.7499999
0.7500002 0.0082873 0.7499992
0.9917141 0.0082859 0.7500000
0.0085371 0.2579288 0.7414158
0.2492474 0.2548538 0.7470194
0.4999493 0.2535765 0.7485603
0.7528623 0.2601862 0.7447981
0.9904138 0.2524442 0.7490826
0.0174426 0.5386499 0.6741610
0.2479849 0.5647385 0.7062358
0.5149608 0.5696445 0.7132302
0.7792279 0.6013671 0.7254004
0.9308092 0.5780657 0.7338683
0.0086747 0.7476934 0.7491018
0.2815395 0.7370596 0.7412756
0.4909292 0.7291621 0.7292710
0.7810041 0.7941779 0.7650710
0.8811647 0.7069911 0.6794849
0.0082859 0.9917141 0.7500000
0.2515355 0.9905867 0.7497051
0.5014157 0.9871486 0.7487373
0.7453741 0.9263665 0.7268882
0.9602569 0.8437480 0.6780863
0.0082859 0.0082859 0.9917141
0.2500000 0.0082859 0.9917141
0.5000000 0.0082859 0.9917141
0.7500000 0.0082859 0.9917141
0.9917141 0.0082859 0.9917141
0.0082859 0.2500002 0.9917139
0.2500000 0.2500000 0.9917141
0.5000000 0.2500000 0.9917141
0.7500002 0.2500012 0.9917132
0.9917139 0.2500010 0.9917134
0.0087491 0.5014799 0.9873714
0.2478956 0.5021685 0.9879712
0.5000585 0.5007268 0.9908159
0.7502844 0.5011166 0.9902733
0.9897503 0.5037717 0.9867789
0.0096632 0.7476100 0.9855071
0.2103287 0.7225254 0.8796250
0.5154168 0.7664551 0.8910089
0.7555527 0.7802564 0.9399420
0.9388992 0.7663516 0.8926982
0.0082859 0.9917141 0.9917141
0.2503055 0.9914885 0.9914818
0.5013180 0.9900692 0.9900658
0.7435750 0.8759354 0.8591921
0.9219352 0.9290998 0.8814514
