looks/recipe_kodak_gold200.cube
TITLE "Fuji recipe Kodak Gold 200 (16 RAFs)"
LUT_3D_SIZE 33
0.0204641 0.0200845 0.0175156
0.0371938 0.0254279 0.0214320
0.0629088 0.0254268 0.0209288
0.0850980 0.0205031 0.0167081
0.1110435 0.0167720 0.0145624
0.1429687 0.0152671 0.0140290
0.1679449 0.0138291 0.0122119
0.1783054 0.0119171 0.0100057
0.1994818 0.0114384 0.0095441
0.2334234 0.0118466 0.0109266
0.2874943 0.0143620 0.0132378
0.3727950 0.0176213 0.0157099
0.4285176 0.0192411 0.0171809
0.4593395 0.0195976 0.0179211
0.4783127 0.0193880 0.0178725
0.5016215 0.0202520 0.0188143
0.5388830 0.0228463 0.0217070
0.5712042 0.0250105 0.0240189
0.5980790 0.0267841 0.0256686
0.6234824 0.0279373 0.0272737
0.6492627 0.0290883 0.0294362
0.6713488 0.0297786 0.0307983
0.6858841 0.0278166 0.0288042
0.7080743 0.0253893 0.0257799
0.7410690 0.0248963 0.0245071
0.7710961 0.0211418 0.0206291
0.8024849 0.0158848 0.0155498
0.8370571 0.0121461 0.0119229
0.8715954 0.0102443 0.0100591
0.9047329 0.0092782 0.0091413
0.9368660 0.0086928 0.0086277
0.9680356 0.0084148 0.0083931
0.9916424 0.0083296 0.0083213
0.0187777 0.0258750 0.0159705
0.0359701 0.0346155 0.0219769
0.0606079 0.0395910 0.0240857
0.0845534 0.0370437 0.0206545
0.1111001 0.0323793 0.0175112
0.1414749 0.0290435 0.0161337
0.1702465 0.0271516 0.0150506
0.1945721 0.0259061 0.0139724
0.2236807 0.0249441 0.0133281
0.2593692 0.0245120 0.0141337
0.3084937 0.0251342 0.0158417
0.3756173 0.0241439 0.0172033
0.4239189 0.0236429 0.0180571
0.4577209 0.0237503 0.0188259
0.4829176 0.0245391 0.0197456
0.5060525 0.0265182 0.0215281
0.5399728 0.0287602 0.0240354
0.5717412 0.0303375 0.0259033
0.5992678 0.0317291 0.0273779
0.6248233 0.0326802 0.0289131
0.6503740 0.0337081 0.0310036
0.6721268 0.0349535 0.0323738
0.6877648 0.0360889 0.0311317
0.7123858 0.0388993 0.0299121
0.7416852 0.0412085 0.0288018
0.7688477 0.0396756 0.0239099
0.8001610 0.0371237 0.0180753
0.8352984 0.0356072 0.0142008
0.8701373 0.0344187 0.0117645
0.9036788 0.0331562 0.0099922
0.9363339 0.0323057 0.0089482
0.9678357 0.0319436 0.0085116
0.9915615 0.0318284 0.0083750
0.0179237 0.0416598 0.0161564
0.0337124 0.0505179 0.0199235
0.0574900 0.0583297 0.0237278
0.0839831 0.0587101 0.0235385
0.1111137 0.0549026 0.0205110
0.1396111 0.0513938 0.0173740
0.1725265 0.0503707 0.0158514
0.2099300 0.0510179 0.0153176
0.2474259 0.0515011 0.0151795
0.2831622 0.0508963 0.0158860
0.3216676 0.0483684 0.0165604
0.3732946 0.0420269 0.0175666
0.4145122 0.0396182 0.0183592
0.4458707 0.0395956 0.0190865
0.4758565 0.0410091 0.0210477
0.5036926 0.0403716 0.0250096
0.5351900 0.0399146 0.0270607
0.5671014 0.0399746 0.0278602
0.5968747 0.0402591 0.0286980
0.6235023 0.0403697 0.0298056
0.6492833 0.0404967 0.0314402
0.6718348 0.0421661 0.0327831
0.6913505 0.0472646 0.0333719
0.7201235 0.0555791 0.0349913
0.7439235 0.0599652 0.0331618
0.7676705 0.0619896 0.0274705
0.7990575 0.0646923 0.0224897
0.8335047 0.0662542 0.0186748
0.8677872 0.0654172 0.0146187
0.9019728 0.0640176 0.0113414
0.9355050 0.0632051 0.0095575
0.9674682 0.0628334 0.0087941
0.9913667 0.0626719 0.0085145
0.0219770 0.0660870 0.0174989
0.0340017 0.0707550 0.0176028
0.0559251 0.0801164 0.0210223
0.0822732 0.0825585 0.0236511
0.1104490 0.0791371 0.0226856
0.1408783 0.0751153 0.0195657
0.1757469 0.0728795 0.0169769
0.2160649 0.0726402 0.0156988
0.2587274 0.0743944 0.0152603
0.2993892 0.0768137 0.0153257
0.3376895 0.0774326 0.0155358
0.3780918 0.0748689 0.0165470
0.4120756 0.0747167 0.0175160
0.4372874 0.0749863 0.0179519
0.4679535 0.0756499 0.0191915
0.5025333 0.0684756 0.0227179
0.5350447 0.0649566 0.0246046
0.5657203 0.0641772 0.0258292
0.5958461 0.0646586 0.0264803
0.6212758 0.0622582 0.0272372
0.6465988 0.0563376 0.0292002
0.6715004 0.0561739 0.0314475
0.6956524 0.0633939 0.0343810
0.7242215 0.0729752 0.0372881
0.7453096 0.0787677 0.0352309
0.7687808 0.0850154 0.0308033
0.7999436 0.0922951 0.0282281
0.8319461 0.0950991 0.0234895
0.8654470 0.0950289 0.0174292
0.9004366 0.0947446 0.0130116
0.9345763 0.0944963 0.0105843
0.9668552 0.0941765 0.0093284
0.9909946 0.0939768 0.0087752
0.0291618 0.0954127 0.0203901
0.0430718 0.1004072 0.0197857
0.0638452 0.1116404 0.0220421
0.0843331 0.1124514 0.0231293
0.1090429 0.1081609 0.0231924
0.1397544 0.1025356 0.0217655
0.1772626 0.0975288 0.0196028
0.2187464 0.0953164 0.0180687
0.2659390 0.0969346 0.0174284
0.3122784 0.0999031 0.0169685
0.3536841 0.1025636 0.0164159
0.3935943 0.1046405 0.0166016
0.4301590 0.1068348 0.0172193
0.4567223 0.1073341 0.0171773
0.4807040 0.1077409 0.0166946
0.5140544 0.1081245 0.0165473
0.5455931 0.1101976 0.0176402
0.5715735 0.1112110 0.0201343
0.6009346 0.1150801 0.0210232
0.6215176 0.1098867 0.0218163
0.6435825 0.0931948 0.0255419
0.6710208 0.0857394 0.0296725
0.6992618 0.0895533 0.0337732
0.7255654 0.0948482 0.0356666
0.7473093 0.1005235 0.0342299
0.7725262 0.1092759 0.0325646
0.8014762 0.1171952 0.0311685
0.8314779 0.1211245 0.0258849
0.8648579 0.1235415 0.0196348
0.8996704 0.1250847 0.0151484
0.9334288 0.1253938 0.0120671
0.9659480 0.1252516 0.0100753
0.9904754 0.1251611 0.0091320
0.0437515 0.1429125 0.0257972
0.0615404 0.1469282 0.0260638
0.0769275 0.1491928 0.0260815
0.0889626 0.1423253 0.0232049
0.1092242 0.1375921 0.0222054
0.1380176 0.1341557 0.0221363
0.1740150 0.1290507 0.0217583
0.2156183 0.1260725 0.0207679
0.2671449 0.1268754 0.0201342
0.3181564 0.1255955 0.0198736
0.3595564 0.1281358 0.0197524
0.4020741 0.1321405 0.0191594
0.4427031 0.1341081 0.0185811
0.4773582 0.1338961 0.0183294
0.5049908 0.1318597 0.0174782
0.5321248 0.1320310 0.0157659
0.5597215 0.1364165 0.0154260
0.5830287 0.1417520 0.0161466
0.6108962 0.1499005 0.0169333
0.6276249 0.1512256 0.0187371
0.6456655 0.1428014 0.0236491
0.6716356 0.1327476 0.0279014
0.6998236 0.1294045 0.0305194
0.7246358 0.1272988 0.0316921
0.7491397 0.1302162 0.0313982
0.7771232 0.1375232 0.0315577
0.8044972 0.1431517 0.0299838
0.8339276 0.1480005 0.0258599
0.8664423 0.1522969 0.0215338
0.8991488 0.1545080 0.0173515
0.9321626 0.1554073 0.0134999
0.9650687 0.1558980 0.0107751
0.9899937 0.1561532 0.0094661
0.0474494 0.1752115 0.0235568
0.0651712 0.1723197 0.0249981
0.0783359 0.1640816 0.0230685
0.0880006 0.1552310 0.0184339
0.1091686 0.1604251 0.0189436
0.1388728 0.1679108 0.0206809
0.1736894 0.1668529 0.0224800
0.2135653 0.1639379 0.0230628
0.2612168 0.1642454 0.0225594
0.3077238 0.1567197 0.0221315
0.3507887 0.1610284 0.0242142
0.3984689 0.1706310 0.0250445
0.4416871 0.1653458 0.0216049
0.4857914 0.1622263 0.0200828
0.5278047 0.1639057 0.0205362
0.5549501 0.1583702 0.0194894
0.5858927 0.1597582 0.0186766
0.6128417 0.1659015 0.0179379
0.6330358 0.1722087 0.0182627
0.6459830 0.1796734 0.0205530
0.6627617 0.1872645 0.0242427
0.6841186 0.1881246 0.0252473
0.7098693 0.1848936 0.0259502
0.7306389 0.1755358 0.0274259
0.7524672 0.1722621 0.0270021
0.7804968 0.1732872 0.0267123
0.8086386 0.1742800 0.0261719
0.8382169 0.1776101 0.0248500
0.8681279 0.1807000 0.0223333
0.8988749 0.1829590 0.0183305
0.9315987 0.1849230 0.0141410
0.9647142 0.1863508 0.0111384
0.9897946 0.1870602 0.0096737
0.0376063 0.1992281 0.0188061
0.0566753 0.1890837 0.0185172
0.0740681 0.1735119 0.0154048
0.0873614 0.1666723 0.0132074
0.1068171 0.1770882 0.0148252
0.1359054 0.1953181 0.0175788
0.1727004 0.2067462 0.0199932
0.2116333 0.2033827 0.0227057
0.2482417 0.1964197 0.0233600
0.2874679 0.1927898 0.0235286
0.3405685 0.1998854 0.0284515
0.3951658 0.2146424 0.0328986
0.4372522 0.1968566 0.0256509
0.4856727 0.1876413 0.0214980
0.5439069 0.1955250 0.0234735
0.5718594 0.1877037 0.0222803
0.6096165 0.1881852 0.0218440
0.6434391 0.1959052 0.0220831
0.6643333 0.2019255 0.0224592
0.6756740 0.2090423 0.0232132
0.6898941 0.2203782 0.0241461
0.7120577 0.2313483 0.0245366
0.7384497 0.2386393 0.0249533
0.7536799 0.2347299 0.0243538
0.7666444 0.2277392 0.0221701
0.7873793 0.2202113 0.0213008
0.8131583 0.2132003 0.0218634
0.8411987 0.2105956 0.0219916
0.8695201 0.2102796 0.0206100
0.8997312 0.2122224 0.0173410
0.9322614 0.2150155 0.0137343
0.9650964 0.2170900 0.0111176
0.9899514 0.2180730 0.0097528
0.0249287 0.2284999 0.0150074
0.0475016 0.2157912 0.0128158
0.0723424 0.2006541 0.0111723
0.0923500 0.1930672 0.0113535
0.1085750 0.1956434 0.0124209
0.1300121 0.2099251 0.0135930
0.1635340 0.2303714 0.0146596
0.2029804 0.2414962 0.0175238
0.2417555 0.2339814 0.0207308
0.2833468 0.2323705 0.0234337
0.3340403 0.2370809 0.0293386
0.3860213 0.2433294 0.0340292
0.4271940 0.2240731 0.0271688
0.4763925 0.2136501 0.0225020
0.5329844 0.2213735 0.0244380
0.5628929 0.2175346 0.0231941
0.6060160 0.2188522 0.0227738
0.6485311 0.2227547 0.0241334
0.6811263 0.2270664 0.0244970
0.7006181 0.2333127 0.0247258
0.7155702 0.2428182 0.0252601
0.7376429 0.2552840 0.0267893
0.7639240 0.2681411 0.0281397
0.7745717 0.2705970 0.0265083
0.7813714 0.2681153 0.0228453
0.7959736 0.2639170 0.0196993
0.8178817 0.2573411 0.0179437
0.8437628 0.2501082 0.0173356
0.8714640 0.2444447 0.0168508
0.9016572 0.2440378 0.0149955
0.9337766 0.2463525 0.0126443
0.9659042 0.2482805 0.0107382
0.9902918 0.2491985 0.0096030
0.0166391 0.2635516 0.0113368
0.0417368 0.2539723 0.0100936
0.0719697 0.2412761 0.0099477
0.0970022 0.2301090 0.0106590
0.1156842 0.2238944 0.0111299
0.1320413 0.2253036 0.0104379
0.1583037 0.2417580 0.0098428
0.1981063 0.2700773 0.0126929
0.2380852 0.2805947 0.0167671
0.2768134 0.2751124 0.0204555
0.3175562 0.2692776 0.0240999
0.3687448 0.2607122 0.0273030
0.4093031 0.2514615 0.0243422
0.4583737 0.2511195 0.0223664
0.5041759 0.2556475 0.0247332
0.5398696 0.2602286 0.0239931
0.5844754 0.2631013 0.0233374
0.6310299 0.2585100 0.0253994
0.6728828 0.2561226 0.0251116
0.7077120 0.2581121 0.0262969
0.7359813 0.2659970 0.0285953
0.7605030 0.2752682 0.0306337
0.7811741 0.2847561 0.0316739
0.7899240 0.2903562 0.0301665
0.7968492 0.2953511 0.0270939
0.8084498 0.2975650 0.0234166
0.8257070 0.2954837 0.0195544
0.8471059 0.2886682 0.0160317
0.8733581 0.2814062 0.0139225
0.9034889 0.2785179 0.0125757
0.9351915 0.2790441 0.0112558
0.9667000 0.2799960 0.0100207
0.9907105 0.2805382 0.0092326
0.0126353 0.3018034 0.0094035
0.0382952 0.2955133 0.0092036
0.0704076 0.2850108 0.0095857
0.0994075 0.2724499 0.0101366
0.1230704 0.2601334 0.0097161
0.1434569 0.2532936 0.0082678
0.1679280 0.2627891 0.0082156
0.2038534 0.2921519 0.0107741
0.2411982 0.3183251 0.0135439
0.2732949 0.3265329 0.0156211
0.3092989 0.3178646 0.0185438
0.3610991 0.2959481 0.0233001
0.3974906 0.2860011 0.0221276
0.4446508 0.2883039 0.0196453
0.4960952 0.2832260 0.0218320
0.5379997 0.2880452 0.0214915
0.5715117 0.2928610 0.0212748
0.6063088 0.2950099 0.0225641
0.6486681 0.2984559 0.0239531
0.6983199 0.2951055 0.0276491
0.7403575 0.2933258 0.0306967
0.7675287 0.2942196 0.0324081
0.7885814 0.3006403 0.0333718
0.8038732 0.3086385 0.0330669
0.8144643 0.3169387 0.0318194
0.8249003 0.3237067 0.0292215
0.8342712 0.3235629 0.0238024
0.8495232 0.3192430 0.0176838
0.8739826 0.3152486 0.0135985
0.9039153 0.3132351 0.0115474
0.9356200 0.3125599 0.0102593
0.9670768 0.3122619 0.0093623
0.9909701 0.3122427 0.0089074
0.0107112 0.3386833 0.0087063
0.0358484 0.3347308 0.0089752
0.0684005 0.3271337 0.0096226
0.0999796 0.3161634 0.0100421
0.1291987 0.3033136 0.0091835
0.1595204 0.2979125 0.0083615
0.1944171 0.3095005 0.0092245
0.2250332 0.3284018 0.0107593
0.2563200 0.3527363 0.0121796
0.2827076 0.3668001 0.0131707
0.3120828 0.3640780 0.0160889
0.3550180 0.3487116 0.0225856
0.3924449 0.3383872 0.0238668
0.4436917 0.3258981 0.0205970
0.4951931 0.3128389 0.0211661
0.5366464 0.3145745 0.0202558
0.5690207 0.3150581 0.0201746
0.6009883 0.3228295 0.0200117
0.6309524 0.3287843 0.0211363
0.6689611 0.3255308 0.0245294
0.7156926 0.3174374 0.0280688
0.7541425 0.3120075 0.0305536
0.7850667 0.3163152 0.0327509
0.8107525 0.3248225 0.0344242
0.8285112 0.3350730 0.0350734
0.8348777 0.3412995 0.0323862
0.8380378 0.3432040 0.0261356
0.8503864 0.3441351 0.0199018
0.8736258 0.3449899 0.0158890
0.9030222 0.3451195 0.0131019
0.9348321 0.3446774 0.0108956
0.9665361 0.3443809 0.0096685
0.9905379 0.3442616 0.0091554
0.0095321 0.3728470 0.0084751
0.0340064 0.3705977 0.0087367
0.0663369 0.3659535 0.0092743
0.0997559 0.3591524 0.0098943
0.1353147 0.3522514 0.0099126
0.1773563 0.3536621 0.0095295
0.2239378 0.3695583 0.0101085
0.2556906 0.3817239 0.0110053
0.2794425 0.3934719 0.0119644
0.3045897 0.4035291 0.0130892
0.3274993 0.4059981 0.0150093
0.3591065 0.4061679 0.0207156
0.4074064 0.4061701 0.0268933
0.4601581 0.3866709 0.0260410
0.4971561 0.3668141 0.0241998
0.5301252 0.3625442 0.0212479
0.5629111 0.3480117 0.0206240
0.5986258 0.3437044 0.0196078
0.6241803 0.3459865 0.0202229
0.6456099 0.3484838 0.0223809
0.6764452 0.3460161 0.0241838
0.7262884 0.3407233 0.0274483
0.7742768 0.3409343 0.0316456
0.8043922 0.3427792 0.0331087
0.8244520 0.3503341 0.0335586
0.8315755 0.3564815 0.0310594
0.8363918 0.3622544 0.0264317
0.8501863 0.3684554 0.0229071
0.8730481 0.3727562 0.0197534
0.9017322 0.3747499 0.0159038
0.9331877 0.3759541 0.0131145
0.9647368 0.3764825 0.0115239
0.9888936 0.3762533 0.0104554
0.0088327 0.4053916 0.0083844
0.0328602 0.4043209 0.0085141
0.0649699 0.4020908 0.0088141
0.1000318 0.3996366 0.0092145
0.1405808 0.3988467 0.0094548
0.1859105 0.3999997 0.0096325
0.2304806 0.4050636 0.0101087
0.2645345 0.4099192 0.0109359
0.2952603 0.4207937 0.0122647
0.3277256 0.4355278 0.0136337
0.3473287 0.4386126 0.0140280
0.3748019 0.4473113 0.0175949
0.4294929 0.4654837 0.0250495
0.4742271 0.4576475 0.0268774
0.4990206 0.4264018 0.0246393
0.5229374 0.4131433 0.0213413
0.5493345 0.3919553 0.0200187
0.5907683 0.3716865 0.0196809
0.6195977 0.3651517 0.0204285
0.6357678 0.3675669 0.0210878
0.6548578 0.3719186 0.0215911
0.6991701 0.3750816 0.0252625
0.7542369 0.3734191 0.0300967
0.7876179 0.3705474 0.0304105
0.8088561 0.3740598 0.0298248
0.8211303 0.3794657 0.0283107
0.8324571 0.3866726 0.0270026
0.8496999 0.3938371 0.0261081
0.8727501 0.3992996 0.0229927
0.9004325 0.4040057 0.0198668
0.9303616 0.4073572 0.0179205
0.9612002 0.4080355 0.0153695
0.9857005 0.4075704 0.0129841
0.0085071 0.4372089 0.0083494
0.0323298 0.4368601 0.0084164
0.0643834 0.4361737 0.0085552
0.0993362 0.4352721 0.0086805
0.1384826 0.4342833 0.0088799
0.1803561 0.4319909 0.0092521
0.2216217 0.4297132 0.0097671
0.2627658 0.4324765 0.0108427
0.3052330 0.4441247 0.0126353
0.3366001 0.4539262 0.0135279
0.3566689 0.4576091 0.0127302
0.3791100 0.4678177 0.0139963
0.4209767 0.4876336 0.0182103
0.4738439 0.5032852 0.0220784
0.5077521 0.4969827 0.0236413
0.5256224 0.4809518 0.0231183
0.5405235 0.4452897 0.0215876
0.5751146 0.4141970 0.0200860
0.6077455 0.3981908 0.0193859
0.6282896 0.3953365 0.0191125
0.6474021 0.4012245 0.0198053
0.6842889 0.4093362 0.0235646
0.7337589 0.4080945 0.0266586
0.7679188 0.4062177 0.0269633
0.7914085 0.4075654 0.0264307
0.8097392 0.4103670 0.0259533
0.8281592 0.4154370 0.0267707
0.8490587 0.4207457 0.0266548
0.8729842 0.4269989 0.0262219
0.8989386 0.4332128 0.0268947
0.9261914 0.4361981 0.0252236
0.9561816 0.4369637 0.0206548
0.9812784 0.4371988 0.0164892
0.0083679 0.4686756 0.0083402
0.0320283 0.4685854 0.0084070
0.0636137 0.4683300 0.0085164
0.0971136 0.4675913 0.0086173
0.1328335 0.4658362 0.0087945
0.1709059 0.4627558 0.0090075
0.2120771 0.4603588 0.0095336
0.2574820 0.4619185 0.0106460
0.2998796 0.4658102 0.0120551
0.3343975 0.4701709 0.0124566
0.3643664 0.4775406 0.0114024
0.3883829 0.4881478 0.0119222
0.4194914 0.5046869 0.0150872
0.4699088 0.5255123 0.0215671
0.5196566 0.5366294 0.0279000
0.5351513 0.5286821 0.0282821
0.5378476 0.5044471 0.0255385
0.5574144 0.4780616 0.0226933
0.5903363 0.4516571 0.0194374
0.6181953 0.4377443 0.0177872
0.6420029 0.4383333 0.0178786
0.6748812 0.4454142 0.0207866
0.7150372 0.4461794 0.0229201
0.7478582 0.4457082 0.0234750
0.7748919 0.4466594 0.0240645
0.7992276 0.4471225 0.0238933
0.8235995 0.4486441 0.0243842
0.8487540 0.4513780 0.0265033
0.8739357 0.4554011 0.0314795
0.8973548 0.4580986 0.0345396
0.9220402 0.4600002 0.0320182
0.9513801 0.4625429 0.0256878
0.9768429 0.4648424 0.0203162
0.0083108 0.4999775 0.0083392
0.0318410 0.4999311 0.0084159
0.0629101 0.4997562 0.0085688
0.0950081 0.4992418 0.0088080
0.1282954 0.4980169 0.0090066
0.1640804 0.4960452 0.0090163
0.2036376 0.4942197 0.0093011
0.2455466 0.4925815 0.0100320
0.2873368 0.4910553 0.0106410
0.3292716 0.4921574 0.0105850
0.3672798 0.4972617 0.0110098
0.3989195 0.5078480 0.0132838
0.4302814 0.5245193 0.0174596
0.4713635 0.5435644 0.0252795
0.5123648 0.5521131 0.0321601
0.5254995 0.5487486 0.0317069
0.5317513 0.5408075 0.0278277
0.5479711 0.5300071 0.0242407
0.5731011 0.5114138 0.0203389
0.6032158 0.4921827 0.0175091
0.6330584 0.4838836 0.0161602
0.6659901 0.4851251 0.0184573
0.7003064 0.4866384 0.0212208
0.7325985 0.4866461 0.0222533
0.7640556 0.4879139 0.0247085
0.7926644 0.4876864 0.0245068
0.8207412 0.4856611 0.0234909
0.8493681 0.4832470 0.0276140
0.8747325 0.4807493 0.0345813
0.8966153 0.4795049 0.0378186
0.9202342 0.4817323 0.0348714
0.9489641 0.4869276 0.0284696
0.9737320 0.4917456 0.0239553
0.0082939 0.5312330 0.0083278
0.0317584 0.5311968 0.0084001
0.0625529 0.5310882 0.0085700
0.0939624 0.5308089 0.0088312
0.1260088 0.5302000 0.0090366
0.1597454 0.5291880 0.0090596
0.1959989 0.5275539 0.0090168
0.2343947 0.5248896 0.0092366
0.2759739 0.5217897 0.0093854
0.3198614 0.5197398 0.0097710
0.3646687 0.5235986 0.0120703
0.4076707 0.5356023 0.0162017
0.4319859 0.5431733 0.0182674
0.4434897 0.5452921 0.0186912
0.4642904 0.5465748 0.0204465
0.4838221 0.5494161 0.0209668
0.5097780 0.5554758 0.0214229
0.5389721 0.5567142 0.0220205
0.5628636 0.5497516 0.0202851
0.5905272 0.5397600 0.0181027
0.6231021 0.5317711 0.0162900
0.6595064 0.5259223 0.0172730
0.6932582 0.5233060 0.0186483
0.7249877 0.5228508 0.0193439
0.7582071 0.5232588 0.0215400
0.7890671 0.5226695 0.0214102
0.8193750 0.5194544 0.0208930
0.8491752 0.5134176 0.0256390
0.8749688 0.5070914 0.0320254
0.8976256 0.5043733 0.0348143
0.9218643 0.5071699 0.0324464
0.9499682 0.5137223 0.0279906
0.9730514 0.5194011 0.0259919
0.0082896 0.5624864 0.0083106
0.0317408 0.5624599 0.0083576
0.0624777 0.5623907 0.0084748
0.0936873 0.5622438 0.0086654
0.1251517 0.5619673 0.0088354
0.1574878 0.5614510 0.0088440
0.1913076 0.5603637 0.0087200
0.2272139 0.5582783 0.0087092
0.2660242 0.5551168 0.0088239
0.3090217 0.5528476 0.0097238
0.3554687 0.5545530 0.0119180
0.3934393 0.5563825 0.0133625
0.4157777 0.5544546 0.0137979
0.4274818 0.5520880 0.0132340
0.4492951 0.5549021 0.0138391
0.4758817 0.5612492 0.0152932
0.5023155 0.5683794 0.0166658
0.5301479 0.5731136 0.0178815
0.5547042 0.5726842 0.0182528
0.5830838 0.5703312 0.0183240
0.6164917 0.5672350 0.0170404
0.6530642 0.5627948 0.0160194
0.6884866 0.5584015 0.0151288
0.7214188 0.5568092 0.0149668
0.7544977 0.5564758 0.0161236
0.7860331 0.5556269 0.0162349
0.8174012 0.5522904 0.0167610
0.8477421 0.5459419 0.0207262
0.8749757 0.5395926 0.0254321
0.8999596 0.5369495 0.0275806
0.9258065 0.5394868 0.0266302
0.9536264 0.5449495 0.0248982
0.9755339 0.5490288 0.0243955
0.0082876 0.5937418 0.0082974
0.0317407 0.5937260 0.0083195
0.0624885 0.5936856 0.0083756
0.0936919 0.5936092 0.0084748
0.1249711 0.5934846 0.0085711
0.1566208 0.5932521 0.0085924
0.1890245 0.5926871 0.0085813
0.2228139 0.5913693 0.0085522
0.2589287 0.5891681 0.0086231
0.2992479 0.5865507 0.0091305
0.3422132 0.5825258 0.0101553
0.3785513 0.5754045 0.0107067
0.4047288 0.5683801 0.0113809
0.4259098 0.5659295 0.0121934
0.4549326 0.5693120 0.0133574
0.4864150 0.5755432 0.0152307
0.5125764 0.5817857 0.0166576
0.5317176 0.5864305 0.0174778
0.5524954 0.5896747 0.0184252
0.5803059 0.5920373 0.0187815
0.6134953 0.5934877 0.0173837
0.6490864 0.5936245 0.0152574
0.6843918 0.5922096 0.0127849
0.7187251 0.5908222 0.0116807
0.7519173 0.5901713 0.0120409
0.7836277 0.5893226 0.0122822
0.8152407 0.5865440 0.0130867
0.8460332 0.5817707 0.0156504
0.8749020 0.5771421 0.0184817
0.9023741 0.5751953 0.0200162
0.9300169 0.5767000 0.0204371
0.9581876 0.5796415 0.0205862
0.9799956 0.5816064 0.0204552
0.0082865 0.6249962 0.0082902
0.0317412 0.6249890 0.0082984
0.0624991 0.6249704 0.0083194
0.0937269 0.6249363 0.0083572
0.1249826 0.6248863 0.0083975
0.1563679 0.6247932 0.0084297
0.1880506 0.6245188 0.0084863
0.2205959 0.6237957 0.0085132
0.2551584 0.6221852 0.0085265
0.2926301 0.6187169 0.0087108
0.3317005 0.6120161 0.0091662
0.3679131 0.6027052 0.0098310
0.3984132 0.5945534 0.0109081
0.4285762 0.5910043 0.0123491
0.4627160 0.5901902 0.0136091
0.4916585 0.5912228 0.0151925
0.5174510 0.5956111 0.0170204
0.5361368 0.6008282 0.0190201
0.5552240 0.6068426 0.0199847
0.5801138 0.6128201 0.0186089
0.6120206 0.6179272 0.0164886
0.6472906 0.6214338 0.0142953
0.6823763 0.6231881 0.0116104
0.7168796 0.6235871 0.0100601
0.7502797 0.6233216 0.0099378
0.7822083 0.6226579 0.0101902
0.8137440 0.6208776 0.0107852
0.8447616 0.6180419 0.0121547
0.8747898 0.6153391 0.0136441
0.9040864 0.6141240 0.0146471
0.9332632 0.6145418 0.0155024
0.9621192 0.6153398 0.0163248
0.9841361 0.6158944 0.0167128
0.0082861 0.6562486 0.0082872
0.0317414 0.6562461 0.0082896
0.0625037 0.6562394 0.0082959
0.0937433 0.6562273 0.0083077
0.1249955 0.6562091 0.0083250
0.1562940 0.6561696 0.0083495
0.1877417 0.6560372 0.0083785
0.2197069 0.6556140 0.0083922
0.2528955 0.6543702 0.0084133
0.2877487 0.6513442 0.0085206
0.3235921 0.6457436 0.0088014
0.3586635 0.6382846 0.0094434
0.3929133 0.6315459 0.0106226
0.4284566 0.6263714 0.0118305
0.4626608 0.6208413 0.0130609
0.4917638 0.6176137 0.0149678
0.5177058 0.6186774 0.0171111
0.5388926 0.6223778 0.0195643
0.5580341 0.6282268 0.0195757
0.5818924 0.6362132 0.0172652
0.6131855 0.6440747 0.0151114
0.6479374 0.6498051 0.0132392
0.6825933 0.6533110 0.0109553
0.7165447 0.6550164 0.0094647
0.7495656 0.6554169 0.0091193
0.7815084 0.6551003 0.0092777
0.8129585 0.6542106 0.0095544
0.8440887 0.6528294 0.0101625
0.8747817 0.6514950 0.0108746
0.9051400 0.6507946 0.0114960
0.9352797 0.6505570 0.0123707
0.9646422 0.6501437 0.0134542
0.9869052 0.6498315 0.0141015
0.0082859 0.6874996 0.0082862
0.0317415 0.6874989 0.0082868
0.0625052 0.6874971 0.0082883
0.0937488 0.6874936 0.0082916
0.1250000 0.6874868 0.0082987
0.1562674 0.6874682 0.0083108
0.1876148 0.6874023 0.0083175
0.2192158 0.6871604 0.0083163
0.2513600 0.6864035 0.0083345
0.2842955 0.6845757 0.0083999
0.3179247 0.6812419 0.0086068
0.3520103 0.6767251 0.0092232
0.3867077 0.6717677 0.0101761
0.4220349 0.6660368 0.0108260
0.4569709 0.6595408 0.0121865
0.4890770 0.6545138 0.0144606
0.5154500 0.6523251 0.0161704
0.5381579 0.6535045 0.0173417
0.5597721 0.6582021 0.0167262
0.5852990 0.6662251 0.0148288
0.6165072 0.6744699 0.0132297
0.6502619 0.6805288 0.0118760
0.6839585 0.6843136 0.0102610
0.7170784 0.6862775 0.0091732
0.7494724 0.6869685 0.0088159
0.7812072 0.6869256 0.0088525
0.8125418 0.6865801 0.0089686
0.8437156 0.6860414 0.0091782
0.8747727 0.6854941 0.0094376
0.9057071 0.6850636 0.0097897
0.9363921 0.6845362 0.0104754
0.9662762 0.6838161 0.0112798
0.9889737 0.6833510 0.0117291
0.0082859 0.7187499 0.0082859
0.0317415 0.7187498 0.0082861
0.0625055 0.7187493 0.0082864
0.0937500 0.7187485 0.0082872
0.1250007 0.7187461 0.0082895
0.1562566 0.7187381 0.0082934
0.1875435 0.7187088 0.0082954
0.2189264 0.7185978 0.0082954
0.2505135 0.7182510 0.0083047
0.2824380 0.7174165 0.0083432
0.3148356 0.7158626 0.0084950
0.3477459 0.7134955 0.0088975
0.3809769 0.7102675 0.0093889
0.4150066 0.7060652 0.0098184
0.4499258 0.7008346 0.0109826
0.4821170 0.6956987 0.0124422
0.5098062 0.6927944 0.0133474
0.5355415 0.6929942 0.0137831
0.5611243 0.6963319 0.0134456
0.5890865 0.7023923 0.0124803
0.6202177 0.7086767 0.0114756
0.6528397 0.7133232 0.0105767
0.6854815 0.7162426 0.0096234
0.7177836 0.7177709 0.0090117
0.7496224 0.7183435 0.0087464
0.7810620 0.7183580 0.0087668
0.8122417 0.7182056 0.0088950
0.8433679 0.7180504 0.0089835
0.8745776 0.7179241 0.0089929
0.9058657 0.7177185 0.0090439
0.9369615 0.7173059 0.0093399
0.9673273 0.7168164 0.0097186
0.9904225 0.7165351 0.0099311
0.0082859 0.7500000 0.0082859
0.0317415 0.7499999 0.0082859
0.0625056 0.7499999 0.0082860
0.0937501 0.7499996 0.0082862
0.1250003 0.7499989 0.0082867
0.1562522 0.7499964 0.0082876
