looks/recipe_kodachrome64.cube
TITLE "Fuji recipe Kodachrome 64 (16 RAFs)"
LUT_3D_SIZE 33
0.0168799 0.0167266 0.0141983
0.0299241 0.0214734 0.0181277
0.0490174 0.0211703 0.0177457
0.0697507 0.0200474 0.0170398
0.0890166 0.0193998 0.0172755
0.1133514 0.0197223 0.0185464
0.1419853 0.0208339 0.0198582
0.1634166 0.0213665 0.0198112
0.1727305 0.0192508 0.0175054
0.2130184 0.0218963 0.0200924
0.3006580 0.0301989 0.0284542
0.3689190 0.0364318 0.0350473
0.4063077 0.0392404 0.0378156
0.4321139 0.0410690 0.0396206
0.4549598 0.0427617 0.0412276
0.4905411 0.0467204 0.0454127
0.5226076 0.0502787 0.0493240
0.5495760 0.0532539 0.0525172
0.5749153 0.0562670 0.0555451
0.5992012 0.0585671 0.0583347
0.6202675 0.0588846 0.0596025
0.6367254 0.0537793 0.0548929
0.6636920 0.0482189 0.0489964
0.7020784 0.0493039 0.0488221
0.7314255 0.0455603 0.0446593
0.7606994 0.0351883 0.0345099
0.7963077 0.0239966 0.0235881
0.8342575 0.0160380 0.0157972
0.8705614 0.0118887 0.0117053
0.9043770 0.0099306 0.0097937
0.9367452 0.0089258 0.0088601
0.9679996 0.0084807 0.0084601
0.9916327 0.0083403 0.0083346
0.0162705 0.0218231 0.0130152
0.0300017 0.0293716 0.0187397
0.0499239 0.0339236 0.0213404
0.0717140 0.0343042 0.0207791
0.0941053 0.0328063 0.0200726
0.1189090 0.0316941 0.0207212
0.1457526 0.0315504 0.0218958
0.1712853 0.0322368 0.0222643
0.1913890 0.0323633 0.0214886
0.2179298 0.0333229 0.0221233
0.2740036 0.0367858 0.0265218
0.3509044 0.0408476 0.0342633
0.4003410 0.0433788 0.0384842
0.4280390 0.0453885 0.0405585
0.4492990 0.0485627 0.0432729
0.4852474 0.0535175 0.0486486
0.5203292 0.0574333 0.0531260
0.5491048 0.0602781 0.0563074
0.5749825 0.0630173 0.0591896
0.5989969 0.0652514 0.0619716
0.6201057 0.0663163 0.0637406
0.6371954 0.0645674 0.0611519
0.6630630 0.0646325 0.0583996
0.6995837 0.0692602 0.0591724
0.7269788 0.0666949 0.0537941
0.7557937 0.0572678 0.0413316
0.7926348 0.0475806 0.0284832
0.8318136 0.0410956 0.0196902
0.8686492 0.0371013 0.0144457
0.9030629 0.0343358 0.0111681
0.9361070 0.0327300 0.0093743
0.9677713 0.0320480 0.0086226
0.9915575 0.0318333 0.0083864
0.0170475 0.0355276 0.0127430
0.0301167 0.0438870 0.0173596
0.0498690 0.0509412 0.0217745
0.0733225 0.0530831 0.0232857
0.0974607 0.0520493 0.0224214
0.1228515 0.0510696 0.0216018
0.1519324 0.0518880 0.0221863
0.1860417 0.0541097 0.0228307
0.2195639 0.0569258 0.0232743
0.2494949 0.0593425 0.0248840
0.2872725 0.0592013 0.0277774
0.3452467 0.0560701 0.0336674
0.3876999 0.0562528 0.0375110
0.4128122 0.0589867 0.0402833
0.4335988 0.0635047 0.0447530
0.4700863 0.0651547 0.0508785
0.5116126 0.0673789 0.0555785
0.5451263 0.0693099 0.0582615
0.5730648 0.0707913 0.0603495
0.5976198 0.0722132 0.0627646
0.6204308 0.0739344 0.0653663
0.6408014 0.0754901 0.0659087
0.6645849 0.0798425 0.0655335
0.6985210 0.0881054 0.0671427
0.7243514 0.0880808 0.0610924
0.7530227 0.0823850 0.0478130
0.7906243 0.0778725 0.0356803
0.8290617 0.0742547 0.0266711
0.8654982 0.0697975 0.0189838
0.9009146 0.0659914 0.0133132
0.9351054 0.0638559 0.0102189
0.9674009 0.0629562 0.0089211
0.9914216 0.0626596 0.0084965
0.0220061 0.0585040 0.0132507
0.0317935 0.0626965 0.0153214
0.0492580 0.0695815 0.0197321
0.0718311 0.0725972 0.0234621
0.0977739 0.0722500 0.0245854
0.1259677 0.0716360 0.0238203
0.1566260 0.0719487 0.0232935
0.1926420 0.0738630 0.0236825
0.2311617 0.0772296 0.0244216
0.2682924 0.0810350 0.0259756
0.3048090 0.0831352 0.0283959
0.3450557 0.0826853 0.0321273
0.3776591 0.0845275 0.0350605
0.4045755 0.0876870 0.0373578
0.4329881 0.0904507 0.0400120
0.4671710 0.0856826 0.0448151
0.5072894 0.0854664 0.0488927
0.5402766 0.0863320 0.0516658
0.5683259 0.0855090 0.0534873
0.5958179 0.0835906 0.0567991
0.6213421 0.0841095 0.0600805
0.6452603 0.0872074 0.0627049
0.6706414 0.0944826 0.0658041
0.7016212 0.1041754 0.0688508
0.7259980 0.1065398 0.0632851
0.7547003 0.1063398 0.0523379
0.7909684 0.1078858 0.0438973
0.8263629 0.1056448 0.0340401
0.8622127 0.1009561 0.0233431
0.8988477 0.0972557 0.0154825
0.9341187 0.0952360 0.0112234
0.9669737 0.0943292 0.0093586
0.9912139 0.0939926 0.0086996
0.0294800 0.0882212 0.0165216
0.0402786 0.0906088 0.0182212
0.0557709 0.0964179 0.0213100
0.0734623 0.0970832 0.0232934
0.0968620 0.0958043 0.0253123
0.1261514 0.0946466 0.0262210
0.1588898 0.0930929 0.0259742
0.1949902 0.0937493 0.0264447
0.2355940 0.0965534 0.0277405
0.2778718 0.1006322 0.0291303
0.3173991 0.1047863 0.0302048
0.3543588 0.1080901 0.0317272
0.3881911 0.1117081 0.0342600
0.4208873 0.1155441 0.0366996
0.4462980 0.1169615 0.0363655
0.4743027 0.1160086 0.0354093
0.5069169 0.1183284 0.0358485
0.5325647 0.1192182 0.0382979
0.5599482 0.1181698 0.0403230
0.5947308 0.1143870 0.0459949
0.6232814 0.1121809 0.0499388
0.6495206 0.1129380 0.0533739
0.6783738 0.1166745 0.0600416
0.7066554 0.1220247 0.0635493
0.7307115 0.1253380 0.0598115
0.7594361 0.1298778 0.0543067
0.7916483 0.1338213 0.0488521
0.8243527 0.1327119 0.0381047
0.8602477 0.1297109 0.0258282
0.8976477 0.1275574 0.0170359
0.9334189 0.1263549 0.0122400
0.9665086 0.1256827 0.0099719
0.9908782 0.1253535 0.0090610
0.0422967 0.1344803 0.0248803
0.0580909 0.1362630 0.0274469
0.0700855 0.1340022 0.0281019
0.0791238 0.1241649 0.0243572
0.0975010 0.1212205 0.0241588
0.1237320 0.1207389 0.0261749
0.1564717 0.1190857 0.0277380
0.1940507 0.1178278 0.0286934
0.2341505 0.1171618 0.0299696
0.2810015 0.1211292 0.0322549
0.3250176 0.1278112 0.0340969
0.3644232 0.1308386 0.0341364
0.4009573 0.1345136 0.0356798
0.4354851 0.1380591 0.0380320
0.4627590 0.1388498 0.0379851
0.4919884 0.1396461 0.0357034
0.5143557 0.1396441 0.0327744
0.5318406 0.1421014 0.0319588
0.5604658 0.1507168 0.0338946
0.5994065 0.1597029 0.0389516
0.6253231 0.1591429 0.0410055
0.6494396 0.1548400 0.0424801
0.6806118 0.1494057 0.0499894
0.7105278 0.1476074 0.0543033
0.7367237 0.1496983 0.0535890
0.7650502 0.1547865 0.0539705
0.7930374 0.1576297 0.0495824
0.8240466 0.1578143 0.0384501
0.8600251 0.1575035 0.0263755
0.8973977 0.1573821 0.0178785
0.9329734 0.1572774 0.0132535
0.9659392 0.1569568 0.0108046
0.9903906 0.1566533 0.0095820
0.0452101 0.1675563 0.0249828
0.0616788 0.1626419 0.0276194
0.0719146 0.1508150 0.0262316
0.0780426 0.1380605 0.0208563
0.0975445 0.1422648 0.0216276
0.1249697 0.1504490 0.0254464
0.1556404 0.1513089 0.0291887
0.1916839 0.1467128 0.0312898
0.2317886 0.1446421 0.0327063
0.2791682 0.1487982 0.0351187
0.3245364 0.1548812 0.0384347
0.3655177 0.1551506 0.0381218
0.4034268 0.1602389 0.0392663
0.4399258 0.1627113 0.0405776
0.4763555 0.1639817 0.0414853
0.5130688 0.1647227 0.0413527
0.5315600 0.1590658 0.0380481
0.5490224 0.1609414 0.0363517
0.5746363 0.1720122 0.0387746
0.6069010 0.1861984 0.0424487
0.6263245 0.1909831 0.0422554
0.6475621 0.1917501 0.0415157
0.6790415 0.1887476 0.0442577
0.7125735 0.1844786 0.0462148
0.7413027 0.1824384 0.0466219
0.7690858 0.1813969 0.0485450
0.7959878 0.1819179 0.0447766
0.8267567 0.1838041 0.0353282
0.8621424 0.1859570 0.0254637
0.8982562 0.1874110 0.0183922
0.9327255 0.1880349 0.0143249
0.9653431 0.1879719 0.0116626
0.9899080 0.1877694 0.0100787
0.0360490 0.1938349 0.0196996
0.0531501 0.1811278 0.0203070
0.0668135 0.1612287 0.0178114
0.0766786 0.1497357 0.0156205
0.0950379 0.1568651 0.0178656
0.1245065 0.1750983 0.0233330
0.1564532 0.1870831 0.0281216
0.1938431 0.1857770 0.0321898
0.2395667 0.1867740 0.0364640
0.2787356 0.1887330 0.0394526
0.3211047 0.1877017 0.0424461
0.3618845 0.1878506 0.0437026
0.3970558 0.1930540 0.0447903
0.4334060 0.1901451 0.0428160
0.4755578 0.1870623 0.0421392
0.5188217 0.1874776 0.0434351
0.5505691 0.1860913 0.0435805
0.5780984 0.1891277 0.0445348
0.5976993 0.1905464 0.0448754
0.6173453 0.1990139 0.0478759
0.6327001 0.2096516 0.0516977
0.6535299 0.2209000 0.0525994
0.6839352 0.2281945 0.0469629
0.7192109 0.2314855 0.0413651
0.7483543 0.2273598 0.0399198
0.7737782 0.2179866 0.0396838
0.8006777 0.2143031 0.0355536
0.8318376 0.2152238 0.0290589
0.8657928 0.2170745 0.0227221
0.8997120 0.2180359 0.0180320
0.9327826 0.2185240 0.0147586
0.9650775 0.2186974 0.0120295
0.9897028 0.2187223 0.0102839
0.0244779 0.2253297 0.0139740
0.0443091 0.2096939 0.0133386
0.0655433 0.1898646 0.0126388
0.0824146 0.1769475 0.0132376
0.0980672 0.1765213 0.0155328
0.1212777 0.1916943 0.0196808
0.1530629 0.2133479 0.0239267
0.1910352 0.2249059 0.0285811
0.2355645 0.2224053 0.0352399
0.2743501 0.2212501 0.0424244
0.3181834 0.2274650 0.0482178
0.3587032 0.2319034 0.0518055
0.3907318 0.2261294 0.0504476
0.4263810 0.2172397 0.0469341
0.4723603 0.2096247 0.0443800
0.5239421 0.2138129 0.0468737
0.5757099 0.2247057 0.0515380
0.6073139 0.2254758 0.0522834
0.6174224 0.2164024 0.0488358
0.6329073 0.2200951 0.0521472
0.6511936 0.2332529 0.0614101
0.6709998 0.2464970 0.0621070
0.7011024 0.2613676 0.0547323
0.7344394 0.2731307 0.0497222
0.7570179 0.2722102 0.0450964
0.7775543 0.2639151 0.0377639
0.8041781 0.2579916 0.0296377
0.8355957 0.2547208 0.0237553
0.8684418 0.2531058 0.0196426
0.9008539 0.2510347 0.0167822
0.9332029 0.2498634 0.0141072
0.9653521 0.2497003 0.0115919
0.9899017 0.2497489 0.0100523
0.0164467 0.2618730 0.0101773
0.0393029 0.2497043 0.0102086
0.0668606 0.2329554 0.0108803
0.0900290 0.2177578 0.0124936
0.1087113 0.2095336 0.0148177
0.1260253 0.2120012 0.0167061
0.1503748 0.2286935 0.0187017
0.1818251 0.2493178 0.0224032
0.2155822 0.2546160 0.0284137
0.2581061 0.2544394 0.0379190
0.3070929 0.2604671 0.0449766
0.3504498 0.2590882 0.0495606
0.3848365 0.2569111 0.0534420
0.4203377 0.2538237 0.0556064
0.4661855 0.2422396 0.0516158
0.5136956 0.2425550 0.0527981
0.5682049 0.2509821 0.0562606
0.6080393 0.2524762 0.0556374
0.6292015 0.2515613 0.0551282
0.6531805 0.2555066 0.0576256
0.6769008 0.2633768 0.0623507
0.6975513 0.2727631 0.0637523
0.7201391 0.2846527 0.0623707
0.7468131 0.2978429 0.0626444
0.7630784 0.3009282 0.0573651
0.7798084 0.2990789 0.0464180
0.8049332 0.2971383 0.0353654
0.8357426 0.2947916 0.0276907
0.8675722 0.2915487 0.0221161
0.8998116 0.2868595 0.0172333
0.9329133 0.2831679 0.0133896
0.9656198 0.2816285 0.0107945
0.9902551 0.2811641 0.0095446
0.0123552 0.3008318 0.0088932
0.0367349 0.2928218 0.0093577
0.0675054 0.2798573 0.0104174
0.0957790 0.2649674 0.0121277
0.1193164 0.2516121 0.0136470
0.1390626 0.2449234 0.0146166
0.1587231 0.2505139 0.0160179
0.1834193 0.2690033 0.0189182
0.2092694 0.2849340 0.0230051
0.2414870 0.2940645 0.0278045
0.2857094 0.2991242 0.0329703
0.3361842 0.2920976 0.0403794
0.3800157 0.2897719 0.0481647
0.4142710 0.2854920 0.0516269
0.4467215 0.2742130 0.0490364
0.4835374 0.2670645 0.0514086
0.5384550 0.2689041 0.0542206
0.5800710 0.2724040 0.0537173
0.6138718 0.2781759 0.0552016
0.6556633 0.2852660 0.0586296
0.6879056 0.2897595 0.0607685
0.7144489 0.2964488 0.0650511
0.7368846 0.3049708 0.0691321
0.7564920 0.3138645 0.0714350
0.7694445 0.3195905 0.0673721
0.7842103 0.3245399 0.0579856
0.8058870 0.3273386 0.0471023
0.8346718 0.3293613 0.0392470
0.8642358 0.3262787 0.0305617
0.8963259 0.3205265 0.0213513
0.9309736 0.3160043 0.0145627
0.9650193 0.3136756 0.0107895
0.9902543 0.3128192 0.0092639
0.0104332 0.3380769 0.0086423
0.0351391 0.3333785 0.0092465
0.0673122 0.3246874 0.0105458
0.0985783 0.3124902 0.0121532
0.1268457 0.2986096 0.0132670
0.1517925 0.2880729 0.0145048
0.1748350 0.2863660 0.0159270
0.1958561 0.2938715 0.0185769
0.2195632 0.3107640 0.0221393
0.2461837 0.3290233 0.0243586
0.2761835 0.3405734 0.0265586
0.3175199 0.3409652 0.0314430
0.3697080 0.3283124 0.0380000
0.4098720 0.3164508 0.0378538
0.4330364 0.3055463 0.0380447
0.4623115 0.2931148 0.0439393
0.5069494 0.2911704 0.0494772
0.5402553 0.2963752 0.0507747
0.5748713 0.3027285 0.0518004
0.6289468 0.3074733 0.0541604
0.6730504 0.3116453 0.0563224
0.7139638 0.3180411 0.0649845
0.7430995 0.3240948 0.0710770
0.7624874 0.3295128 0.0739060
0.7776655 0.3362998 0.0727894
0.7902700 0.3428522 0.0661996
0.8093958 0.3503065 0.0579617
0.8340474 0.3556394 0.0508797
0.8605506 0.3540117 0.0393307
0.8925637 0.3497753 0.0262746
0.9286061 0.3465388 0.0166606
0.9639843 0.3448199 0.0114670
0.9899179 0.3442010 0.0094622
0.0094774 0.3726231 0.0086061
0.0340624 0.3702069 0.0092222
0.0666958 0.3652005 0.0106974
0.0995473 0.3569137 0.0130626
0.1310768 0.3461296 0.0156824
0.1609250 0.3355383 0.0173446
0.1872474 0.3274719 0.0179307
0.2097402 0.3258593 0.0202041
0.2322650 0.3358935 0.0218839
0.2594294 0.3570688 0.0231486
0.2836021 0.3747011 0.0245130
0.3096887 0.3807077 0.0268876
0.3561816 0.3744515 0.0322499
0.4081661 0.3595793 0.0342378
0.4365530 0.3434387 0.0352219
0.4632477 0.3334382 0.0380289
0.5004546 0.3243282 0.0447695
0.5312674 0.3193402 0.0489935
0.5586060 0.3234332 0.0511489
0.5917946 0.3299958 0.0494870
0.6331220 0.3358715 0.0478173
0.6884701 0.3374903 0.0567012
0.7337713 0.3402475 0.0646041
0.7625422 0.3438798 0.0696449
0.7823496 0.3497237 0.0723898
0.7963362 0.3582721 0.0698491
0.8155468 0.3702955 0.0660178
0.8351552 0.3760444 0.0586330
0.8586796 0.3764815 0.0446569
0.8905861 0.3758975 0.0293361
0.9273361 0.3755233 0.0181547
0.9634082 0.3755836 0.0123330
0.9895884 0.3758062 0.0103016
0.0090601 0.4054252 0.0086469
0.0335030 0.4042736 0.0093362
0.0661281 0.4015835 0.0110765
0.0995493 0.3966776 0.0140755
0.1327693 0.3892742 0.0172152
0.1653887 0.3789403 0.0188537
0.1934265 0.3659948 0.0204806
0.2186148 0.3590830 0.0228355
0.2472270 0.3669079 0.0225700
0.2736996 0.3823467 0.0226946
0.2963365 0.3984469 0.0246431
0.3183436 0.4096897 0.0271472
0.3573385 0.4210612 0.0321764
0.4132085 0.4245630 0.0394839
0.4555135 0.4051420 0.0429518
0.4864157 0.3889281 0.0408606
0.5105709 0.3738509 0.0427136
0.5337731 0.3510436 0.0457769
0.5598432 0.3408394 0.0494106
0.5828946 0.3447153 0.0478444
0.6092090 0.3516034 0.0437826
0.6489514 0.3567305 0.0460207
0.7072151 0.3625539 0.0533944
0.7560531 0.3652219 0.0610370
0.7820979 0.3676153 0.0665365
0.7996776 0.3769596 0.0685205
0.8189036 0.3888307 0.0682866
0.8363233 0.3945489 0.0610155
0.8589611 0.3980719 0.0462198
0.8907035 0.4015965 0.0303268
0.9274091 0.4046579 0.0191819
0.9632842 0.4072210 0.0142321
0.9888167 0.4083783 0.0128345
0.0087484 0.4371550 0.0085446
0.0328483 0.4365179 0.0090408
0.0648666 0.4349036 0.0102765
0.0978573 0.4317868 0.0121636
0.1313520 0.4262375 0.0137968
0.1644606 0.4165211 0.0153121
0.1947276 0.4036562 0.0181085
0.2258673 0.3971222 0.0216396
0.2618409 0.4035465 0.0236257
0.2890399 0.4107016 0.0242558
0.3105942 0.4205360 0.0261908
0.3376621 0.4383274 0.0282498
0.3704716 0.4580986 0.0297601
0.4114964 0.4698026 0.0358887
0.4626383 0.4651603 0.0444808
0.4982522 0.4415063 0.0433776
0.5148827 0.4185353 0.0412114
0.5322158 0.3938015 0.0405894
0.5614564 0.3678012 0.0440887
0.5884516 0.3621305 0.0455755
0.6098778 0.3668245 0.0452425
0.6321294 0.3764078 0.0443738
0.6757873 0.3889402 0.0457964
0.7337874 0.3947895 0.0504950
0.7740058 0.3965243 0.0566011
0.7997898 0.4036152 0.0611913
0.8195480 0.4099803 0.0616737
0.8374777 0.4147632 0.0550708
0.8610819 0.4212967 0.0420319
0.8928043 0.4286952 0.0287113
0.9286463 0.4353910 0.0209263
0.9627829 0.4399421 0.0186668
0.9867612 0.4412118 0.0179015
0.0085014 0.4685643 0.0084094
0.0322603 0.4682077 0.0086458
0.0636315 0.4672844 0.0092201
0.0958754 0.4653471 0.0100181
0.1287121 0.4613986 0.0107045
0.1617543 0.4542712 0.0118884
0.1956076 0.4458569 0.0143326
0.2323675 0.4409341 0.0178526
0.2685265 0.4395368 0.0218059
0.2991913 0.4400199 0.0253110
0.3252483 0.4465749 0.0268381
0.3539479 0.4636806 0.0253533
0.3787383 0.4785197 0.0259790
0.4147409 0.4929671 0.0337109
0.4714479 0.5087416 0.0475222
0.5067530 0.5023466 0.0494368
0.5207666 0.4750857 0.0447815
0.5368471 0.4447809 0.0391071
0.5668687 0.4091969 0.0374071
0.5969669 0.3930655 0.0397997
0.6170081 0.3910670 0.0433352
0.6349738 0.4004455 0.0449720
0.6629844 0.4165078 0.0435197
0.7081200 0.4280637 0.0414307
0.7596912 0.4324287 0.0442852
0.7947317 0.4360089 0.0474163
0.8176147 0.4384167 0.0474030
0.8388665 0.4425770 0.0425425
0.8649272 0.4505319 0.0339009
0.8970118 0.4603363 0.0272995
0.9305854 0.4684474 0.0257879
0.9613301 0.4721082 0.0258050
0.9834870 0.4726415 0.0249176
0.0083644 0.4999185 0.0083349
0.0319304 0.4997611 0.0084269
0.0629335 0.4993397 0.0086315
0.0946540 0.4983442 0.0088994
0.1268318 0.4961156 0.0092352
0.1599559 0.4922777 0.0100140
0.1951151 0.4875061 0.0116301
0.2319961 0.4820538 0.0142794
0.2684979 0.4759247 0.0179894
0.3035002 0.4722158 0.0219980
0.3378829 0.4758084 0.0237994
0.3671096 0.4853439 0.0227304
0.3913868 0.4968668 0.0260420
0.4312369 0.5168362 0.0375654
0.4805057 0.5356846 0.0500134
0.5052564 0.5383624 0.0517669
0.5223178 0.5281787 0.0498905
0.5455071 0.5080255 0.0450215
0.5724499 0.4683811 0.0347767
0.6003428 0.4399936 0.0328674
0.6227452 0.4307310 0.0378226
0.6427444 0.4347021 0.0418193
0.6653563 0.4461766 0.0395463
0.7003869 0.4602316 0.0336056
0.7493218 0.4701058 0.0315220
0.7875601 0.4736509 0.0324370
0.8145898 0.4745164 0.0326205
0.8402106 0.4781329 0.0302930
0.8696564 0.4861360 0.0279445
0.9016168 0.4948353 0.0294214
0.9314278 0.4995187 0.0319841
0.9592870 0.5012330 0.0326533
0.9803293 0.5015358 0.0313988
0.0083066 0.5312223 0.0083072
0.0317891 0.5311683 0.0083469
0.0626189 0.5310122 0.0084294
0.0940486 0.5305933 0.0085291
0.1258495 0.5296239 0.0086762
0.1585241 0.5278593 0.0090681
0.1925858 0.5248715 0.0099649
0.2280460 0.5200397 0.0116422
0.2651674 0.5139893 0.0141657
0.3042763 0.5090739 0.0168899
0.3418457 0.5066356 0.0186159
0.3707083 0.5061848 0.0205404
0.3976843 0.5151092 0.0280684
0.4357561 0.5356461 0.0416562
0.4560347 0.5398428 0.0428635
0.4701119 0.5406164 0.0404645
0.4993711 0.5467783 0.0422163
0.5347666 0.5463320 0.0424920
0.5638808 0.5259286 0.0345248
0.5961074 0.4993959 0.0300355
0.6248320 0.4834730 0.0317667
0.6482412 0.4786746 0.0335571
0.6718075 0.4843182 0.0310063
0.7026649 0.4971390 0.0255057
0.7425755 0.5090138 0.0218247
0.7814178 0.5135609 0.0217472
0.8126135 0.5140098 0.0221035
0.8421773 0.5169620 0.0224299
0.8740963 0.5228499 0.0257064
0.9041637 0.5262065 0.0311530
0.9314696 0.5271193 0.0347622
0.9583142 0.5280553 0.0354857
0.9790127 0.5285914 0.0340770
0.0082896 0.5624905 0.0082984
0.0317472 0.5624718 0.0083217
0.0625180 0.5624142 0.0083716
0.0938151 0.5622585 0.0084396
0.1253192 0.5618973 0.0085218
0.1573291 0.5610998 0.0086670
0.1901718 0.5593845 0.0090757
0.2244588 0.5563164 0.0100202
0.2613588 0.5520089 0.0116395
0.3004849 0.5464284 0.0136600
0.3366787 0.5384034 0.0158059
0.3640322 0.5303351 0.0187174
0.3840492 0.5288130 0.0237963
0.4043218 0.5342364 0.0300303
0.4192266 0.5367665 0.0295979
0.4375874 0.5423194 0.0279251
0.4685461 0.5526214 0.0284303
0.5063922 0.5595441 0.0301661
0.5461482 0.5607268 0.0315973
0.5863674 0.5547328 0.0314459
0.6209649 0.5415995 0.0284370
0.6499954 0.5315262 0.0252731
0.6780338 0.5313157 0.0220753
0.7088618 0.5394141 0.0188053
0.7436076 0.5483919 0.0166752
0.7793553 0.5524699 0.0161253
0.8120327 0.5531668 0.0159554
0.8439679 0.5545548 0.0176645
0.8759045 0.5559750 0.0229863
0.9049575 0.5553290 0.0287365
0.9321589 0.5547397 0.0320192
0.9593496 0.5554671 0.0326628
0.9803320 0.5561976 0.0314015
0.0082866 0.5937452 0.0082931
0.0317408 0.5937358 0.0083067
0.0624998 0.5937094 0.0083383
0.0937488 0.5936490 0.0083869
0.1250762 0.5935144 0.0084468
0.1566366 0.5931812 0.0085217
0.1887654 0.5923814 0.0086994
0.2221390 0.5907272 0.0093010
0.2575492 0.5875928 0.0106516
0.2943348 0.5816429 0.0124821
0.3294160 0.5715323 0.0143676
0.3579320 0.5586028 0.0168475
0.3773888 0.5474417 0.0199816
0.3930181 0.5422780 0.0228693
0.4125202 0.5452507 0.0245641
0.4364177 0.5537812 0.0248742
0.4623722 0.5630757 0.0252772
0.4971284 0.5724930 0.0278914
0.5365686 0.5821924 0.0314125
0.5752381 0.5880523 0.0312948
0.6133314 0.5876829 0.0273740
0.6484496 0.5838925 0.0217339
0.6816055 0.5801784 0.0169858
0.7140572 0.5822911 0.0146035
0.7467305 0.5861254 0.0136616
0.7793105 0.5884266 0.0133127
0.8116317 0.5893168 0.0130129
0.8445155 0.5892954 0.0146578
0.8760434 0.5879741 0.0188104
0.9053701 0.5860733 0.0230063
0.9336568 0.5851782 0.0253710
0.9618487 0.5856884 0.0258425
0.9835295 0.5864054 0.0249550
0.0082861 0.6249974 0.0082892
0.0317409 0.6249923 0.0082957
0.0625012 0.6249792 0.0083120
0.0937408 0.6249524 0.0083421
0.1250071 0.6248982 0.0083845
0.1563761 0.6247701 0.0084396
0.1881033 0.6244103 0.0085530
0.2206406 0.6234053 0.0089036
0.2543880 0.6209232 0.0096848
0.2892468 0.6154950 0.0107447
0.3235476 0.6056764 0.0121490
0.3539717 0.5918896 0.0143343
0.3790450 0.5775917 0.0173059
0.4002035 0.5672293 0.0205325
0.4201880 0.5648208 0.0228337
0.4455251 0.5712466 0.0243639
0.4739447 0.5807141 0.0279818
0.5074974 0.5909737 0.0333688
0.5364813 0.5997807 0.0337546
0.5679203 0.6083637 0.0294369
0.6067722 0.6162851 0.0247658
0.6461790 0.6207263 0.0201498
0.6821634 0.6212958 0.0155189
0.7158145 0.6216322 0.0126249
0.7483752 0.6216884 0.0116373
0.7800251 0.6220835 0.0112990
0.8118135 0.6226004 0.0110620
0.8442990 0.6222153 0.0120569
0.8756807 0.6207051 0.0144214
0.9057501 0.6190696 0.0168226
0.9352788 0.6183205 0.0181947
0.9645678 0.6186217 0.0185132
0.9870259 0.6191801 0.0181040
0.0082860 0.6562489 0.0082871
0.0317414 0.6562466 0.0082896
0.0625042 0.6562407 0.0082964
0.0937463 0.6562282 0.0083114
0.1249992 0.6562040 0.0083345
0.1562987 0.6561491 0.0083667
0.1877731 0.6559655 0.0084338
0.2196583 0.6553502 0.0085799
0.2522437 0.6536403 0.0088690
0.2856295 0.6496468 0.0093612
0.3190093 0.6421149 0.0103269
0.3511854 0.6307922 0.0120464
0.3810486 0.6169891 0.0146274
0.4066078 0.6043743 0.0177142
0.4301587 0.5983084 0.0205100
0.4572716 0.6001984 0.0235374
0.4888544 0.6058928 0.0299847
0.5174706 0.6114462 0.0358875
0.5395057 0.6184385 0.0344023
0.5672544 0.6292331 0.0283015
0.6043957 0.6406559 0.0228714
0.6439541 0.6488999 0.0187088
0.6811299 0.6533125 0.0146519
0.7158121 0.6549589 0.0116905
0.7488016 0.6549278 0.0102618
0.7806101 0.6547931 0.0097916
0.8121843 0.6549456 0.0096586
0.8440260 0.6546708 0.0101076
0.8753355 0.6537626 0.0112141
0.9060338 0.6528047 0.0123596
0.9364928 0.6523560 0.0130477
0.9666165 0.6525143 0.0133500
0.9896687 0.6528798 0.0134099
0.0082859 0.6874996 0.0082863
0.0317416 0.6874988 0.0082871
0.0625054 0.6874965 0.0082895
0.0937491 0.6874911 0.0082953
0.1249993 0.6874807 0.0083052
0.1562669 0.6874556 0.0083205
0.1875995 0.6873651 0.0083521
0.2191082 0.6870474 0.0084056
0.2509850 0.6860988 0.0084977
0.2833160 0.6837803 0.0087335
0.3160411 0.6791227 0.0092975
0.3488714 0.6712685 0.0104057
0.3805376 0.6605510 0.0122269
0.4103390 0.6498219 0.0148896
0.4391782 0.6425288 0.0181828
0.4686049 0.6390010 0.0225221
0.4998180 0.6369125 0.0294036
0.5231377 0.6361327 0.0334121
0.5433624 0.6420964 0.0312859
0.5708504 0.6546487 0.0257235
0.6065596 0.6679031 0.0207761
0.6447318 0.6775924 0.0170446
0.6814716 0.6833201 0.0135944
0.7160427 0.6859978 0.0110350
0.7489286 0.6867872 0.0095402
0.7808619 0.6868725 0.0089850
0.8123761 0.6869138 0.0088850
0.8438705 0.6867844 0.0090602
0.8751514 0.6863753 0.0095157
0.9062091 0.6859439 0.0100196
0.9372078 0.6857344 0.0104254
0.9677939 0.6857739 0.0108148
0.9911244 0.6859210 0.0111186
0.0082859 0.7187499 0.0082860
0.0317416 0.7187496 0.0082862
0.0625056 0.7187489 0.0082870
0.0937498 0.7187470 0.0082887
0.1249998 0.7187432 0.0082921
0.1562552 0.7187331 0.0082980
0.1875307 0.7186952 0.0083105
0.2188707 0.7185587 0.0083305
0.2503694 0.7181347 0.0083610
0.2821277 0.7170303 0.0084648
0.3142728 0.7145800 0.0087438
0.3466809 0.7100732 0.0093448
0.3789926 0.7035279 0.0104942
0.4108966 0.6959993 0.0123809
0.4423760 0.6890936 0.0151422
0.4746816 0.6830313 0.0194871
0.5036500 0.6756302 0.0244312
0.5263488 0.6718473 0.0266463
0.5489253 0.6767797 0.0249254
0.5773999 0.6882979 0.0209159
0.6117772 0.7004071 0.0173142
0.6479445 0.7092572 0.0145825
0.6831428 0.7145758 0.0120890
0.7167864 0.7172035 0.0102412
0.7492031 0.7182059 0.0091111
0.7809782 0.7184853 0.0086420
0.8124292 0.7185310 0.0085533
0.8437821 0.7184830 0.0086113
0.8750587 0.7183321 0.0087752
0.9062886 0.7181638 0.0090084
0.9375134 0.7180449 0.0093099
0.9682139 0.7179598 0.0096384
0.9915794 0.7179330 0.0098584
0.0082859 0.7500000 0.0082859
0.0317416 0.7499999 0.0082860
0.0625056 0.7499997 0.0082861
0.0937500 0.7499992 0.0082866
0.1250001 0.7499980 0.0082875
0.1562517 0.7499946 0.0082893
