looks/recipe_kodachrome2.cube
TITLE "Fuji recipe Kodachrome II (16 RAFs)"
LUT_3D_SIZE 33
0.0178734 0.0175288 0.0157086
0.0315166 0.0237968 0.0213230
0.0515932 0.0275890 0.0249705
0.0714235 0.0299741 0.0276454
0.0959193 0.0344079 0.0328404
0.1243252 0.0402580 0.0393196
0.1524431 0.0459161 0.0452203
0.1710962 0.0485092 0.0477135
0.1808405 0.0468287 0.0457501
0.2278340 0.0548874 0.0534399
0.3228997 0.0768507 0.0755311
0.3817339 0.0935177 0.0930278
0.4120651 0.1038663 0.1038893
0.4347477 0.1086835 0.1089446
0.4571452 0.1090586 0.1091562
0.4933541 0.1140231 0.1141950
0.5261796 0.1209269 0.1214032
0.5535611 0.1272085 0.1280040
0.5794460 0.1333690 0.1342696
0.6042644 0.1390432 0.1401663
0.6287606 0.1440199 0.1460353
0.6508404 0.1443210 0.1472466
0.6678000 0.1291007 0.1318899
0.6936188 0.1047321 0.1065525
0.7292646 0.0865313 0.0872709
0.7625850 0.0645899 0.0648823
0.7975786 0.0410706 0.0412202
0.8348098 0.0241601 0.0242163
0.8707685 0.0152669 0.0152658
0.9044672 0.0112582 0.0112342
0.9367825 0.0094030 0.0093872
0.9680108 0.0086295 0.0086235
0.9916351 0.0083937 0.0083903
0.0177810 0.0223931 0.0152004
0.0318454 0.0307314 0.0222497
0.0525369 0.0383847 0.0282306
0.0742853 0.0424257 0.0313720
0.0990058 0.0457724 0.0352641
0.1261815 0.0501516 0.0407178
0.1539416 0.0550599 0.0466414
0.1788031 0.0592846 0.0509610
0.1997941 0.0618856 0.0527931
0.2427558 0.0699775 0.0599298
0.3196643 0.0868029 0.0779305
0.3726609 0.0986583 0.0938756
0.4045247 0.1063777 0.1032940
0.4301296 0.1115918 0.1085139
0.4525350 0.1148404 0.1114963
0.4893209 0.1232047 0.1200981
0.5239719 0.1316218 0.1289417
0.5527522 0.1383741 0.1361109
0.5793837 0.1447580 0.1426961
0.6043376 0.1506054 0.1488516
0.6286301 0.1558526 0.1550086
0.6503493 0.1569133 0.1564277
0.6680801 0.1458837 0.1429383
0.6954243 0.1304469 0.1231566
0.7271471 0.1166624 0.1056719
0.7582995 0.0940172 0.0793099
0.7941296 0.0694079 0.0511162
0.8325245 0.0523884 0.0315936
0.8690243 0.0425689 0.0203682
0.9032494 0.0367434 0.0138232
0.9361783 0.0336349 0.0103743
0.9677859 0.0323610 0.0089622
0.9915459 0.0319750 0.0085338
0.0196330 0.0356809 0.0161107
0.0327222 0.0435709 0.0216785
0.0530330 0.0526395 0.0288530
0.0768045 0.0584044 0.0338094
0.1016700 0.0617552 0.0369619
0.1275596 0.0654925 0.0406136
0.1573609 0.0714037 0.0461198
0.1924028 0.0790068 0.0523731
0.2269851 0.0867701 0.0582377
0.2640113 0.0952878 0.0654248
0.3098118 0.1027542 0.0757354
0.3561128 0.1066150 0.0885418
0.3893265 0.1113364 0.0959336
0.4161845 0.1172547 0.1018377
0.4380738 0.1213644 0.1094712
0.4760131 0.1302642 0.1202010
0.5149341 0.1390719 0.1294471
0.5474759 0.1457209 0.1366993
0.5765235 0.1514242 0.1429080
0.6028455 0.1565871 0.1488035
0.6277729 0.1616084 0.1547964
0.6502478 0.1638865 0.1567939
0.6711956 0.1602377 0.1486990
0.7016000 0.1566665 0.1383446
0.7279001 0.1459942 0.1211870
0.7561622 0.1250201 0.0921286
0.7924329 0.1050553 0.0643527
0.8301919 0.0905659 0.0443445
0.8661917 0.0787316 0.0288364
0.9012527 0.0701322 0.0178959
0.9352301 0.0655023 0.0120297
0.9673945 0.0636403 0.0096638
0.9913427 0.0630231 0.0088927
0.0261739 0.0583277 0.0184277
0.0361361 0.0617944 0.0215162
0.0537212 0.0691621 0.0280772
0.0766892 0.0754322 0.0345988
0.1032905 0.0797363 0.0393649
0.1308074 0.0830594 0.0430136
0.1616457 0.0882150 0.0474679
0.1988624 0.0960697 0.0539185
0.2388529 0.1056504 0.0613591
0.2775630 0.1158970 0.0694949
0.3137829 0.1233563 0.0776756
0.3493323 0.1266052 0.0856408
0.3781096 0.1307705 0.0888480
0.4077077 0.1359763 0.0930098
0.4361004 0.1362360 0.1018921
0.4736709 0.1422326 0.1112429
0.5120516 0.1501615 0.1185632
0.5435448 0.1543289 0.1237217
0.5720312 0.1558708 0.1270096
0.6007534 0.1574867 0.1328638
0.6274484 0.1609972 0.1387447
0.6522558 0.1648138 0.1423453
0.6773432 0.1684259 0.1420933
0.7074051 0.1720368 0.1394593
0.7309281 0.1648937 0.1242754
0.7583828 0.1507429 0.0991634
0.7934939 0.1398243 0.0784210
0.8281028 0.1271353 0.0576941
0.8632689 0.1133266 0.0370169
0.8993824 0.1032094 0.0220417
0.9342937 0.0978876 0.0141364
0.9668602 0.0956502 0.0108487
0.9909825 0.0947247 0.0095631
0.0346806 0.0868777 0.0233105
0.0461529 0.0884591 0.0268821
0.0620314 0.0939055 0.0323862
0.0798832 0.0973894 0.0364266
0.1035330 0.1007767 0.0414209
0.1310845 0.1022762 0.0457507
0.1643808 0.1058217 0.0503389
0.2021623 0.1131640 0.0571362
0.2441326 0.1228227 0.0653571
0.2878682 0.1343006 0.0742683
0.3278128 0.1445855 0.0821960
0.3643457 0.1528204 0.0894808
0.3956513 0.1600007 0.0944360
0.4243601 0.1646798 0.0970915
0.4539784 0.1665129 0.1013468
0.4846396 0.1717339 0.1049039
0.5163707 0.1786212 0.1078156
0.5407474 0.1786963 0.1076786
0.5673411 0.1750272 0.1054192
0.6011326 0.1724961 0.1109180
0.6294753 0.1725049 0.1148014
0.6555954 0.1736747 0.1173698
0.6838927 0.1770426 0.1229378
0.7117488 0.1799419 0.1239582
0.7355017 0.1769503 0.1137841
0.7636925 0.1719413 0.0984467
0.7953045 0.1672243 0.0844527
0.8272031 0.1565154 0.0637195
0.8621483 0.1439692 0.0412263
0.8986350 0.1349967 0.0251221
0.9336128 0.1302058 0.0165749
0.9661922 0.1277556 0.0124765
0.9904799 0.1264679 0.0104837
0.0487073 0.1308741 0.0342895
0.0657716 0.1314611 0.0399360
0.0783740 0.1289849 0.0426675
0.0863733 0.1212299 0.0392690
0.1038422 0.1212516 0.0406546
0.1286051 0.1232136 0.0454294
0.1615545 0.1255312 0.0509439
0.2024603 0.1316696 0.0581136
0.2458133 0.1398035 0.0666128
0.2929562 0.1533868 0.0778996
0.3350717 0.1673713 0.0876895
0.3750220 0.1756925 0.0943407
0.4135661 0.1847549 0.1019127
0.4483132 0.1918732 0.1081371
0.4757180 0.1940382 0.1109737
0.5016560 0.1970235 0.1116561
0.5258408 0.2012650 0.1113311
0.5457062 0.2029521 0.1079127
0.5748941 0.2071376 0.1055359
0.6114043 0.2120261 0.1076002
0.6356308 0.2092854 0.1035105
0.6574560 0.2004089 0.0966710
0.6850038 0.1928595 0.0972916
0.7135606 0.1897780 0.0974743
0.7414984 0.1893455 0.0928722
0.7708209 0.1901360 0.0873190
0.7990409 0.1875616 0.0774695
0.8293569 0.1802189 0.0598285
0.8636770 0.1720215 0.0408991
0.8991032 0.1657811 0.0268406
0.9331738 0.1620314 0.0188203
0.9655521 0.1595196 0.0140522
0.9900072 0.1579962 0.0113467
0.0511949 0.1634162 0.0348164
0.0691183 0.1577048 0.0402987
0.0805261 0.1465873 0.0409615
0.0862506 0.1355172 0.0364508
0.1050657 0.1402584 0.0393889
0.1321170 0.1499859 0.0468872
0.1616581 0.1540903 0.0533642
0.1994750 0.1569090 0.0585431
0.2416415 0.1604860 0.0663345
0.2881842 0.1746451 0.0793851
0.3304101 0.1933821 0.0924338
0.3715822 0.1979094 0.0974943
0.4160435 0.2068692 0.1056574
0.4579510 0.2161821 0.1143956
0.4917472 0.2212501 0.1199843
0.5226356 0.2232471 0.1227996
0.5449394 0.2228121 0.1223003
0.5669192 0.2274652 0.1225352
0.5946870 0.2378550 0.1238945
0.6252023 0.2479132 0.1234514
0.6419573 0.2447519 0.1131137
0.6602908 0.2340189 0.0970505
0.6881703 0.2254230 0.0852781
0.7167754 0.2170434 0.0784750
0.7469776 0.2113874 0.0720550
0.7763982 0.2093839 0.0687030
0.8040398 0.2073575 0.0627575
0.8337115 0.2039404 0.0516028
0.8663196 0.1997836 0.0385270
0.8999722 0.1958133 0.0273304
0.9330598 0.1929467 0.0200581
0.9652494 0.1906549 0.0149514
0.9897842 0.1891849 0.0118356
0.0404380 0.1909322 0.0271309
0.0588884 0.1783412 0.0299812
0.0741793 0.1597489 0.0301314
0.0855559 0.1495768 0.0307805
0.1050434 0.1566781 0.0368075
0.1343938 0.1748839 0.0473038
0.1634292 0.1915552 0.0564208
0.1926872 0.1959725 0.0611744
0.2328299 0.1935601 0.0697283
0.2790500 0.2022801 0.0811820
0.3258328 0.2198768 0.0936209
0.3672901 0.2255249 0.1004373
0.4088414 0.2326519 0.1079329
0.4524286 0.2398655 0.1153099
0.4920223 0.2424612 0.1202543
0.5308592 0.2466892 0.1257037
0.5681199 0.2516722 0.1316584
0.5970913 0.2586054 0.1388379
0.6192379 0.2633404 0.1403906
0.6383344 0.2691049 0.1377515
0.6518133 0.2707610 0.1275558
0.6772646 0.2760136 0.1150820
0.7084997 0.2785421 0.1001743
0.7307558 0.2661560 0.0810965
0.7545083 0.2506094 0.0649287
0.7814977 0.2401145 0.0566086
0.8092585 0.2348868 0.0517158
0.8377782 0.2308399 0.0445098
0.8685201 0.2275320 0.0347973
0.9009693 0.2251197 0.0261985
0.9334319 0.2231958 0.0200540
0.9653893 0.2213703 0.0150818
0.9898536 0.2201562 0.0119198
0.0271742 0.2240504 0.0185031
0.0481738 0.2089262 0.0197627
0.0714414 0.1900199 0.0223176
0.0910990 0.1780302 0.0271975
0.1092086 0.1776407 0.0337427
0.1330113 0.1917075 0.0430347
0.1606758 0.2121742 0.0529926
0.1889288 0.2231651 0.0600171
0.2291869 0.2246080 0.0700439
0.2780940 0.2334667 0.0812276
0.3267186 0.2538598 0.0944891
0.3663648 0.2654727 0.1061784
0.4038351 0.2654603 0.1111952
0.4465183 0.2689456 0.1168649
0.4834227 0.2647063 0.1186740
0.5304101 0.2719720 0.1260107
0.5955832 0.2902981 0.1411933
0.6311765 0.2974477 0.1508847
0.6427588 0.2914297 0.1476734
0.6575504 0.2933897 0.1459332
0.6776793 0.3036851 0.1439193
0.7113222 0.3239916 0.1438975
0.7329909 0.3278318 0.1310791
0.7460149 0.3150647 0.1058982
0.7635003 0.2985534 0.0802383
0.7862562 0.2834841 0.0607771
0.8129875 0.2725429 0.0491527
0.8407509 0.2631492 0.0392546
0.8707724 0.2578327 0.0300737
0.9023966 0.2551493 0.0235318
0.9341848 0.2532133 0.0186020
0.9658176 0.2517903 0.0142834
0.9901186 0.2509758 0.0115357
0.0179208 0.2616415 0.0126086
0.0418015 0.2497831 0.0142709
0.0713855 0.2335408 0.0181078
0.0973784 0.2187345 0.0239560
0.1190676 0.2104168 0.0311198
0.1381444 0.2123875 0.0388058
0.1625632 0.2284790 0.0482076
0.1931872 0.2499119 0.0579722
0.2253590 0.2582765 0.0660322
0.2684854 0.2627417 0.0753647
0.3172881 0.2786781 0.0858767
0.3603361 0.2896066 0.0985836
0.4007745 0.2976996 0.1102544
0.4422096 0.3066348 0.1197585
0.4698582 0.2972321 0.1219209
0.5116848 0.3000695 0.1271476
0.5850544 0.3141616 0.1394458
0.6348539 0.3228421 0.1499773
0.6599644 0.3258550 0.1537637
0.6861705 0.3327539 0.1595469
0.7124407 0.3442156 0.1646745
0.7386087 0.3588474 0.1676674
0.7524320 0.3620888 0.1591476
0.7620931 0.3560236 0.1390704
0.7716434 0.3409845 0.1099066
0.7893674 0.3268737 0.0832171
0.8159525 0.3166627 0.0634124
0.8438429 0.3050315 0.0455779
0.8731520 0.2951444 0.0311055
0.9037872 0.2880381 0.0217824
0.9351056 0.2839547 0.0163363
0.9664863 0.2823315 0.0127825
0.9905513 0.2818170 0.0107842
0.0131349 0.3008899 0.0101407
0.0382861 0.2930271 0.0118230
0.0705645 0.2802365 0.0152794
0.1011331 0.2653947 0.0206407
0.1273384 0.2520029 0.0274465
0.1497558 0.2455620 0.0356437
0.1729786 0.2527084 0.0453196
0.2014826 0.2737198 0.0564912
0.2273321 0.2902280 0.0648197
0.2570522 0.3008611 0.0697294
0.3001829 0.3112494 0.0757948
0.3536857 0.3108673 0.0889077
0.3978163 0.3191818 0.1017480
0.4364994 0.3262447 0.1089985
0.4671565 0.3158340 0.1176385
0.5012059 0.3200303 0.1262226
0.5521563 0.3314108 0.1347639
0.6053581 0.3390955 0.1414260
0.6458524 0.3465020 0.1477989
0.6893983 0.3582333 0.1602399
0.7235094 0.3681869 0.1686119
0.7508850 0.3794965 0.1757247
0.7686579 0.3871351 0.1779254
0.7725409 0.3815792 0.1639759
0.7751853 0.3690914 0.1379893
0.7922944 0.3620105 0.1111918
0.8208087 0.3589522 0.0893922
0.8478084 0.3488281 0.0657766
0.8744847 0.3342824 0.0419852
0.9040899 0.3225234 0.0247693
0.9356091 0.3159778 0.0155733
0.9670670 0.3134775 0.0115245
0.9909763 0.3128535 0.0099772
0.0108310 0.3381310 0.0092709
0.0359513 0.3334304 0.0106189
0.0688801 0.3246141 0.0134339
0.1015178 0.3123776 0.0177666
0.1321654 0.2987288 0.0235015
0.1611480 0.2892271 0.0320397
0.1898383 0.2900159 0.0438759
0.2158875 0.2999386 0.0567166
0.2427890 0.3186344 0.0682359
0.2691072 0.3376427 0.0733440
0.3008895 0.3456174 0.0756795
0.3506672 0.3437585 0.0845681
0.3916209 0.3447167 0.0913543
0.4314556 0.3432599 0.0955395
0.4684427 0.3349579 0.1076162
0.5025497 0.3373407 0.1192299
0.5379931 0.3478396 0.1303227
0.5739068 0.3577149 0.1365290
0.6099070 0.3643355 0.1391922
0.6623910 0.3723425 0.1484341
0.7040570 0.3791520 0.1551086
0.7451906 0.3902879 0.1671310
0.7717624 0.3993572 0.1791365
0.7738799 0.3923625 0.1718218
0.7793128 0.3877210 0.1537820
0.8018348 0.3931451 0.1351483
0.8303948 0.3978377 0.1176667
0.8520303 0.3868667 0.0882628
0.8748790 0.3691674 0.0547668
0.9036534 0.3555162 0.0299887
0.9354956 0.3480455 0.0166282
0.9672554 0.3450308 0.0111509
0.9912235 0.3441818 0.0094819
0.0095664 0.3725725 0.0088251
0.0341238 0.3700039 0.0096452
0.0666363 0.3646664 0.0114849
0.1000094 0.3564332 0.0147776
0.1344091 0.3464368 0.0203245
0.1698022 0.3372087 0.0296589
0.2025826 0.3312943 0.0434789
0.2319543 0.3326009 0.0593136
0.2608566 0.3471888 0.0714843
0.2891773 0.3692143 0.0784354
0.3127195 0.3818281 0.0802801
0.3434468 0.3896686 0.0824482
0.3758962 0.3884154 0.0822940
0.4222547 0.3788712 0.0846750
0.4720807 0.3760267 0.0987235
0.5109701 0.3718354 0.1122846
0.5397689 0.3725646 0.1254856
0.5700823 0.3779460 0.1359763
0.5987287 0.3849805 0.1395443
0.6309372 0.3922836 0.1417193
0.6648592 0.3968182 0.1423829
0.7203214 0.4037050 0.1519713
0.7600977 0.4069408 0.1615583
0.7715071 0.4017451 0.1587915
0.7897726 0.4093879 0.1550712
0.8198003 0.4259279 0.1526158
0.8403609 0.4283441 0.1363894
0.8547107 0.4150172 0.1010681
0.8751764 0.3982372 0.0619864
0.9034104 0.3858095 0.0332732
0.9353192 0.3791165 0.0177695
0.9672209 0.3764965 0.0115422
0.9912283 0.3758250 0.0098168
0.0088538 0.4052814 0.0085432
0.0328853 0.4040309 0.0089292
0.0648782 0.4012617 0.0099633
0.0986511 0.3966545 0.0123081
0.1351879 0.3900780 0.0177643
0.1737062 0.3806803 0.0287826
0.2093448 0.3697903 0.0439164
0.2451800 0.3685189 0.0601646
0.2826598 0.3835477 0.0733711
0.3115703 0.4014462 0.0833820
0.3317793 0.4135309 0.0889633
0.3487389 0.4215781 0.0887599
0.3683814 0.4212289 0.0832656
0.4099892 0.4159162 0.0798100
0.4729601 0.4171985 0.0910655
0.5161378 0.4162087 0.1079057
0.5398263 0.4114076 0.1203844
0.5679660 0.4020438 0.1268883
0.6002634 0.4023681 0.1331271
0.6266789 0.4099309 0.1400575
0.6461652 0.4140287 0.1390677
0.6814622 0.4166356 0.1343786
0.7302299 0.4181199 0.1309581
0.7657008 0.4199882 0.1329608
0.7990364 0.4340557 0.1442675
0.8290357 0.4490172 0.1536805
0.8439952 0.4481854 0.1388106
0.8558752 0.4367151 0.1023267
0.8757328 0.4238894 0.0627232
0.9036310 0.4145177 0.0337487
0.9353490 0.4096881 0.0184081
0.9671001 0.4081930 0.0128085
0.9908988 0.4079446 0.0114921
0.0085156 0.4371534 0.0084029
0.0322608 0.4366349 0.0085746
0.0639616 0.4353933 0.0092006
0.0976658 0.4327945 0.0109918
0.1336145 0.4273832 0.0154319
0.1713379 0.4182270 0.0241948
0.2108748 0.4092475 0.0365803
0.2542904 0.4089547 0.0513849
0.2936914 0.4158084 0.0669202
0.3211308 0.4237110 0.0803675
0.3433066 0.4338000 0.0903014
0.3627434 0.4449911 0.0935740
0.3794816 0.4509729 0.0875038
0.4131969 0.4547364 0.0816412
0.4713307 0.4558288 0.0872102
0.5123606 0.4471552 0.0985844
0.5324751 0.4384128 0.1053903
0.5578481 0.4298308 0.1065478
0.5996539 0.4243543 0.1151603
0.6280099 0.4251575 0.1259027
0.6421919 0.4272259 0.1256115
0.6596842 0.4295557 0.1132484
0.6988088 0.4346254 0.0998467
0.7545306 0.4442478 0.1052039
0.7994474 0.4564459 0.1243130
0.8262511 0.4633309 0.1355593
0.8407153 0.4616185 0.1225741
0.8546600 0.4549270 0.0906678
0.8757905 0.4476477 0.0561915
0.9039761 0.4425798 0.0314141
0.9354920 0.4406193 0.0193651
0.9667667 0.4405700 0.0158384
0.9901539 0.4405685 0.0149773
0.0083767 0.4686423 0.0083383
0.0320079 0.4684442 0.0084374
0.0633895 0.4678339 0.0088160
0.0962320 0.4661493 0.0099291
0.1305351 0.4622107 0.0126425
0.1673059 0.4561757 0.0179057
0.2084069 0.4507718 0.0264471
0.2515770 0.4473712 0.0388009
0.2903879 0.4458324 0.0546689
0.3233107 0.4483721 0.0719027
0.3515107 0.4557284 0.0853504
0.3782292 0.4695935 0.0918676
0.3979826 0.4812117 0.0889926
0.4226466 0.4905275 0.0864083
0.4665205 0.4973020 0.0902652
0.5028889 0.4840792 0.0891722
0.5240210 0.4687178 0.0848552
0.5487670 0.4579537 0.0803280
0.5917273 0.4502642 0.0871924
0.6233477 0.4482258 0.0988639
0.6414984 0.4488916 0.1012657
0.6580759 0.4517266 0.0904645
0.6898816 0.4587629 0.0753895
0.7440380 0.4692924 0.0766398
0.7876907 0.4757398 0.0916357
0.8143197 0.4775493 0.0999848
0.8328307 0.4767248 0.0905251
0.8515655 0.4745317 0.0677981
0.8755473 0.4724305 0.0437441
0.9046776 0.4718273 0.0279434
0.9358569 0.4726024 0.0219804
0.9662293 0.4731667 0.0206382
0.9890764 0.4730538 0.0198323
0.0083220 0.4999679 0.0083119
0.0318700 0.4998830 0.0083707
0.0629345 0.4995664 0.0085696
0.0949581 0.4986270 0.0091010
0.1280753 0.4965940 0.0104059
0.1635013 0.4935077 0.0132307
0.2018653 0.4894295 0.0186063
0.2416984 0.4843609 0.0277419
0.2815975 0.4799750 0.0413976
0.3204945 0.4783477 0.0580204
0.3581603 0.4825672 0.0737209
0.3896506 0.4922065 0.0844768
0.4117091 0.5023146 0.0904814
0.4341799 0.5139970 0.0948376
0.4629028 0.5248649 0.0963937
0.4871360 0.5221767 0.0862850
0.5102949 0.5117449 0.0726652
0.5369784 0.4964084 0.0607110
0.5779665 0.4864037 0.0610320
0.6149696 0.4820017 0.0706220
0.6398773 0.4806444 0.0750394
0.6607147 0.4828024 0.0679337
0.6897224 0.4888482 0.0550235
0.7328061 0.4963360 0.0505637
0.7712908 0.4991267 0.0572515
0.8002123 0.4991816 0.0615988
0.8242180 0.4991775 0.0560976
0.8482614 0.4995105 0.0434723
0.8755305 0.5006696 0.0314583
0.9057339 0.5028441 0.0260034
0.9361076 0.5042953 0.0254073
0.9656022 0.5047140 0.0252973
0.9880597 0.5045277 0.0243241
0.0083008 0.5312383 0.0083050
0.0317914 0.5312014 0.0083423
0.0626667 0.5310674 0.0084523
0.0942542 0.5306827 0.0086926
0.1265135 0.5298333 0.0092369
0.1600585 0.5282252 0.0105816
0.1952914 0.5253901 0.0135932
0.2325341 0.5212942 0.0194675
0.2723762 0.5165524 0.0292197
0.3151301 0.5128880 0.0428086
0.3571078 0.5118580 0.0583721
0.3916716 0.5132179 0.0741077
0.4189628 0.5188795 0.0886555
0.4424813 0.5295515 0.0994881
0.4537939 0.5368118 0.0972209
0.4623192 0.5390267 0.0834417
0.4851663 0.5371692 0.0683701
0.5188695 0.5326083 0.0559488
0.5604343 0.5292533 0.0495466
0.6008605 0.5226616 0.0497948
0.6318815 0.5183480 0.0494555
0.6590734 0.5180539 0.0444291
0.6883281 0.5220296 0.0367551
0.7230991 0.5271786 0.0328805
0.7580952 0.5288778 0.0341301
0.7894106 0.5283731 0.0343794
0.8178090 0.5283628 0.0311525
0.8459812 0.5293716 0.0261267
0.8757839 0.5314023 0.0234067
0.9063164 0.5335215 0.0249771
0.9361487 0.5345011 0.0269880
0.9653128 0.5347908 0.0272475
0.9876369 0.5346714 0.0261819
0.0082929 0.5624936 0.0083006
0.0317601 0.5624780 0.0083280
0.0625609 0.5624273 0.0083958
0.0939336 0.5622879 0.0085193
0.1255898 0.5619472 0.0087518
0.1578470 0.5611812 0.0093162
0.1911696 0.5596483 0.0107953
0.2264742 0.5570301 0.0141611
0.2653432 0.5534761 0.0207725
0.3077445 0.5492053 0.0317220
0.3489469 0.5435388 0.0463383
0.3865089 0.5394536 0.0633191
0.4200898 0.5406059 0.0812555
0.4390691 0.5435286 0.0931077
0.4427370 0.5460021 0.0930888
0.4518612 0.5498518 0.0840708
0.4783079 0.5548894 0.0729656
0.5160130 0.5607593 0.0650045
0.5537055 0.5659487 0.0572919
0.5872237 0.5641211 0.0466929
0.6199411 0.5599349 0.0357562
0.6543782 0.5563735 0.0284148
0.6876667 0.5574493 0.0250188
0.7202823 0.5601054 0.0244862
0.7522122 0.5609386 0.0236248
0.7835276 0.5605604 0.0210673
0.8141876 0.5605155 0.0182821
0.8448455 0.5612597 0.0171147
0.8759331 0.5625847 0.0191561
0.9064853 0.5635031 0.0227710
0.9363090 0.5638928 0.0250104
0.9656195 0.5641176 0.0252776
0.9880602 0.5641040 0.0243238
0.0082895 0.5937458 0.0082948
0.0317495 0.5937374 0.0083117
0.0625243 0.5937141 0.0083523
0.0938044 0.5936579 0.0084227
0.1251826 0.5935273 0.0085405
0.1568329 0.5932225 0.0087831
0.1891793 0.5925198 0.0094553
0.2231891 0.5911227 0.0114826
0.2600964 0.5886802 0.0163290
0.2993171 0.5843711 0.0250577
0.3385761 0.5779020 0.0370518
0.3767017 0.5711511 0.0506158
0.4091114 0.5658262 0.0655443
0.4280480 0.5614862 0.0775927
0.4403183 0.5608285 0.0840998
0.4611703 0.5674542 0.0849737
0.4928111 0.5779114 0.0827226
0.5281996 0.5868573 0.0816437
0.5551233 0.5916941 0.0732800
0.5806975 0.5929303 0.0555208
0.6126758 0.5926989 0.0365040
0.6492582 0.5917726 0.0236436
0.6856418 0.5918517 0.0189709
0.7194396 0.5921772 0.0191364
0.7506512 0.5923595 0.0182700
0.7814224 0.5925254 0.0156652
0.8126574 0.5928081 0.0133754
0.8443722 0.5931891 0.0133262
0.8757856 0.5935004 0.0158128
0.9064587 0.5935864 0.0187090
0.9366439 0.5936424 0.0203244
0.9663591 0.5937942 0.0205160
0.9890842 0.5938525 0.0198299
0.0082875 0.6249976 0.0082900
0.0317450 0.6249930 0.0082980
0.0625123 0.6249810 0.0083186
0.0937659 0.6249561 0.0083588
0.1250558 0.6249059 0.0084252
0.1564781 0.6247932 0.0085374
0.1883404 0.6244852 0.0088763
0.2212363 0.6236592 0.0100587
0.2557778 0.6217700 0.0130145
0.2916798 0.6180732 0.0185192
0.3281661 0.6121202 0.0265693
0.3644554 0.6042945 0.0366145
0.3971982 0.5960651 0.0487864
0.4235780 0.5884777 0.0622858
0.4482280 0.5855531 0.0750160
0.4780515 0.5909120 0.0855503
0.5085961 0.5993379 0.0900709
0.5362043 0.6055009 0.0906443
0.5561149 0.6094764 0.0808829
0.5789964 0.6139916 0.0606019
0.6105831 0.6186609 0.0388295
0.6470487 0.6219611 0.0231303
0.6838766 0.6235207 0.0159796
0.7184474 0.6236622 0.0146787
0.7501989 0.6237257 0.0139979
0.7811047 0.6240567 0.0124450
0.8123825 0.6244223 0.0110569
0.8440984 0.6246071 0.0111236
0.8754784 0.6245198 0.0126318
0.9063742 0.6243522 0.0143132
0.9370028 0.6242936 0.0152458
0.9671602 0.6243786 0.0153588
0.9901933 0.6244526 0.0149674
0.0082865 0.6562489 0.0082874
0.0317429 0.6562469 0.0082905
0.0625086 0.6562414 0.0082992
0.0937569 0.6562299 0.0083190
0.1250213 0.6562080 0.0083518
0.1563484 0.6561616 0.0084018
0.1878925 0.6560100 0.0085655
0.2199198 0.6555158 0.0091255
0.2527277 0.6542777 0.0105136
0.2864391 0.6516669 0.0132685
0.3210176 0.6469375 0.0179931
0.3564045 0.6400947 0.0255455
0.3918377 0.6318961 0.0366992
0.4254346 0.6229572 0.0512266
0.4572866 0.6165418 0.0668920
0.4851300 0.6158813 0.0778058
0.5121462 0.6201305 0.0824020
0.5371342 0.6243975 0.0825744
0.5569624 0.6293030 0.0735035
0.5805077 0.6369445 0.0552507
0.6119842 0.6451093 0.0357276
0.6477549 0.6510776 0.0215380
0.6836358 0.6542090 0.0141970
0.7177753 0.6551855 0.0116817
0.7499167 0.6554051 0.0109447
0.7811600 0.6556336 0.0102159
0.8124341 0.6558709 0.0095698
0.8439106 0.6559548 0.0096042
0.8752226 0.6558426 0.0103052
0.9063075 0.6556892 0.0110857
0.9372659 0.6556229 0.0115213
0.9677473 0.6556617 0.0115835
0.9910055 0.6557170 0.0114209
0.0082861 0.6874996 0.0082864
0.0317420 0.6874989 0.0082874
0.0625069 0.6874967 0.0082906
0.0937530 0.6874917 0.0082982
0.1250081 0.6874824 0.0083109
0.1562855 0.6874621 0.0083317
0.1876433 0.6873910 0.0083969
0.2191924 0.6871534 0.0086066
0.2510951 0.6865065 0.0091530
0.2835799 0.6849856 0.0103845
0.3169881 0.6819900 0.0129726
0.3516948 0.6770400 0.0179988
0.3877467 0.6697828 0.0266323
0.4239808 0.6606016 0.0390716
0.4560843 0.6521108 0.0517130
0.4827634 0.6484100 0.0594581
0.5097055 0.6501952 0.0627224
0.5359299 0.6533541 0.0628438
0.5586782 0.6583293 0.0561640
0.5842214 0.6665685 0.0427751
0.6155737 0.6753687 0.0286076
0.6500707 0.6817973 0.0184878
0.6844821 0.6852664 0.0128214
0.7176961 0.6866547 0.0103492
0.7497846 0.6870434 0.0094581
0.7811930 0.6871994 0.0090411
0.8124665 0.6873151 0.0087932
0.8437965 0.6873458 0.0088039
0.8750713 0.6872801 0.0090546
0.9062662 0.6871948 0.0093388
0.9374071 0.6871541 0.0095059
0.9680643 0.6871668 0.0095455
0.9914439 0.6871958 0.0095127
0.0082859 0.7187499 0.0082860
0.0317417 0.7187496 0.0082863
0.0625060 0.7187489 0.0082873
0.0937509 0.7187471 0.0082896
0.1250024 0.7187439 0.0082935
0.1562601 0.7187363 0.0083008
0.1875422 0.7187093 0.0083224
0.2188920 0.7186148 0.0083882
0.2503935 0.7183293 0.0085814
0.2822261 0.7175962 0.0090996
0.3147147 0.7159884 0.0103833
0.3483252 0.7128478 0.0132270
0.3832473 0.7074774 0.0186000
0.4179297 0.7001306 0.0263647
0.4497151 0.6931221 0.0342591
0.4789058 0.6895230 0.0398968
0.5073138 0.6894892 0.0426343
0.5349200 0.6912413 0.0428529
0.5606749 0.6951333 0.0386172
0.5882308 0.7017903 0.0301411
0.6193821 0.7088758 0.0212315
0.6525132 0.7140132 0.0149859
0.6856039 0.7168269 0.0114459
0.7179823 0.7180622 0.0096761
0.7497673 0.7184924 0.0088982
0.7811868 0.7186263 0.0086235
0.8124593 0.7186749 0.0085474
0.8437189 0.7186834 0.0085474
0.8749781 0.7186596 0.0085916
0.9062278 0.7186275 0.0086457
0.9374539 0.7186104 0.0086849
0.9681918 0.7186105 0.0086996
0.9916257 0.7186195 0.0087016
0.0082859 0.7500000 0.0082859
0.0317416 0.7499999 0.0082860
0.0625057 0.7499997 0.0082862
0.0937502 0.7499992 0.0082868
0.1250006 0.7499983 0.0082878
0.1562525 0.7499959 0.0082899
