looks/recipe_kodachrome64.cube
TITLE "Fuji recipe Kodachrome 64 (16 RAFs)"
LUT_3D_SIZE 9
0.0168799 0.0167266 0.0141983
0.0890166 0.0193998 0.0172755
0.1727305 0.0192508 0.0175054
0.4063077 0.0392404 0.0378156
0.5226076 0.0502787 0.0493240
0.6202675 0.0588846 0.0596025
0.7314255 0.0455603 0.0446593
0.8705614 0.0118887 0.0117053
0.9916327 0.0083403 0.0083346
0.0294800 0.0882212 0.0165216
0.0968620 0.0958043 0.0253123
0.2355940 0.0965534 0.0277405
0.3881911 0.1117081 0.0342600
0.5069169 0.1183284 0.0358485
0.6232814 0.1121809 0.0499388
0.7307115 0.1253380 0.0598115
0.8602477 0.1297109 0.0258282
0.9908782 0.1253535 0.0090610
0.0244779 0.2253297 0.0139740
0.0980672 0.1765213 0.0155328
0.2355645 0.2224053 0.0352399
0.3907318 0.2261294 0.0504476
0.5757099 0.2247057 0.0515380
0.6511936 0.2332529 0.0614101
0.7570179 0.2722102 0.0450964
0.8684418 0.2531058 0.0196426
0.9899017 0.2497489 0.0100523
0.0094774 0.3726231 0.0086061
0.1310768 0.3461296 0.0156824
0.2322650 0.3358935 0.0218839
0.3561816 0.3744515 0.0322499
0.5004546 0.3243282 0.0447695
0.6331220 0.3358715 0.0478173
0.7823496 0.3497237 0.0723898
0.8586796 0.3764815 0.0446569
0.9895884 0.3758062 0.0103016
0.0083644 0.4999185 0.0083349
0.1268318 0.4961156 0.0092352
0.2684979 0.4759247 0.0179894
0.3913868 0.4968668 0.0260420
0.5223178 0.5281787 0.0498905
0.6227452 0.4307310 0.0378226
0.7493218 0.4701058 0.0315220
0.8696564 0.4861360 0.0279445
0.9803293 0.5015358 0.0313988
0.0082861 0.6249974 0.0082892
0.1250071 0.6248982 0.0083845
0.2543880 0.6209232 0.0096848
0.3790450 0.5775917 0.0173059
0.4739447 0.5807141 0.0279818
0.6067722 0.6162851 0.0247658
0.7483752 0.6216884 0.0116373
0.8756807 0.6207051 0.0144214
0.9870259 0.6191801 0.0181040
0.0082859 0.7500000 0.0082859
0.1250001 0.7499980 0.0082875
0.2501240 0.7497759 0.0083110
0.3773165 0.7427865 0.0093725
0.5028434 0.7201800 0.0177941
0.6176249 0.7369773 0.0138929
0.7495434 0.7495953 0.0087917
0.8749941 0.7498598 0.0085210
0.9916686 0.7495549 0.0090204
0.0082859 0.8750000 0.0082859
0.1250000 0.8750000 0.0082859
0.2500004 0.8749992 0.0082861
0.3750199 0.8749394 0.0082954
0.5000899 0.8743454 0.0084595
0.6249959 0.8745852 0.0085652
0.7499950 0.8749448 0.0083585
0.8749577 0.8749094 0.0084245
0.9916942 0.8749812 0.0083178
0.0082859 0.9917141 0.0082859
0.1250000 0.9917141 0.0082859
0.2500000 0.9917141 0.0082859
0.3750000 0.9917141 0.0082859
0.5000002 0.9917135 0.0082862
0.6250000 0.9917135 0.0082862
0.7500001 0.9917122 0.0082876
0.8749986 0.9917077 0.0082927
0.9917113 0.9917095 0.0082912
0.0202623 0.0539455 0.0955336
0.1196363 0.0475160 0.0971848
0.2236694 0.0402086 0.0953735
0.3711800 0.0507554 0.1095995
0.4967758 0.0470798 0.1010034
0.6246101 0.0442458 0.1047125
0.7375920 0.0476717 0.1234412
0.8674300 0.0172896 0.1260966
0.9914322 0.0085292 0.1250599
0.0157863 0.1082309 0.1266977
0.1347523 0.1441441 0.1404676
0.2615598 0.1463557 0.1391583
0.3583667 0.1261170 0.1203592
0.4830932 0.1234479 0.1206348
0.6504596 0.1416200 0.1332887
0.7386384 0.1518221 0.1428521
0.8322641 0.1538397 0.1459740
0.9825966 0.1293368 0.1279225
0.0170247 0.2082560 0.1308388
0.1115793 0.2120352 0.1206089
0.2653692 0.2658603 0.1483293
0.4139460 0.2449578 0.1318407
0.5478651 0.2426999 0.1316330
0.6722127 0.2443639 0.1509475
0.7477335 0.2416514 0.1601033
0.8350541 0.2297951 0.1630646
0.9684078 0.2489515 0.1365230
0.0103037 0.3695484 0.1272226
0.1503044 0.3450626 0.1190432
0.2375109 0.3561829 0.1230201
0.4164688 0.3943910 0.1348637
0.5420991 0.3537342 0.1326433
0.7123594 0.3808045 0.1473691
0.7801196 0.3616198 0.1376091
0.8390647 0.3717362 0.1394589
0.9814386 0.3764390 0.1339847
0.0084326 0.4996230 0.1256047
0.1068747 0.4891065 0.1424454
0.2432067 0.4611270 0.1374528
0.3828347 0.4985464 0.1164627
0.5306818 0.5027888 0.1207205
0.6247037 0.4450556 0.1413392
0.7831233 0.4744211 0.1675470
0.8663632 0.4803551 0.1583069
0.9347013 0.5090469 0.1641659
0.0083073 0.6248061 0.1251213
0.1222223 0.6190297 0.1288292
0.2348845 0.6046140 0.1394047
0.3748707 0.5867227 0.1249291
0.5065035 0.5892647 0.1077905
0.6245334 0.6302281 0.1361239
0.7445312 0.5840638 0.1481909
0.8778909 0.6003049 0.1536539
0.9687749 0.5960152 0.1850247
0.0082862 0.7499964 0.1250015
0.1249868 0.7498548 0.1250674
0.2491459 0.7475461 0.1261291
0.3721942 0.7325757 0.1343846
0.5257156 0.7100879 0.1323612
0.6315809 0.7143651 0.1427356
0.7466606 0.7410071 0.1425717
0.8674080 0.7434351 0.1393973
0.9906335 0.7362364 0.1424161
0.0082859 0.8750000 0.1250000
0.1250000 0.8749996 0.1250001
0.2500067 0.8749682 0.1250121
0.3749642 0.8740816 0.1253860
0.5003006 0.8722055 0.1260962
0.6260344 0.8718457 0.1265964
0.7497027 0.8659818 0.1320053
0.8677277 0.8593436 0.1385380
0.9857619 0.8694252 0.1319193
0.0082859 0.9917141 0.1250000
0.1250000 0.9917141 0.1250000
0.2500000 0.9917141 0.1250000
0.3750003 0.9917111 0.1250014
0.4999968 0.9916917 0.1250136
0.6250030 0.9916942 0.1250099
0.7500299 0.9913771 0.1251807
0.8745517 0.9893283 0.1267188
0.9905410 0.9897925 0.1263755
0.0210696 0.0603805 0.2443366
0.1295188 0.0656695 0.2491822
0.2485279 0.0439024 0.2458579
0.3765271 0.0357348 0.2510006
0.5097600 0.0435167 0.2662229
0.6252662 0.0197434 0.2484927
0.7496030 0.0152260 0.2474758
0.8731471 0.0127144 0.2490411
0.9915523 0.0084423 0.2499668
0.0113200 0.1474169 0.2422455
0.1349661 0.1658777 0.2533159
0.2609116 0.1687278 0.2570890
0.3779396 0.1662563 0.2538746
0.5171456 0.1780524 0.2609950
0.6336267 0.1718718 0.2447159
0.7607302 0.1753999 0.2526985
0.8524070 0.1478833 0.2394438
0.9853110 0.1289236 0.2484013
0.0159730 0.2273861 0.2630031
0.1019244 0.2552251 0.2591131
0.2989887 0.3121531 0.3042848
0.4601609 0.3273423 0.3163877
0.5223661 0.2584296 0.2578641
0.7007384 0.2798980 0.2858191
0.7764878 0.2661622 0.2635435
0.8403853 0.2649957 0.2509472
0.9436952 0.2724035 0.2607291
0.0129417 0.3651095 0.2597726
0.1130248 0.3593066 0.2663526
0.2204705 0.3816573 0.2686942
0.4344827 0.4314586 0.3068865
0.5665944 0.4019600 0.2828623
0.7158993 0.4051525 0.2713267
0.7758039 0.3803752 0.2815321
0.8520750 0.3578730 0.2691752
0.9388018 0.3684693 0.2883956
0.0088051 0.4989024 0.2499724
0.0698330 0.4757394 0.2443258
0.1367010 0.4753530 0.2388015
0.3468587 0.4956105 0.2563390
0.5579243 0.5355129 0.2687191
0.6835520 0.5075845 0.2642588
0.8125529 0.5163193 0.2674748
0.8963462 0.5391528 0.2768668
0.9569882 0.5346753 0.2629794
0.0084136 0.6240287 0.2499935
0.1058177 0.5964113 0.2507432
0.1637263 0.5615292 0.2489113
0.2718600 0.5815207 0.2400120
0.5290688 0.6320891 0.2456498
0.6735056 0.6376025 0.2689329
0.7545952 0.5751807 0.2763348
0.8773845 0.6003993 0.2869153
0.9585905 0.6064515 0.2864482
0.0082878 0.7499777 0.2500003
0.1245404 0.7486374 0.2501967
0.2452681 0.7389436 0.2500258
0.3528886 0.7005321 0.2461898
0.4301530 0.6716512 0.2659050
0.6711618 0.7106707 0.2595481
0.7301464 0.6918053 0.2845948
0.8231158 0.7041510 0.2751212
0.9916571 0.6943318 0.3107432
0.0082859 0.8750000 0.2500000
0.1249992 0.8749959 0.2500005
0.2499917 0.8748288 0.2499973
0.3757251 0.8702652 0.2506177
0.4919741 0.8424722 0.2623404
0.6235313 0.8574436 0.2569662
0.7475886 0.8144087 0.2676299
0.8277805 0.7609831 0.2930071
0.9110441 0.7987545 0.2877975
0.0082859 0.9917141 0.2500000
0.1250000 0.9917141 0.2500000
0.2500001 0.9917139 0.2500000
0.3750121 0.9916607 0.2500127
0.4998976 0.9909887 0.2501833
0.6248536 0.9908477 0.2505798
0.7503157 0.9883471 0.2507791
0.8688221 0.9586647 0.2594060
0.9754112 0.9649944 0.2574685
0.0084774 0.0191750 0.3679630
0.1303750 0.0268983 0.3690690
0.2478297 0.0266770 0.3739877
0.3936244 0.0411903 0.3831893
0.5161326 0.0493572 0.3784867
0.6286110 0.0320368 0.3806908
0.7496453 0.0134838 0.3759473
0.8748809 0.0086218 0.3749180
0.9917083 0.0082932 0.3749957
0.0094756 0.1857007 0.3590969
0.1273157 0.2050473 0.3997288
0.2582521 0.2000892 0.3998332
0.4567306 0.2203803 0.4241182
0.5847092 0.2155585 0.4178859
0.6689643 0.2174188 0.4238617
0.7628852 0.1921342 0.3850229
0.8704563 0.1329436 0.3741440
0.9909720 0.1258595 0.3745266
0.0115069 0.2631623 0.3786719
0.0916113 0.2790300 0.3900266
0.2721549 0.3107042 0.4202582
0.4158725 0.3161690 0.4225587
0.5425509 0.3046312 0.4046262
0.6311733 0.2958706 0.3836088
0.7785179 0.2966914 0.3968068
0.8679012 0.2896721 0.3716892
0.9712998 0.2683935 0.3693418
0.0137010 0.3557626 0.3986523
0.0757354 0.3754220 0.4049505
0.2368913 0.4064524 0.4116875
0.4514983 0.4657813 0.4543641
0.5736048 0.4431444 0.4354983
0.6530360 0.4006011 0.3946769
0.7661302 0.3983098 0.3902617
0.8645866 0.3927750 0.3994747
0.9240627 0.3954352 0.3801147
0.0091227 0.4957054 0.3801340
0.0982027 0.4836499 0.3630554
0.1785000 0.4806795 0.3815649
0.4010058 0.5158967 0.4105680
0.5699087 0.5578023 0.4375583
0.6719924 0.5319481 0.4230099
0.8057089 0.5394453 0.4027015
0.8664961 0.5238926 0.3999391
0.9523110 0.5059102 0.4135493
0.0083327 0.6245767 0.3748359
0.1149025 0.6111096 0.3655090
0.1630150 0.5778518 0.3425567
0.3445502 0.5997786 0.3743349
0.4886284 0.6115478 0.3940503
0.6860908 0.6604727 0.4039303
0.6852936 0.5401399 0.3537389
0.8996183 0.6452835 0.4137484
0.9732423 0.6695089 0.4281823
0.0082876 0.7499882 0.3749960
0.1245561 0.7487640 0.3745935
0.2441751 0.7427309 0.3722250
0.3755983 0.7244279 0.3655628
0.4474408 0.6909189 0.3626906
0.6219157 0.7139351 0.3930085
0.7702282 0.7371614 0.4040082
0.8462890 0.7080622 0.4007740
0.9876317 0.7150650 0.4174292
0.0082859 0.8750000 0.3750000
0.1249990 0.8749959 0.3749991
0.2500078 0.8749306 0.3749786
0.3756990 0.8708697 0.3741449
0.4941905 0.8335607 0.3739775
0.5965529 0.7961130 0.4066091
0.7207819 0.7948472 0.4133894
0.8360541 0.7807802 0.3986256
0.9903547 0.7747434 0.4189604
0.0082859 0.9917141 0.3750000
0.1250000 0.9917141 0.3750000
0.2500001 0.9917139 0.3750000
0.3750181 0.9916458 0.3749953
0.5001668 0.9901420 0.3751757
0.6237377 0.9796773 0.3784884
0.7459894 0.9780774 0.3836419
0.8751432 0.9697657 0.3771634
0.9937741 0.9079871 0.4095797
0.0083945 0.0100187 0.4994802
0.1249400 0.0111091 0.4992865
0.2501181 0.0106274 0.4991837
0.3779710 0.0138456 0.4987273
0.5030034 0.0144333 0.4984883
0.6263632 0.0139695 0.4987596
0.7497022 0.0104261 0.4996443
0.8749488 0.0085221 0.5000194
0.9917115 0.0082919 0.5000009
0.0112784 0.1652210 0.4901583
0.1218390 0.1696349 0.4892907
0.2471340 0.1551013 0.4896407
0.3908855 0.1632323 0.4986452
0.5248168 0.1788960 0.4970571
0.6476323 0.1794877 0.4922116
0.7606173 0.1842790 0.5059781
0.8716887 0.1450035 0.5044976
0.9912598 0.1256850 0.5001567
0.0123362 0.3170343 0.5011162
0.1015674 0.2982453 0.4957634
0.2458076 0.3184472 0.5133989
0.4148113 0.3393533 0.5319105
0.5438181 0.3453818 0.5373901
0.6953752 0.3360430 0.5287351
0.7917761 0.3448040 0.5352089
0.8570019 0.3142331 0.5275735
0.9865766 0.2566090 0.4991295
0.0137953 0.3956591 0.5110722
0.0634370 0.4127404 0.5237916
0.2180439 0.4214141 0.5255172
0.4048501 0.4378593 0.5354921
0.5602449 0.4587088 0.5593253
0.6685251 0.4421057 0.5290247
0.7851169 0.4321837 0.5299723
0.8595454 0.4215030 0.5112182
0.9633619 0.4033132 0.4903623
0.0109843 0.4890752 0.5169762
0.0812871 0.4893937 0.5132832
0.2675092 0.4998972 0.5102884
0.3746186 0.5342817 0.5412850
0.5968236 0.6066766 0.5911975
0.6550433 0.5477516 0.5302579
0.7640377 0.5337619 0.5197577
0.8420467 0.5032870 0.4934678
0.9193587 0.4977705 0.4912484
0.0085042 0.6233289 0.5013500
0.1215888 0.6166358 0.5046676
0.2305296 0.6051935 0.5228943
0.3273702 0.6026534 0.5279038
0.5066738 0.6251575 0.5341144
0.7000037 0.6864798 0.5783800
0.7754101 0.6676154 0.5767962
0.8429298 0.6226051 0.5022346
0.9298084 0.6490321 0.4960289
0.0082874 0.7499864 0.5000072
0.1250094 0.7497844 0.5000824
0.2500994 0.7469089 0.5018787
0.3726596 0.7343073 0.5065054
0.5060740 0.7164642 0.4948868
0.6176582 0.7150853 0.5289767
0.7766374 0.7508513 0.5394465
0.6345660 0.5091713 0.3639608
0.9708636 0.7380436 0.5356488
0.0082859 0.8750000 0.5000000
0.1250001 0.8749996 0.5000001
0.2500061 0.8749743 0.5000104
0.3757995 0.8739210 0.4997983
0.5075544 0.8454370 0.4969182
0.6134797 0.7899255 0.5010822
0.7138941 0.7872698 0.5356182
0.8470541 0.8058792 0.5245442
0.9969141 0.7883978 0.5255893
0.0082859 0.9917141 0.5000000
0.1250000 0.9917141 0.5000000
0.2500001 0.9917141 0.5000000
0.3750131 0.9916916 0.4999986
0.5004848 0.9902293 0.4998974
0.6278486 0.9687578 0.4998587
0.7377239 0.9243587 0.5153908
0.8624860 0.9374141 0.5176821
0.9987390 0.8207241 0.5135040
0.0082902 0.0083573 0.6249649
0.1249979 0.0083698 0.6249515
0.2499877 0.0083335 0.6249748
0.3750160 0.0083387 0.6249773
0.5000255 0.0083803 0.6249575
0.6250586 0.0084380 0.6249480
0.7500305 0.0085203 0.6249384
0.8749915 0.0083297 0.6249901
0.9917136 0.0082869 0.6249998
0.0084491 0.1324601 0.6216335
0.1238518 0.1299035 0.6217389
0.2492973 0.1295839 0.6228242
0.3761527 0.1302428 0.6229103
0.5011431 0.1305502 0.6231049
0.6294496 0.1321485 0.6221738
0.7528432 0.1373639 0.6207678
0.8740822 0.1298534 0.6238829
0.9915667 0.1252961 0.6249735
0.0102258 0.3042999 0.5831056
0.1037145 0.2860031 0.5955035
0.2484145 0.2965013 0.6072407
0.3885618 0.3035273 0.6137283
0.5078495 0.2892874 0.6154026
0.6522924 0.2984462 0.6101313
0.7788919 0.3273247 0.6082438
0.8652567 0.3225856 0.6174259
0.9867926 0.2570170 0.6247327
0.0138397 0.4254207 0.5905863
0.0762072 0.4278678 0.5972512
0.2223597 0.4445429 0.6212001
0.3972163 0.4551103 0.6254720
0.5334587 0.4627430 0.6368598
0.6612293 0.4634945 0.6071600
0.7801531 0.4729010 0.6279961
0.8580441 0.4719253 0.6356044
0.9719505 0.4019103 0.6310546
0.0150969 0.5025682 0.6223331
0.0508241 0.5141734 0.6158195
0.2192041 0.5386356 0.6018023
0.3727894 0.5463281 0.6284937
0.5429782 0.5756618 0.6457033
0.6794102 0.5824078 0.6640040
0.7798826 0.5777174 0.6470383
0.8544970 0.5431654 0.6297886
0.9441968 0.5323442 0.6298396
0.0098366 0.6128789 0.6279027
0.0998168 0.6011935 0.6267518
0.1980444 0.5991734 0.6198637
0.3625846 0.6502304 0.6580681
0.5228862 0.6532416 0.6485647
0.7062218 0.7141438 0.6908514
0.7499658 0.6544755 0.6314524
0.8337039 0.6258975 0.6060326
0.8795499 0.6154281 0.5912749
0.0083158 0.7496279 0.6250735
0.1243725 0.7484199 0.6251372
0.2596419 0.7432523 0.6251603
0.4008596 0.7233799 0.6350240
0.4966947 0.7101995 0.6185235
0.6342603 0.7246761 0.6374130
0.7585444 0.7432333 0.6593632
0.8292121 0.7391210 0.6533268
0.8737196 0.6859921 0.5874433
0.0082859 0.8749995 0.6250001
0.1250086 0.8749939 0.6250008
0.2515789 0.8741556 0.6250609
0.3813394 0.8701121 0.6253444
0.5076035 0.8581262 0.6270135
0.6271918 0.8037292 0.6205459
0.7270068 0.7972584 0.6302444
0.8181515 0.7975973 0.6357681
0.9517795 0.7831236 0.6131333
0.0082859 0.9917141 0.6250000
0.1250001 0.9917141 0.6250000
0.2500196 0.9916993 0.6250015
0.3750870 0.9916157 0.6250170
0.5006838 0.9899338 0.6253360
0.6280091 0.9713397 0.6255099
0.7458468 0.9158190 0.6238421
0.8063186 0.8614739 0.6372080
0.9984698 0.8419228 0.6001235
0.0082859 0.0082867 0.7499995
0.1249999 0.0082864 0.7499997
0.2500000 0.0082861 0.7499999
0.3750000 0.0082861 0.7499999
0.5000001 0.0082861 0.7499999
0.6250004 0.0082867 0.7499995
0.7500002 0.0082873 0.7499992
0.8749999 0.0082864 0.7499998
0.9917141 0.0082859 0.7500000
0.0082901 0.1252485 0.7497784
0.1249479 0.1251276 0.7498686
0.2499986 0.1250782 0.7499477
0.3750122 0.1250849 0.7499532
0.5000013 0.1250554 0.7499643
0.6250318 0.1250780 0.7499490
0.7500634 0.1252887 0.7498416
0.8749790 0.1252580 0.7498825
0.9917035 0.1250241 0.7499905
0.0085371 0.2579288 0.7414158
0.1232343 0.2544977 0.7458012
0.2492474 0.2548538 0.7470194
0.3755206 0.2541710 0.7476880
0.4999493 0.2535765 0.7485603
0.6270038 0.2545898 0.7474438
0.7528623 0.2601862 0.7447981
0.8740121 0.2626212 0.7446077
0.9904138 0.2524442 0.7490826
0.0111437 0.4148932 0.7089216
0.1044153 0.4106067 0.7166235
0.2336233 0.3994338 0.7244771
0.3760192 0.4056421 0.7312727
0.5021656 0.4036826 0.7343679
0.6545548 0.4251712 0.7260620
0.7726575 0.4647284 0.7231327
0.8688301 0.4532436 0.7241987
0.9733987 0.4158149 0.7428382
0.0174426 0.5386499 0.6741610
0.0592000 0.5375867 0.6828775
0.2479849 0.5647385 0.7062358
0.3647006 0.5493402 0.7155014
0.5149608 0.5696445 0.7132302
0.6375659 0.5728537 0.7227199
0.7792279 0.6013671 0.7254004
0.8665509 0.6035122 0.7257182
0.9308092 0.5780657 0.7338683
0.0140340 0.6037133 0.7219700
0.0688993 0.6012852 0.7079771
0.2229220 0.6392024 0.7168589
0.3560145 0.6675496 0.7148528
0.5142841 0.6611647 0.7076035
0.6660756 0.6888757 0.7290218
0.7804486 0.7117227 0.7417818
0.8465975 0.6608313 0.7123616
0.9138454 0.6647721 0.7200265
0.0086747 0.7476934 0.7491018
0.1206558 0.7401435 0.7470406
0.2815395 0.7370596 0.7412756
0.5663595 0.6838540 0.6771318
0.4909292 0.7291621 0.7292710
0.6590233 0.7591857 0.7422733
0.7810041 0.7941779 0.7650710
0.8261579 0.7389433 0.7095529
0.8811647 0.7069911 0.6794849
0.0082886 0.8749881 0.7499982
0.1250151 0.8747977 0.7499703
0.2689652 0.8660442 0.7460276
0.4670752 0.8185458 0.7271767
0.5026062 0.8262501 0.7309598
0.6153470 0.8036832 0.7078637
0.7362905 0.8056341 0.7176920
0.8196654 0.8080080 0.7291412
0.8615186 0.7666908 0.6796746
0.0082859 0.9917141 0.7500000
0.1250102 0.9917083 0.7499985
0.2515355 0.9905867 0.7497051
0.3813706 0.9852015 0.7482973
0.5014157 0.9871486 0.7487373
0.6255099 0.9657488 0.7410312
0.7453741 0.9263665 0.7268882
0.8196966 0.8696561 0.7132751
0.9602569 0.8437480 0.6780863
0.0082859 0.0082859 0.8750000
0.1250000 0.0082859 0.8750000
0.2500000 0.0082859 0.8750000
0.3750000 0.0082859 0.8750000
0.5000000 0.0082859 0.8750000
0.6250000 0.0082859 0.8750000
0.7500000 0.0082859 0.8750000
0.8750000 0.0082859 0.8750000
0.9917141 0.0082859 0.8750000
0.0082859 0.1250009 0.8749990
0.1249999 0.1250003 0.8749996
0.2500000 0.1250002 0.8749998
0.3750000 0.1250002 0.8749999
0.5000000 0.1250001 0.8749999
0.6250001 0.1250002 0.8749999
0.7500002 0.1250010 0.8749993
0.8749999 0.1250012 0.8749992
0.9917140 0.1250002 0.8749999
0.0082885 0.2500748 0.8749092
0.1249812 0.2500642 0.8749368
0.2499850 0.2500452 0.8749529
0.3750027 0.2500247 0.8749792
0.4999998 0.2500225 0.8749817
0.6250307 0.2500800 0.8749465
0.7500523 0.2503177 0.8748230
0.8749866 0.2502841 0.8748296
0.9916856 0.2500927 0.8749580
0.0085510 0.3790435 0.8699304
0.1233937 0.3778975 0.8715424
0.2501716 0.3767188 0.8735363
0.3748130 0.3759872 0.8738714
0.5003362 0.3762189 0.8739241
0.6262538 0.3778271 0.8728991
0.7520781 0.3860821 0.8679100
0.8748793 0.3875110 0.8672280
0.9882888 0.3845629 0.8701708
0.0124492 0.5155787 0.8334801
0.1002963 0.5237219 0.8226953
0.2395315 0.5177623 0.8506088
0.3722937 0.5111718 0.8608964
0.5028186 0.5146846 0.8616992
0.6298584 0.5300393 0.8518419
0.7590533 0.5327859 0.8494960
0.8756777 0.5500968 0.8342887
0.9538442 0.5664264 0.8229474
0.0217031 0.6155271 0.8018352
0.0758756 0.6283137 0.7544321
0.1814466 0.6517984 0.7829583
0.3520713 0.6827493 0.7967911
0.5100352 0.6722089 0.7992914
0.6340253 0.6639583 0.8233525
0.7627042 0.6649913 0.8177258
0.8670733 0.6759903 0.8000374
0.9204735 0.6789032 0.7987728
0.0108519 0.7441096 0.8671518
0.1130139 0.7230340 0.8355837
0.2062367 0.7187924 0.8162920
0.3661538 0.7442421 0.7965149
0.5054970 0.7609343 0.7893857
0.6615581 0.7927632 0.8140241
0.7526542 0.7852541 0.8059978
0.8511876 0.7751779 0.7955384
0.8966752 0.7478496 0.7841462
0.0083220 0.8748623 0.8749110
0.1250838 0.8737239 0.8741609
0.2916642 0.8542672 0.8538738
0.5591310 0.7592508 0.7535145
0.5206023 0.8413725 0.8421666
0.6267646 0.7971017 0.7893769
0.7467824 0.8256139 0.7983673
0.8543290 0.8615471 0.8221524
0.8944898 0.8033434 0.7646950
0.0082859 0.9917140 0.8749999
0.1250237 0.9916996 0.8749909
0.2536904 0.9890046 0.8732514
0.3903100 0.9760644 0.8649009
0.5020481 0.9879416 0.8729208
0.6308655 0.9601312 0.8592336
0.7487608 0.8938667 0.8178849
0.8071135 0.8493266 0.7790531
0.9126878 0.8785594 0.7971988
0.0082859 0.0082859 0.9917141
0.1250000 0.0082859 0.9917141
0.2500000 0.0082859 0.9917141
0.3750000 0.0082859 0.9917141
0.5000000 0.0082859 0.9917141
0.6250000 0.0082859 0.9917141
0.7500000 0.0082859 0.9917141
0.8750000 0.0082859 0.9917141
0.9917141 0.0082859 0.9917141
0.0082859 0.1250000 0.9917141
0.1250000 0.1250000 0.9917141
0.2500000 0.1250000 0.9917141
0.3750000 0.1250000 0.9917141
0.5000000 0.1250000 0.9917141
0.6250000 0.1250000 0.9917141
0.7500000 0.1250000 0.9917141
0.8750000 0.1250000 0.9917141
0.9917141 0.1250000 0.9917141
0.0082859 0.2500002 0.9917139
0.1249999 0.2500001 0.9917139
0.2500000 0.2500000 0.9917141
0.3750000 0.2500000 0.9917141
0.5000000 0.2500000 0.9917141
0.6250001 0.2500002 0.9917139
0.7500002 0.2500012 0.9917132
0.8750000 0.2500014 0.9917130
0.9917139 0.2500010 0.9917134
0.0082902 0.3750428 0.9916450
0.1249747 0.3750597 0.9916253
0.2499848 0.3750238 0.9916841
0.3749988 0.3750048 0.9917082
0.5000012 0.3750057 0.9917086
0.6250048 0.3750237 0.9916922
0.7500122 0.3750657 0.9916385
0.8750092 0.3751604 0.9915519
0.9916217 0.3752862 0.9914598
0.0087491 0.5014799 0.9873714
0.1233226 0.5032317 0.9845412
0.2478956 0.5021685 0.9879712
0.3747557 0.5008270 0.9907417
0.5000585 0.5007268 0.9908159
0.6250489 0.5004824 0.9910189
0.7502844 0.5011166 0.9902733
0.8750637 0.5019681 0.9890746
0.9897503 0.5037717 0.9867789
0.0112217 0.6254284 0.9757519
0.1092662 0.6325991 0.9133889
0.2126687 0.6463351 0.9063737
0.3691353 0.6386635 0.9644657
0.4983421 0.6333916 0.9745657
0.6245694 0.6295137 0.9846893
0.7498936 0.6289386 0.9843247
0.8750921 0.6350052 0.9740239
0.9810648 0.6364056 0.9698240
0.0096632 0.7476100 0.9855071
0.1227385 0.7334188 0.9362741
0.2103287 0.7225254 0.8796250
0.3737813 0.7506617 0.9355862
0.5154168 0.7664551 0.8910089
0.6149888 0.7673808 0.9187045
0.7555527 0.7802564 0.9399420
0.8705608 0.7638246 0.9268433
0.9388992 0.7663516 0.8926982
0.0083067 0.8749325 0.9916335
0.1250953 0.8736185 0.9899396
0.2484601 0.8686730 0.9832675
0.3883262 0.8654675 0.9749135
0.5139660 0.8543582 0.9424316
0.6526508 0.8468900 0.8912733
0.7762029 0.8687762 0.8758448
0.8324326 0.8535600 0.8680241
0.9136853 0.8273252 0.8428379
0.0082859 0.9917141 0.9917141
0.1250012 0.9917097 0.9917106
0.2503055 0.9914885 0.9914818
0.3762708 0.9904143 0.9903748
0.5013180 0.9900692 0.9900658
0.6611654 0.9672619 0.9648578
0.7435750 0.8759354 0.8591921
0.8531352 0.9169607 0.8871902
0.9219352 0.9290998 0.8814514
