looks/recipe_portra400.cube
TITLE "Fuji recipe Portra 400 (16 RAFs)"
LUT_3D_SIZE 9
0.0175219 0.0176277 0.0147638
0.0937058 0.0204841 0.0182314
0.1784467 0.0202516 0.0178487
0.4198289 0.0418430 0.0387703
0.5392229 0.0535742 0.0508681
0.6361918 0.0624395 0.0612567
0.7369347 0.0475545 0.0453658
0.8708766 0.0120199 0.0117594
0.9916326 0.0083409 0.0083350
0.0236556 0.0782344 0.0080009
0.1011714 0.0995422 0.0264874
0.2461175 0.1014204 0.0287280
0.3982623 0.1162614 0.0343776
0.5097683 0.1204738 0.0390528
0.6345953 0.1149794 0.0514961
0.7373779 0.1279958 0.0611979
0.8604960 0.1299633 0.0259542
0.9908817 0.1253809 0.0090612
0.0242310 0.2252717 0.0133823
0.1024557 0.1848377 0.0167453
0.2438154 0.2240698 0.0370693
0.4050603 0.2347163 0.0519838
0.5812417 0.2279822 0.0515040
0.6575580 0.2395567 0.0620574
0.7543555 0.2730272 0.0448878
0.8683756 0.2497329 0.0191035
0.9899108 0.2497421 0.0100765
0.0099015 0.3725544 0.0085681
0.1260537 0.3287372 0.0087906
0.2396515 0.3476504 0.0230268
0.3564828 0.3600616 0.0382715
0.5104577 0.3152608 0.0511393
0.6593365 0.3355863 0.0543896
0.7750703 0.3514838 0.0704926
0.8597262 0.3766316 0.0327894
0.9888947 0.3757932 0.0105267
0.0083576 0.4999053 0.0083177
0.1274144 0.4964826 0.0091180
0.2789344 0.4819075 0.0144989
0.3884251 0.4969482 0.0266369
0.5186487 0.4913903 0.0438007
0.6201475 0.4328900 0.0373320
0.7476653 0.4710638 0.0313939
0.8632862 0.4830509 0.0324924
0.9789350 0.5020620 0.0310594
0.0082862 0.6249975 0.0082892
0.1250858 0.6248713 0.0083718
0.2560607 0.6176575 0.0092489
0.3776175 0.5769826 0.0184029
0.4623297 0.5748147 0.0268552
0.6026573 0.6141062 0.0217709
0.7481397 0.6216981 0.0115709
0.8754900 0.6210382 0.0154786
0.9861980 0.6193913 0.0199360
0.0082859 0.7500000 0.0082859
0.1250006 0.7499978 0.0082873
0.2502950 0.7495309 0.0083690
0.3777594 0.7404600 0.0094659
0.4989229 0.7146302 0.0175950
0.6167428 0.7369246 0.0135152
0.7495257 0.7495859 0.0088514
0.8750294 0.7495521 0.0087968
0.9914271 0.7492714 0.0091176
0.0082859 0.8750000 0.0082859
0.1250000 0.8750000 0.0082859
0.2500007 0.8749981 0.0082865
0.3750486 0.8748726 0.0083049
0.5000288 0.8742329 0.0084429
0.6249392 0.8745506 0.0085210
0.7499928 0.8749286 0.0083856
0.8749337 0.8748752 0.0084678
0.9916897 0.8749740 0.0083224
0.0082859 0.9917141 0.0082859
0.1250000 0.9917141 0.0082859
0.2500000 0.9917141 0.0082859
0.3750000 0.9917141 0.0082859
0.5000002 0.9917134 0.0082861
0.6250002 0.9917130 0.0082867
0.7500004 0.9917079 0.0082916
0.8749945 0.9916968 0.0083009
0.9917111 0.9917095 0.0082912
0.0253566 0.0576971 0.0971052
0.1206597 0.0496307 0.0995522
0.2310405 0.0414716 0.0964975
0.3806060 0.0539148 0.1115709
0.4979725 0.0509845 0.1080170
0.6343200 0.0473097 0.1063358
0.7425284 0.0495903 0.1241557
0.8687269 0.0165584 0.1261074
0.9914390 0.0085368 0.1250616
0.0164290 0.1138565 0.1310109
0.1411712 0.1521273 0.1470096
0.2728178 0.1525235 0.1441634
0.3711655 0.1301641 0.1225901
0.5016351 0.1310060 0.1245762
0.6625724 0.1470425 0.1352112
0.7478278 0.1564946 0.1446849
0.8347625 0.1567050 0.1466959
0.9825987 0.1296536 0.1279177
0.0175733 0.2135377 0.1334389
0.1241937 0.2287280 0.1168018
0.2734815 0.2735776 0.1541634
0.4242218 0.2506513 0.1345820
0.5519141 0.2449910 0.1330532
0.6807803 0.2484711 0.1536016
0.7501150 0.2438446 0.1630626
0.8351960 0.2333990 0.1631746
0.9681016 0.2497136 0.1363993
0.0108746 0.3694304 0.1284570
0.1520842 0.3490033 0.1207738
0.2397368 0.3622066 0.1232272
0.4147454 0.3910315 0.1344487
0.5444362 0.3545915 0.1331858
0.7069067 0.3783301 0.1455208
0.7702777 0.3556578 0.1381451
0.8334108 0.3643307 0.1432253
0.9785593 0.3744653 0.1377995
0.0084271 0.4996665 0.1255960
0.1068639 0.4904711 0.1421973
0.2471108 0.4675522 0.1374905
0.3836546 0.4988762 0.1167810
0.5252159 0.4946183 0.1186721
0.6230006 0.4451667 0.1397641
0.7710258 0.4692540 0.1615922
0.8513398 0.4669750 0.1499333
0.9279914 0.5116993 0.1623572
0.0083072 0.6248150 0.1251187
0.1219404 0.6191727 0.1288863
0.2412817 0.6061491 0.1381410
0.3557505 0.5872833 0.1331584
0.5041049 0.5892484 0.1069828
0.6216943 0.6319293 0.1368266
0.7407178 0.5846468 0.1472005
0.8815588 0.5944141 0.1609764
0.9434919 0.5811589 0.1851641
0.0082863 0.7499962 0.1250016
0.1249405 0.7497619 0.1251092
0.2499964 0.7467435 0.1266723
0.3696257 0.7255487 0.1353653
0.5154437 0.7013898 0.1231883
0.6228444 0.7047105 0.1370479
0.7431466 0.7383552 0.1454241
0.8671471 0.7424373 0.1395610
0.9897268 0.7340102 0.1459896
0.0082859 0.8750000 0.1250000
0.1250001 0.8749993 0.1250002
0.2500038 0.8749379 0.1250201
0.3749401 0.8740714 0.1253660
0.5006357 0.8719062 0.1259542
0.6276067 0.8672879 0.1291151
0.7498090 0.8643446 0.1333228
0.8635872 0.8535187 0.1416348
0.9853890 0.8694988 0.1318108
0.0082859 0.9917141 0.1250000
0.1250000 0.9917141 0.1250000
0.2500000 0.9917141 0.1250000
0.3750002 0.9917111 0.1250013
0.4999979 0.9916913 0.1250125
0.6250185 0.9916385 0.1250282
0.7500662 0.9906427 0.1255405
0.8741093 0.9886367 0.1266743
0.9905185 0.9898695 0.1264042
0.0218388 0.0632175 0.2478476
0.1319207 0.0693611 0.2530673
0.2521620 0.0393928 0.2418223
0.3791291 0.0366934 0.2521466
0.5120465 0.0450418 0.2672628
0.6260251 0.0201507 0.2487505
0.7498975 0.0153795 0.2475074
0.8738570 0.0110512 0.2491635
0.9916065 0.0084075 0.2499670
0.0122247 0.1550710 0.2516942
0.1447241 0.1852746 0.2746278
0.2719283 0.1731244 0.2579483
0.3937429 0.1738969 0.2615710
0.5345694 0.1851264 0.2657719
0.6423258 0.1740435 0.2460029
0.7615923 0.1783336 0.2523731
0.8572644 0.1475390 0.2424336
0.9851559 0.1290588 0.2483031
0.0178801 0.2364578 0.2733434
0.1064800 0.2655511 0.2662078
0.3072823 0.3231958 0.3118945
0.4635233 0.3324417 0.3200487
0.5353388 0.2688451 0.2667985
0.7041071 0.2859170 0.2867926
0.7761260 0.2708707 0.2645923
0.8341637 0.2647235 0.2456820
0.9406670 0.2737174 0.2593323
0.0136386 0.3636789 0.2540600
0.1152693 0.3653293 0.2679998
0.2312189 0.3884876 0.2719513
0.4369062 0.4348394 0.3116199
0.5662135 0.4013582 0.2816999
0.7093859 0.4055197 0.2725487
0.7651713 0.3803354 0.2788305
0.8528011 0.3508653 0.2817230
0.9245502 0.3603178 0.2807145
0.0087940 0.4990394 0.2499886
0.0694151 0.4791121 0.2438520
0.1499417 0.4748231 0.2406508
0.3508051 0.4984971 0.2590326
0.5561056 0.5317490 0.2709518
0.6852538 0.5083393 0.2635140
0.8105761 0.5186916 0.2683457
0.8898244 0.5406521 0.2727633
0.9554725 0.5378405 0.2649550
0.0084054 0.6240646 0.2499688
0.1058561 0.5961815 0.2493214
0.1548897 0.5572189 0.2444766
0.2729233 0.5816109 0.2376851
0.5318071 0.6324079 0.2466456
0.6656902 0.6309997 0.2688601
0.7578591 0.5778108 0.2797650
0.8662573 0.5987645 0.2804718
0.9432132 0.6041242 0.2810666
0.0082882 0.7499773 0.2499997
0.1246088 0.7482436 0.2500531
0.2427345 0.7338238 0.2492326
0.3514836 0.6998236 0.2457893
0.4344473 0.6741807 0.2620773
0.6626629 0.7027179 0.2480935
0.7149580 0.6835577 0.2806450
0.8250180 0.7105309 0.2749573
0.9888522 0.6799634 0.2986574
0.0082859 0.8749999 0.2500000
0.1249998 0.8749943 0.2500000
0.2499827 0.8748141 0.2499913
0.3755480 0.8702610 0.2504756
0.4907898 0.8429217 0.2612735
0.6349078 0.8463991 0.2579074
0.7440854 0.8007998 0.2729961
0.8106576 0.7471063 0.2801117
0.9094622 0.8040053 0.2896858
0.0082859 0.9917141 0.2500000
0.1250000 0.9917141 0.2500000
0.2500001 0.9917139 0.2500000
0.3750108 0.9916611 0.2500116
0.4999027 0.9909631 0.2502107
0.6249453 0.9906840 0.2505086
0.7503282 0.9852202 0.2509235
0.8677174 0.9590762 0.2586768
0.9752127 0.9660305 0.2579591
0.0085570 0.0198089 0.3691020
0.1318007 0.0270670 0.3697606
0.2498544 0.0273195 0.3759039
0.3934376 0.0369979 0.3814716
0.5181752 0.0506157 0.3793910
0.6292390 0.0326613 0.3810234
0.7500355 0.0122135 0.3754351
0.8748863 0.0085934 0.3749239
0.9917092 0.0082926 0.3749966
0.0095147 0.1971891 0.3756864
0.1366230 0.2082082 0.4085961
0.2673879 0.2081304 0.4082591
0.4524760 0.2338023 0.4367722
0.5929837 0.2196319 0.4199690
0.6740661 0.2223981 0.4263911
0.7584148 0.1847387 0.3812495
0.8707504 0.1318080 0.3731605
0.9909282 0.1258485 0.3744734
0.0118889 0.2786747 0.3978574
0.0951357 0.2907441 0.4027523
0.2783661 0.3174112 0.4288172
0.4227414 0.3221174 0.4274139
0.5473135 0.3098411 0.4094943
0.6504980 0.2980567 0.3894827
0.7754916 0.2994815 0.3931898
0.8646824 0.2895958 0.3683254
0.9695778 0.2688913 0.3682371
0.0137846 0.3624361 0.4036079
0.0713985 0.3857931 0.4150196
0.2385814 0.4138657 0.4138732
0.4523832 0.4704457 0.4548222
0.5734702 0.4432272 0.4329292
0.6504464 0.4027882 0.3913379
0.7594483 0.3970604 0.3835345
0.8572952 0.3924272 0.3949146
0.9214979 0.3992021 0.3776404
0.0093526 0.4946891 0.3801989
0.0997807 0.4860524 0.3631242
0.1789397 0.4875680 0.3850207
0.3816205 0.5154443 0.4060521
0.5684181 0.5596750 0.4423047
0.6674008 0.5287652 0.4169209
0.8004544 0.5414279 0.4040268
0.8619919 0.5297393 0.4072536
0.9488571 0.5109533 0.4162369
0.0083681 0.6245593 0.3748709
0.1147532 0.6116135 0.3653967
0.1636701 0.5799487 0.3412838
0.3465785 0.5991879 0.3672308
0.4959603 0.6085961 0.3951283
0.6791251 0.6583959 0.4065450
0.7023520 0.5589401 0.3668256
0.8954242 0.6478069 0.4136641
0.9704656 0.6787377 0.4361764
0.0082876 0.7499884 0.3749959
0.1245482 0.7487888 0.3745725
0.2442531 0.7424948 0.3714415
0.3762785 0.7238380 0.3656560
0.4537590 0.6948466 0.3720156
0.6364797 0.7203540 0.3983462
0.7638918 0.7339878 0.3988148
0.8442735 0.7036198 0.3976488
0.9799576 0.7144004 0.4127400
0.0082859 0.8750000 0.3750000
0.1249991 0.8749960 0.3749991
0.2500058 0.8749287 0.3749784
0.3764764 0.8705755 0.3748358
0.4980956 0.8229845 0.3773463
0.5863383 0.7916499 0.4038018
0.7249694 0.7973487 0.4148224
0.8281873 0.7818241 0.4010121
0.9903797 0.7698770 0.4162627
0.0082859 0.9917141 0.3750000
0.1250000 0.9917141 0.3750000
0.2500001 0.9917139 0.3750000
0.3750382 0.9916204 0.3750024
0.5001566 0.9886951 0.3751927
0.6248963 0.9766897 0.3810187
0.7412301 0.9712752 0.3849793
0.8747761 0.9698210 0.3773867
0.9943978 0.9062649 0.4056444
0.0082937 0.0100835 0.4996271
0.1252478 0.0101265 0.4995991
0.2502320 0.0107073 0.4992912
0.3761109 0.0111144 0.4996078
0.5035086 0.0139448 0.4986357
0.6264931 0.0139991 0.4988963
0.7499706 0.0098557 0.4999546
0.8749424 0.0085122 0.5000160
0.9917133 0.0082874 0.5000001
0.0107105 0.1629779 0.4922721
0.1203642 0.1706066 0.4952149
0.2489886 0.1576607 0.4920312
0.3912816 0.1644480 0.5005163
0.5259265 0.1802783 0.4991578
0.6474078 0.1810559 0.4921854
0.7581051 0.1838389 0.5054484
0.8712239 0.1366188 0.5016724
0.9915339 0.1252958 0.5000483
0.0127319 0.3277923 0.5110792
0.1045333 0.3081775 0.5034620
0.2509105 0.3274011 0.5188395
0.4131141 0.3434144 0.5354888
0.5471169 0.3434744 0.5308599
0.6930882 0.3387453 0.5253454
0.7876121 0.3442018 0.5301707
0.8569326 0.3150116 0.5202762
0.9874907 0.2553357 0.5005797
0.0141358 0.4033039 0.5128429
0.0657020 0.4216107 0.5303224
0.2171068 0.4266315 0.5289896
0.4022259 0.4368269 0.5336912
0.5572831 0.4560925 0.5539452
0.6620506 0.4462258 0.5278002
0.7823740 0.4366601 0.5308399
0.8536424 0.4229926 0.5233809
0.9610091 0.4060330 0.4896751
0.0114741 0.4916015 0.5238185
0.0802541 0.4918514 0.5090627
0.2728439 0.5064757 0.5134110
0.3782024 0.5402759 0.5413230
0.5934719 0.6088871 0.5872076
0.6503607 0.5458134 0.5264339
0.7602249 0.5345557 0.5175442
0.8400591 0.5070679 0.4908934
0.9164577 0.4969515 0.4862948
0.0086992 0.6231903 0.5011060
0.1201200 0.6106273 0.5018045
0.2277520 0.6060403 0.5240226
0.3188627 0.6011854 0.5240511
0.5123013 0.6188045 0.5209823
0.6992642 0.6924849 0.5841370
0.7672945 0.6628464 0.5638276
0.8236735 0.6106816 0.4952814
0.8894790 0.6042042 0.4819411
0.0082893 0.7499774 0.5000097
0.1250561 0.7496421 0.5001650
0.2504593 0.7458122 0.5029498
0.3687266 0.7239206 0.5088924
0.4914841 0.7063845 0.4937657
0.6206529 0.7166131 0.5293007
0.7664583 0.7416435 0.5398611
0.5857617 0.4664326 0.3250559
0.9531763 0.7357781 0.5307472
0.0082859 0.8750000 0.5000000
0.1250002 0.8749993 0.5000002
0.2500152 0.8749424 0.5000185
0.3759502 0.8735068 0.4996162
0.5073202 0.8443913 0.4959965
0.6128223 0.7920073 0.5006577
0.7202654 0.7909245 0.5371391
0.8319548 0.8004346 0.5223082
0.9954016 0.7891686 0.5224363
0.0082859 0.9917141 0.5000000
0.1250000 0.9917141 0.5000000
0.2500001 0.9917140 0.5000000
0.3750147 0.9916834 0.4999925
0.5005378 0.9898748 0.4997365
0.6302980 0.9651361 0.5016748
0.7375677 0.9028400 0.5259317
0.8466374 0.9237651 0.5240994
0.9987379 0.8239540 0.5076949
0.0082936 0.0083422 0.6249753
0.1249951 0.0083655 0.6249639
0.2499889 0.0083357 0.6249779
0.3750097 0.0083216 0.6249891
0.5000273 0.0083797 0.6249624
0.6250237 0.0083868 0.6249494
0.7500246 0.0085122 0.6249340
0.8749900 0.0083251 0.6249886
0.9917139 0.0082863 0.6249999
0.0084539 0.1328334 0.6220095
0.1243163 0.1296405 0.6220448
0.2493651 0.1298560 0.6230538
0.3762900 0.1299654 0.6237469
0.5011325 0.1304021 0.6231008
0.6271303 0.1303254 0.6228234
0.7517898 0.1352387 0.6203789
0.8743543 0.1282680 0.6241959
0.9916060 0.1252162 0.6249836
0.0102473 0.3095831 0.5870518
0.1078407 0.2909334 0.6008840
0.2560600 0.3016534 0.6110427
0.3911669 0.3027762 0.6121819
0.5052073 0.2892943 0.6135479
0.6486027 0.2926638 0.6110601
0.7787761 0.3262149 0.6135021
0.8652695 0.3050164 0.6184835
0.9880483 0.2546452 0.6245211
0.0139713 0.4282722 0.5916226
0.0773176 0.4270770 0.5955081
0.2298357 0.4466558 0.6170936
0.3958020 0.4574069 0.6216296
0.5297091 0.4645778 0.6294689
0.6623416 0.4667521 0.6005482
0.7780558 0.4778004 0.6243902
0.8540142 0.4670246 0.6296776
0.9702225 0.4114913 0.6328478
0.0151383 0.5051284 0.6184827
0.0516130 0.5183697 0.6111222
0.2145263 0.5407451 0.5988801
0.3829420 0.5489672 0.6281468
0.5396540 0.5766053 0.6431319
0.6745015 0.5829018 0.6566600
0.7763402 0.5805121 0.6436082
0.8496828 0.5590017 0.6282433
0.9407171 0.5454291 0.6413112
0.0103764 0.6103294 0.6272911
0.0997051 0.5998563 0.6229868
0.1929117 0.5975942 0.6162819
0.3563893 0.6514487 0.6470358
0.5280665 0.6598722 0.6469927
0.6985465 0.7124442 0.6819127
0.7516037 0.6602344 0.6321060
0.8320746 0.6293526 0.6060314
0.8842936 0.6292897 0.6025993
0.0083267 0.7495028 0.6250492
0.1241682 0.7480002 0.6252670
0.2509639 0.7394303 0.6249141
0.3915370 0.7224081 0.6313300
0.4982299 0.7151833 0.6299680
0.6319885 0.7240608 0.6341051
0.7564813 0.7484461 0.6580528
0.8257198 0.7397236 0.6449339
0.8643899 0.6841552 0.5775471
0.0082860 0.8749992 0.6250002
0.1250057 0.8749910 0.6250008
0.2516199 0.8741354 0.6250305
0.3831666 0.8691299 0.6259205
0.5054055 0.8505673 0.6260384
0.6235563 0.8052765 0.6211876
0.7212578 0.7974946 0.6288204
0.8167230 0.8036740 0.6443917
0.9310979 0.7789646 0.6088192
0.0082859 0.9917141 0.6250000
0.1250005 0.9917138 0.6250001
0.2500779 0.9916562 0.6250058
0.3753417 0.9913604 0.6250406
0.5016626 0.9881485 0.6256078
0.6255174 0.9677103 0.6261635
0.7471839 0.9112311 0.6265828
0.7983338 0.8624080 0.6330416
0.9983673 0.8459568 0.5967579
0.0082859 0.0082867 0.7499995
0.1249999 0.0082862 0.7499998
0.2500000 0.0082861 0.7499999
0.3750000 0.0082861 0.7499999
0.5000001 0.0082861 0.7499999
0.6250001 0.0082862 0.7499998
0.7500001 0.0082871 0.7499992
0.8749999 0.0082861 0.7499999
0.9917141 0.0082859 0.7500000
0.0082901 0.1252597 0.7497872
0.1249636 0.1250980 0.7499180
0.2500055 0.1250820 0.7499519
0.3750145 0.1250832 0.7499528
0.4999994 0.1250541 0.7499641
0.6250252 0.1250614 0.7499624
0.7500725 0.1252664 0.7498811
0.8749881 0.1251156 0.7499501
0.9917108 0.1250068 0.7499970
0.0085647 0.2581616 0.7418730
0.1231359 0.2538427 0.7464501
0.2496851 0.2547905 0.7470806
0.3751884 0.2537516 0.7476522
0.5003104 0.2521535 0.7489174
0.6262357 0.2527462 0.7481214
0.7523693 0.2574901 0.7459144
0.8742248 0.2581606 0.7475026
0.9911989 0.2510422 0.7496657
0.0100983 0.3999407 0.7206354
0.1106746 0.3999543 0.7238452
0.2408816 0.3991350 0.7293130
0.3785421 0.4023520 0.7316881
0.5033677 0.3998138 0.7386681
0.6418922 0.4088029 0.7345751
0.7638380 0.4412108 0.7223682
0.8654745 0.4551776 0.7227302
0.9724829 0.4169018 0.7423577
0.0163320 0.5345258 0.6716093
0.0604695 0.5381468 0.6770673
0.2349125 0.5412728 0.7039060
0.3699209 0.5533290 0.7127281
0.5235358 0.5737655 0.7149076
0.6331860 0.5739716 0.7204981
0.7766953 0.6005552 0.7217579
0.8630404 0.6086307 0.7215645
0.9281133 0.5786127 0.7310527
0.0153335 0.6057305 0.7186729
0.0673389 0.6013288 0.6986845
0.2179729 0.6467311 0.7079854
0.3583042 0.6686397 0.7059268
0.5149240 0.6626191 0.6987172
0.6604908 0.6846959 0.7237888
0.7797583 0.7034196 0.7343202
0.8426338 0.6679682 0.7127879
0.9148946 0.6661672 0.7184999
0.0090373 0.7467139 0.7486607
0.1187987 0.7386673 0.7453852
0.2752342 0.7376187 0.7400885
0.5537241 0.6871256 0.6708297
0.4835725 0.7296521 0.7171664
0.6672568 0.7745509 0.7474958
0.7684857 0.7891619 0.7504602
0.8279044 0.7451999 0.7103004
0.8845203 0.7231014 0.6944227
0.0082934 0.8749720 0.7499956
0.1250889 0.8747649 0.7499565
0.2813371 0.8607464 0.7433051
0.5129114 0.7888424 0.7106638
0.4981360 0.8229133 0.7249479
0.6141801 0.8061218 0.7036560
0.7363797 0.8065676 0.7157942
0.8097160 0.8061138 0.7181602
0.8580527 0.7696487 0.6736505
0.0082859 0.9917141 0.7500000
0.1250174 0.9917041 0.7499971
0.2525989 0.9897842 0.7494476
0.3856883 0.9805676 0.7468094
0.5012762 0.9866282 0.7484311
0.6252903 0.9680348 0.7419514
0.7450283 0.9080262 0.7189916
0.8071092 0.8616375 0.7029868
0.9381723 0.8406925 0.6730497
0.0082859 0.0082859 0.8750000
0.1250000 0.0082859 0.8750000
0.2500000 0.0082859 0.8750000
0.3750000 0.0082859 0.8750000
0.5000000 0.0082859 0.8750000
0.6250000 0.0082859 0.8750000
0.7500000 0.0082859 0.8750000
0.8750000 0.0082859 0.8750000
0.9917141 0.0082859 0.8750000
0.0082859 0.1250009 0.8749991
0.1249999 0.1250002 0.8749998
0.2500000 0.1250002 0.8749998
0.3750000 0.1250002 0.8749999
0.5000000 0.1250000 0.8749999
0.6250001 0.1250001 0.8749999
0.7500002 0.1250007 0.8749995
0.8749999 0.1250008 0.8749996
0.9917141 0.1250001 0.8750000
0.0082874 0.2500438 0.8749269
0.1249894 0.2500239 0.8749702
0.2499974 0.2500254 0.8749712
0.3750013 0.2500182 0.8749840
0.5000003 0.2500122 0.8749897
0.6250140 0.2500337 0.8749777
0.7500407 0.2501813 0.8748767
0.8749779 0.2502847 0.8748308
0.9916928 0.2500744 0.8749693
0.0083853 0.3765990 0.8728483
0.1241781 0.3765830 0.8729402
0.2497170 0.3755423 0.8743103
0.3749715 0.3756469 0.8743473
0.5001178 0.3757606 0.8744329
0.6258457 0.3765905 0.8738081
0.7520853 0.3823640 0.8700941
0.8742907 0.3869114 0.8672013
0.9883006 0.3842274 0.8701407
0.0110083 0.5111915 0.8439813
0.1052863 0.5243231 0.8298311
0.2349264 0.5150741 0.8536991
0.3738143 0.5082878 0.8654569
0.5031212 0.5107927 0.8647539
0.6265897 0.5188004 0.8605974
0.7587535 0.5261937 0.8522534
0.8728601 0.5488927 0.8341036
0.9666517 0.5403125 0.8419934
0.0182267 0.6195983 0.8195025
0.0751593 0.6298020 0.7503029
0.1778316 0.6535640 0.7755275
0.3554758 0.6764705 0.8059700
0.5094114 0.6687438 0.8141650
0.6240711 0.6580566 0.8238596
0.7596613 0.6637079 0.8178086
0.8617629 0.6688109 0.8043296
0.9171125 0.6806445 0.7955443
0.0116808 0.7442771 0.8664085
0.1130365 0.7215901 0.8276104
0.2064535 0.7178653 0.8041958
0.3720028 0.7518406 0.7894998
0.5089200 0.7677006 0.7852764
0.6562077 0.7950343 0.8062712
0.7462276 0.7774271 0.7979737
0.8513895 0.7621708 0.7901564
0.8961486 0.7559994 0.7853857
0.0083305 0.8748474 0.8748945
0.1251116 0.8728323 0.8734573
0.2781157 0.8595940 0.8587542
0.4996190 0.7941080 0.7860742
0.5178195 0.8394226 0.8329260
0.6193645 0.8004639 0.7833281
0.7624841 0.8488575 0.8105717
0.8383168 0.8509132 0.8014069
0.9022452 0.8100817 0.7649419
0.0082859 0.9917140 0.8749999
0.1250148 0.9917004 0.8749920
0.2525987 0.9897842 0.8736991
0.3856882 0.9805678 0.8674865
0.5019482 0.9874098 0.8728117
0.6304286 0.9531416 0.8537655
0.7339364 0.8782611 0.8005645
0.8025467 0.8553520 0.7755449
0.9103747 0.8916498 0.7980393
0.0082859 0.0082859 0.9917141
0.1250000 0.0082859 0.9917141
0.2500000 0.0082859 0.9917141
0.3750000 0.0082859 0.9917141
0.5000000 0.0082859 0.9917141
0.6250000 0.0082859 0.9917141
0.7500000 0.0082859 0.9917141
0.8750000 0.0082859 0.9917141
0.9917141 0.0082859 0.9917141
0.0082859 0.1250000 0.9917141
0.1250000 0.1250000 0.9917141
0.2500000 0.1250000 0.9917141
0.3750000 0.1250000 0.9917141
0.5000000 0.1250000 0.9917141
0.6250000 0.1250000 0.9917141
0.7500000 0.1250000 0.9917141
0.8750000 0.1250000 0.9917141
0.9917141 0.1250000 0.9917141
0.0082859 0.2500000 0.9917141
0.1250000 0.2500000 0.9917141
0.2500000 0.2500000 0.9917141
0.3750000 0.2500000 0.9917141
0.5000000 0.2500000 0.9917141
0.6250000 0.2500001 0.9917141
0.7500002 0.2500008 0.9917135
0.8749999 0.2500013 0.9917131
0.9917139 0.2500010 0.9917135
0.0082898 0.3750247 0.9916797
0.1249817 0.3750524 0.9916450
0.2499926 0.3750119 0.9916995
0.3749995 0.3750023 0.9917116
0.5000007 0.3750032 0.9917110
0.6250015 0.3750064 0.9917076
0.7500134 0.3750426 0.9916643
0.8750045 0.3751222 0.9915904
0.9916657 0.3751312 0.9915849
0.0086363 0.5009329 0.9890855
0.1235361 0.5020285 0.9861332
0.2487547 0.5013748 0.9893075
0.3748013 0.5006470 0.9910649
0.5001199 0.5003790 0.9912366
0.6249495 0.5003697 0.9912213
0.7501253 0.5005126 0.9910240
0.8749495 0.5016618 0.9893032
0.9906428 0.5018981 0.9892792
0.0098375 0.6252263 0.9837533
0.1190090 0.6301590 0.9508127
0.2267061 0.6386802 0.9355910
0.3703895 0.6356682 0.9714753
0.4983205 0.6324486 0.9796605
0.6251480 0.6290786 0.9854960
0.7499545 0.6276941 0.9862300
0.8746494 0.6355586 0.9749247
0.9811593 0.6364039 0.9719136
0.0089955 0.7488989 0.9886936
0.1266627 0.7385246 0.9462045
0.2022511 0.7218213 0.8699480
0.3798172 0.7523434 0.9406595
0.4957630 0.7595324 0.9220855
0.6191108 0.7673313 0.9256497
0.7545878 0.7842481 0.9386463
0.8704798 0.7582425 0.9430097
0.9503333 0.7650082 0.9116359
0.0083085 0.8749599 0.9916616
0.1251589 0.8726379 0.9885117
0.2466941 0.8686298 0.9829091
0.3802783 0.8672385 0.9750146
0.5131621 0.8584759 0.9473804
0.6517325 0.8537368 0.8876676
0.7725568 0.8777170 0.8753394
0.8405898 0.8607380 0.8755800
0.9145401 0.8408694 0.8550732
0.0082859 0.9917140 0.9917140
0.1250004 0.9917047 0.9917065
0.2500817 0.9916433 0.9916406
0.3753043 0.9913096 0.9912951
0.5015878 0.9888614 0.9886282
0.6583298 0.9682047 0.9617226
0.7819815 0.9138584 0.8869653
0.8480328 0.9222852 0.8761905
0.9107754 0.9305922 0.8674336
