looks/recipe_reggies_portra.cube
TITLE "Fuji recipe Reggie's Portra (16 RAFs)"
LUT_3D_SIZE 33
0.0172250 0.0170061 0.0145883
0.0307279 0.0219784 0.0188129
0.0499497 0.0216242 0.0184316
0.0707382 0.0204509 0.0176460
0.0915964 0.0200096 0.0180051
0.1166489 0.0203718 0.0193619
0.1459145 0.0214954 0.0207980
0.1675075 0.0219899 0.0208345
0.1768379 0.0196694 0.0183824
0.2209173 0.0223119 0.0211937
0.3150557 0.0310383 0.0302916
0.3803974 0.0377936 0.0373586
0.4165746 0.0404897 0.0402090
0.4410150 0.0420925 0.0418937
0.4614708 0.0430596 0.0430341
0.4995877 0.0475075 0.0478032
0.5335686 0.0515242 0.0522327
0.5607893 0.0545449 0.0555767
0.5859703 0.0575495 0.0586388
0.6099327 0.0599807 0.0615399
0.6328653 0.0621208 0.0648329
0.6521066 0.0623702 0.0658682
0.6680512 0.0566964 0.0599100
0.6942354 0.0489021 0.0510956
0.7306212 0.0447026 0.0458424
0.7638422 0.0356201 0.0362322
0.7983205 0.0243073 0.0246340
0.8351381 0.0161645 0.0162715
0.8708501 0.0119235 0.0118893
0.9044577 0.0099389 0.0098665
0.9367691 0.0089284 0.0088874
0.9680065 0.0084815 0.0084683
0.9916345 0.0083405 0.0083368
0.0165955 0.0222242 0.0133462
0.0306963 0.0299782 0.0192974
0.0510633 0.0346287 0.0220165
0.0732483 0.0350774 0.0214525
0.0965793 0.0336781 0.0207280
0.1221540 0.0326559 0.0214214
0.1496217 0.0325729 0.0227134
0.1751838 0.0330801 0.0231889
0.1949696 0.0329238 0.0222991
0.2229418 0.0336796 0.0229382
0.2823349 0.0373491 0.0277989
0.3612678 0.0418727 0.0362745
0.4110757 0.0444005 0.0407644
0.4381029 0.0463284 0.0428742
0.4586172 0.0493664 0.0455785
0.4958436 0.0546218 0.0513850
0.5318533 0.0587497 0.0561907
0.5608198 0.0616143 0.0595125
0.5865800 0.0643357 0.0624287
0.6103873 0.0666483 0.0653089
0.6329774 0.0688910 0.0686947
0.6517344 0.0698964 0.0698960
0.6685960 0.0679688 0.0653959
0.6966162 0.0669598 0.0601135
0.7289689 0.0658119 0.0553141
0.7598381 0.0577943 0.0434533
0.7949947 0.0479165 0.0297542
0.8327931 0.0412166 0.0203120
0.8689947 0.0371384 0.0147474
0.9031866 0.0343491 0.0113055
0.9361503 0.0327350 0.0094255
0.9677841 0.0320497 0.0086378
0.9915611 0.0318339 0.0083904
0.0174465 0.0362855 0.0130464
0.0308203 0.0449176 0.0178000
0.0511125 0.0521401 0.0224254
0.0751698 0.0543142 0.0239729
0.0999973 0.0532769 0.0230521
0.1261143 0.0523566 0.0222674
0.1559355 0.0532545 0.0229201
0.1907160 0.0554670 0.0237066
0.2246269 0.0581142 0.0241389
0.2551640 0.0603013 0.0257396
0.2943245 0.0601986 0.0289301
0.3549377 0.0572885 0.0355166
0.3980642 0.0574909 0.0396954
0.4229308 0.0602130 0.0425972
0.4438227 0.0647977 0.0472710
0.4809625 0.0664903 0.0536947
0.5226594 0.0686575 0.0585259
0.5562865 0.0705640 0.0613239
0.5842084 0.0720126 0.0634412
0.6088876 0.0734384 0.0659188
0.6320484 0.0754486 0.0690682
0.6516338 0.0774793 0.0706217
0.6717460 0.0808101 0.0694183
0.7027854 0.0874645 0.0693871
0.7293499 0.0880802 0.0635403
0.7572719 0.0827854 0.0499851
0.7929249 0.0781100 0.0371071
0.8300888 0.0743622 0.0275674
0.8659582 0.0698470 0.0194938
0.9011147 0.0660142 0.0135501
0.9351792 0.0638655 0.0103059
0.9674230 0.0629599 0.0089464
0.9914277 0.0626609 0.0085033
0.0226366 0.0598742 0.0135225
0.0326424 0.0643153 0.0156829
0.0504603 0.0712862 0.0202726
0.0735394 0.0742550 0.0240430
0.1001727 0.0738687 0.0251643
0.1292789 0.0733104 0.0245321
0.1609157 0.0737005 0.0240952
0.1979093 0.0756942 0.0246405
0.2373577 0.0790399 0.0254269
0.2755413 0.0829218 0.0271036
0.3131430 0.0851478 0.0297493
0.3547591 0.0847617 0.0339154
0.3879058 0.0866085 0.0371495
0.4146666 0.0897074 0.0395715
0.4430269 0.0923417 0.0422944
0.4775347 0.0873007 0.0472284
0.5174810 0.0868674 0.0513371
0.5501811 0.0876002 0.0541845
0.5779675 0.0866510 0.0560477
0.6057011 0.0846711 0.0595132
0.6311216 0.0851475 0.0629312
0.6535770 0.0880840 0.0655838
0.6775424 0.0949405 0.0684088
0.7069914 0.1038983 0.0708904
0.7303568 0.1061487 0.0650114
0.7578833 0.1061608 0.0538546
0.7929316 0.1079374 0.0453757
0.8275191 0.1057471 0.0352032
0.8628520 0.1010286 0.0240374
0.8991416 0.0972985 0.0158102
0.9342251 0.0952556 0.0113426
0.9670056 0.0943358 0.0093938
0.9912235 0.0939939 0.0087108
0.0303285 0.0900320 0.0169742
0.0413569 0.0927596 0.0187981
0.0571472 0.0987773 0.0220342
0.0751752 0.0993490 0.0239329
0.0990970 0.0979598 0.0258849
0.1293455 0.0967946 0.0269296
0.1632695 0.0951697 0.0267261
0.2003568 0.0960083 0.0274601
0.2422196 0.0989715 0.0289174
0.2862035 0.1033136 0.0304809
0.3265570 0.1074412 0.0316347
0.3641706 0.1107342 0.0333164
0.3986430 0.1143904 0.0361699
0.4316165 0.1182288 0.0388329
0.4569867 0.1194555 0.0384158
0.4849524 0.1182140 0.0372641
0.5171078 0.1203158 0.0375661
0.5416875 0.1208936 0.0399935
0.5679860 0.1195161 0.0420761
0.6025175 0.1155202 0.0480777
0.6307914 0.1131696 0.0521776
0.6559641 0.1136764 0.0555647
0.6838607 0.1167474 0.0617963
0.7107404 0.1210219 0.0643105
0.7341206 0.1244522 0.0603655
0.7624924 0.1294060 0.0545960
0.7942701 0.1336675 0.0492702
0.8263873 0.1327494 0.0386428
0.8615448 0.1298787 0.0263813
0.8982406 0.1277141 0.0174358
0.9335970 0.1264111 0.0124028
0.9665518 0.1256903 0.0100205
0.9908928 0.1253528 0.0090804
0.0433982 0.1367532 0.0258033
0.0595447 0.1391405 0.0285669
0.0717941 0.1371744 0.0292558
0.0809652 0.1270755 0.0251440
0.0997380 0.1240677 0.0247496
0.1267770 0.1235428 0.0268139
0.1608011 0.1216737 0.0284263
0.1994840 0.1207683 0.0298033
0.2416116 0.1205499 0.0314441
0.2910621 0.1247617 0.0338973
0.3347009 0.1305443 0.0355526
0.3738617 0.1335944 0.0356328
0.4112211 0.1375710 0.0374881
0.4464609 0.1411433 0.0400596
0.4739458 0.1417546 0.0399665
0.5029367 0.1423379 0.0375178
0.5250273 0.1420997 0.0343648
0.5415124 0.1442055 0.0333869
0.5686256 0.1525395 0.0353565
0.6061935 0.1612273 0.0406242
0.6312764 0.1604058 0.0427205
0.6541612 0.1556872 0.0439917
0.6837584 0.1491047 0.0503990
0.7124857 0.1458956 0.0524897
0.7401704 0.1489290 0.0512008
0.7696273 0.1547714 0.0502231
0.7979880 0.1577233 0.0459663
0.8283904 0.1581345 0.0365478
0.8627747 0.1580205 0.0261948
0.8985085 0.1577269 0.0182546
0.9332439 0.1573659 0.0134571
0.9659956 0.1569591 0.0108728
0.9904124 0.1566492 0.0096137
0.0463281 0.1697883 0.0259481
0.0631263 0.1654820 0.0287773
0.0736165 0.1540796 0.0273716
0.0799301 0.1414142 0.0216586
0.0999330 0.1458578 0.0222812
0.1281078 0.1541020 0.0262586
0.1593716 0.1548834 0.0302011
0.1961416 0.1510270 0.0325765
0.2386796 0.1490246 0.0343559
0.2886615 0.1525189 0.0367968
0.3330542 0.1566318 0.0396630
0.3734802 0.1573641 0.0395336
0.4126116 0.1632084 0.0410082
0.4501737 0.1661219 0.0425682
0.4863187 0.1672180 0.0433980
0.5219915 0.1674281 0.0429575
0.5408041 0.1610532 0.0395540
0.5575209 0.1618685 0.0376137
0.5829163 0.1736297 0.0403346
0.6143141 0.1881487 0.0442742
0.6325223 0.1927671 0.0440216
0.6519288 0.1932362 0.0429943
0.6806103 0.1892683 0.0442418
0.7126126 0.1843660 0.0428708
0.7453433 0.1849029 0.0409101
0.7750927 0.1857547 0.0405536
0.8027021 0.1848504 0.0379243
0.8323965 0.1854312 0.0319415
0.8650996 0.1867888 0.0247759
0.8991456 0.1876183 0.0185087
0.9329122 0.1880388 0.0144645
0.9654028 0.1879611 0.0117445
0.9899372 0.1877626 0.0101222
0.0368911 0.1954942 0.0203861
0.0542572 0.1832860 0.0210850
0.0682320 0.1639653 0.0185460
0.0784430 0.1530553 0.0162219
0.0973884 0.1608309 0.0184331
0.1275448 0.1794041 0.0241503
0.1593643 0.1918222 0.0292074
0.1968048 0.1916894 0.0334430
0.2451153 0.1919065 0.0381045
0.2859577 0.1921165 0.0409959
0.3280927 0.1890810 0.0437195
0.3691511 0.1895920 0.0452851
0.4046822 0.1955110 0.0464684
0.4420558 0.1937220 0.0447616
0.4830347 0.1902345 0.0435492
0.5234079 0.1893876 0.0439121
0.5557079 0.1863835 0.0443813
0.5825971 0.1873145 0.0452795
0.6047229 0.1911973 0.0463602
0.6251135 0.2012026 0.0499222
0.6392664 0.2121503 0.0539036
0.6581933 0.2233939 0.0547187
0.6862875 0.2298355 0.0481719
0.7203231 0.2334452 0.0404813
0.7515357 0.2336386 0.0362229
0.7784262 0.2271353 0.0337596
0.8060634 0.2194536 0.0312246
0.8356860 0.2168248 0.0273414
0.8672753 0.2173907 0.0223986
0.9000662 0.2180041 0.0180982
0.9328960 0.2184838 0.0148829
0.9651380 0.2186818 0.0121184
0.9897351 0.2187146 0.0103324
0.0249888 0.2263376 0.0143456
0.0450440 0.2111208 0.0137287
0.0666472 0.1919905 0.0130290
0.0840170 0.1799874 0.0136193
0.1002972 0.1804876 0.0159774
0.1241610 0.1963631 0.0203404
0.1560513 0.2183426 0.0248469
0.1942943 0.2301621 0.0297242
0.2406299 0.2269080 0.0365603
0.2803794 0.2240574 0.0435714
0.3243249 0.2291230 0.0496459
0.3657959 0.2339951 0.0538432
0.3970303 0.2293890 0.0526605
0.4330361 0.2208792 0.0489530
0.4778176 0.2122546 0.0453810
0.5269868 0.2153430 0.0471091
0.5781242 0.2243957 0.0521386
0.6103272 0.2244400 0.0533725
0.6235511 0.2176235 0.0505074
0.6396928 0.2224542 0.0542544
0.6569823 0.2361207 0.0639109
0.6753610 0.2491267 0.0646368
0.7036906 0.2628794 0.0567363
0.7356999 0.2743165 0.0509253
0.7581379 0.2747842 0.0451853
0.7789009 0.2671064 0.0366462
0.8058996 0.2589883 0.0285224
0.8371084 0.2546755 0.0234333
0.8689680 0.2529971 0.0197238
0.9009693 0.2509655 0.0169434
0.9332790 0.2498335 0.0142450
0.9654003 0.2496869 0.0116738
0.9899292 0.2497420 0.0100956
0.0167185 0.2624106 0.0103284
0.0397610 0.2505948 0.0103779
0.0676853 0.2345289 0.0110814
0.0914138 0.2202943 0.0127635
0.1108253 0.2131872 0.0152143
0.1288140 0.2165915 0.0172460
0.1537117 0.2339227 0.0194166
0.1856829 0.2548430 0.0233054
0.2201324 0.2595094 0.0293436
0.2635838 0.2577491 0.0387577
0.3127020 0.2628276 0.0459927
0.3552788 0.2621822 0.0512191
0.3892883 0.2616981 0.0560461
0.4252428 0.2575635 0.0578124
0.4711314 0.2448165 0.0528502
0.5189891 0.2450591 0.0538803
0.5703129 0.2509426 0.0568576
0.6102699 0.2522753 0.0570653
0.6339530 0.2534386 0.0571475
0.6579953 0.2576331 0.0597530
0.6810335 0.2653143 0.0646076
0.7007571 0.2743464 0.0661346
0.7221972 0.2855951 0.0646305
0.7475548 0.2981580 0.0646675
0.7628791 0.3004603 0.0585906
0.7795991 0.2974753 0.0460924
0.8067118 0.2962118 0.0348273
0.8377253 0.2953911 0.0282991
0.8681283 0.2918711 0.0227197
0.8998258 0.2868411 0.0175245
0.9329244 0.2831450 0.0135421
0.9656364 0.2816177 0.0108656
0.9902689 0.2811589 0.0095780
0.0124936 0.3011043 0.0089488
0.0370099 0.2933537 0.0094365
0.0680709 0.2809171 0.0105430
0.0968387 0.2668480 0.0123329
0.1210531 0.2545133 0.0139282
0.1416200 0.2489466 0.0149802
0.1621529 0.2556451 0.0165490
0.1874314 0.2748970 0.0196229
0.2131980 0.2904548 0.0236871
0.2457616 0.2984797 0.0286195
0.2911193 0.2997690 0.0348879
0.3428246 0.2877988 0.0440225
0.3853881 0.2901595 0.0512318
0.4189391 0.2884205 0.0537495
0.4517537 0.2771602 0.0508019
0.4887426 0.2697738 0.0530161
0.5410190 0.2695920 0.0551495
0.5828251 0.2730069 0.0554411
0.6180353 0.2801727 0.0573269
0.6591142 0.2868899 0.0608859
0.6904190 0.2907665 0.0630689
0.7163193 0.2971749 0.0673078
0.7380630 0.3053493 0.0713929
0.7558776 0.3133146 0.0733170
0.7666727 0.3171271 0.0672772
0.7839664 0.3225161 0.0561921
0.8116004 0.3303435 0.0475753
0.8376504 0.3314182 0.0406555
0.8644705 0.3265109 0.0314456
0.8962352 0.3204798 0.0218063
0.9309289 0.3159745 0.0147748
0.9650064 0.3136638 0.0108722
0.9902524 0.3128147 0.0092949
0.0104969 0.3382067 0.0086621
0.0352473 0.3336311 0.0092679
0.0674605 0.3251879 0.0105129
0.0989022 0.3135538 0.0119645
0.1278432 0.3005525 0.0127187
0.1540052 0.2911633 0.0137412
0.1781177 0.2909034 0.0159657
0.1996054 0.2993327 0.0191985
0.2232039 0.3161995 0.0228146
0.2498828 0.3335812 0.0253388
0.2829608 0.3364514 0.0304733
0.3295898 0.3203396 0.0395325
0.3770294 0.3147477 0.0428726
0.4141496 0.3155284 0.0398562
0.4375574 0.3083500 0.0396816
0.4672417 0.2960932 0.0456603
0.5116985 0.2937525 0.0510678
0.5449212 0.2986108 0.0524929
0.5799133 0.3050925 0.0537510
0.6336895 0.3093424 0.0570993
0.6747736 0.3121157 0.0600627
0.7147951 0.3181997 0.0678678
0.7434641 0.3238206 0.0733145
0.7599429 0.3278545 0.0751747
0.7723370 0.3332797 0.0717309
0.7908192 0.3437487 0.0652905
0.8155067 0.3555790 0.0604880
0.8363886 0.3577556 0.0531217
0.8604794 0.3540345 0.0404625
0.8924090 0.3496903 0.0268936
0.9285330 0.3464979 0.0169480
0.9639562 0.3448039 0.0115753
0.9899063 0.3441940 0.0095009
0.0094152 0.3726167 0.0085389
0.0337969 0.3701483 0.0089649
0.0659078 0.3650452 0.0098525
0.0984320 0.3571512 0.0110874
0.1310318 0.3473980 0.0123205
0.1627689 0.3378910 0.0140064
0.1898547 0.3311049 0.0171738
0.2126301 0.3303689 0.0208171
0.2353853 0.3407060 0.0226044
0.2625739 0.3613007 0.0238897
0.2883090 0.3729421 0.0268271
0.3176202 0.3632441 0.0321161
0.3611746 0.3520820 0.0365859
0.4117748 0.3536614 0.0365537
0.4401307 0.3454040 0.0367722
0.4670227 0.3359346 0.0395582
0.5048807 0.3270203 0.0464862
0.5356364 0.3217669 0.0507158
0.5642685 0.3260595 0.0532333
0.5987846 0.3327330 0.0537551
0.6341791 0.3366398 0.0544459
0.6898158 0.3388481 0.0611038
0.7346779 0.3405740 0.0669945
0.7613295 0.3431119 0.0713500
0.7802452 0.3489057 0.0734268
0.7966599 0.3591934 0.0711640
0.8173419 0.3721176 0.0684302
0.8356121 0.3765369 0.0606092
0.8584667 0.3763330 0.0458740
0.8904306 0.3757818 0.0300269
0.9272605 0.3754677 0.0184774
0.9633685 0.3755565 0.0124606
0.9895568 0.3757862 0.0103580
0.0088016 0.4053107 0.0084273
0.0327658 0.4041097 0.0086332
0.0645271 0.4014327 0.0091443
0.0975791 0.3969218 0.0100163
0.1321933 0.3904341 0.0115896
0.1666923 0.3810981 0.0150822
0.1952479 0.3688895 0.0198187
0.2206585 0.3625556 0.0234878
0.2494883 0.3705022 0.0233594
0.2757228 0.3854960 0.0233039
0.2980154 0.3995845 0.0253195
0.3206188 0.4057874 0.0286917
0.3598713 0.4138071 0.0345187
0.4161551 0.4230535 0.0419112
0.4577044 0.4063678 0.0446905
0.4881269 0.3900369 0.0422977
0.5127056 0.3750120 0.0442084
0.5368496 0.3527799 0.0474414
0.5641013 0.3431503 0.0513854
0.5863231 0.3468138 0.0510457
0.6094869 0.3538866 0.0493307
0.6527508 0.3610401 0.0505197
0.7096062 0.3643064 0.0557497
0.7566521 0.3654472 0.0629384
0.7822357 0.3678796 0.0685230
0.7997877 0.3771413 0.0704489
0.8188893 0.3887018 0.0701383
0.8361560 0.3942447 0.0625912
0.8588005 0.3978133 0.0473367
0.8906056 0.4014437 0.0309745
0.9273435 0.4045760 0.0194968
0.9632047 0.4071593 0.0143888
0.9887236 0.4083179 0.0129424
0.0085117 0.4371673 0.0083674
0.0322430 0.4366570 0.0084697
0.0637782 0.4354095 0.0087999
0.0968520 0.4328158 0.0094960
0.1312143 0.4275251 0.0108974
0.1651763 0.4180359 0.0139871
0.1957760 0.4055255 0.0181913
0.2270152 0.3991321 0.0223396
0.2629220 0.4052561 0.0245281
0.2901359 0.4124992 0.0249772
0.3112410 0.4219096 0.0267671
0.3374419 0.4383989 0.0290801
0.3704118 0.4577224 0.0312527
0.4119222 0.4699613 0.0376200
0.4630377 0.4652690 0.0457661
0.4981767 0.4401280 0.0439665
0.5144507 0.4152596 0.0409342
0.5335305 0.3933574 0.0413432
0.5643342 0.3694356 0.0456782
0.5902573 0.3633946 0.0473454
0.6103819 0.3680024 0.0475044
0.6337286 0.3779365 0.0455081
0.6791440 0.3892740 0.0459354
0.7408619 0.3949100 0.0521226
0.7769629 0.3966784 0.0585105
0.8000500 0.4035062 0.0628117
0.8194660 0.4096526 0.0631903
0.8373381 0.4144193 0.0563849
0.8609740 0.4210445 0.0429785
0.8927159 0.4285353 0.0292792
0.9285163 0.4352663 0.0212582
0.9625849 0.4398071 0.0189133
0.9865466 0.4410755 0.0181205
0.0083874 0.4686392 0.0083339
0.0320034 0.4684291 0.0083960
0.0632648 0.4678091 0.0085676
0.0957020 0.4661491 0.0089830
0.1288645 0.4621652 0.0099130
0.1621075 0.4550060 0.0117656
0.1960689 0.4466972 0.0146261
0.2328614 0.4417070 0.0184479
0.2693065 0.4404582 0.0226611
0.3005101 0.4415346 0.0262401
0.3258158 0.4475339 0.0276911
0.3524347 0.4629050 0.0261187
0.3764837 0.4770897 0.0268804
0.4131571 0.4918481 0.0346747
0.4709676 0.5076547 0.0484091
0.5053908 0.4976347 0.0486909
0.5180895 0.4653916 0.0412401
0.5368479 0.4411205 0.0375826
0.5686314 0.4098828 0.0381825
0.5979572 0.3937890 0.0407951
0.6163837 0.3909556 0.0426328
0.6331598 0.3996394 0.0403238
0.6682932 0.4164643 0.0381792
0.7255901 0.4292842 0.0413542
0.7671492 0.4329632 0.0457912
0.7952961 0.4358903 0.0485980
0.8175504 0.4381581 0.0485090
0.8387563 0.4423272 0.0435103
0.8648155 0.4503342 0.0346170
0.8968284 0.4601540 0.0278034
0.9302717 0.4682288 0.0262122
0.9609461 0.4718632 0.0262074
0.9831095 0.4724034 0.0252945
0.0083254 0.4999610 0.0083088
0.0318558 0.4998711 0.0083429
0.0628508 0.4995556 0.0084280
0.0946500 0.4986140 0.0086202
0.1269208 0.4963602 0.0090764
0.1600882 0.4925250 0.0100535
0.1952740 0.4877686 0.0118307
0.2323162 0.4824348 0.0146660
0.2692591 0.4767079 0.0185777
0.3042454 0.4730037 0.0226736
0.3372043 0.4753494 0.0243335
0.3644765 0.4833146 0.0230475
0.3879393 0.4941793 0.0260740
0.4304696 0.5151724 0.0378361
0.4863301 0.5363708 0.0519519
0.5117679 0.5378811 0.0529965
0.5255145 0.5244128 0.0480905
0.5469126 0.5057539 0.0426713
0.5728227 0.4688211 0.0345105
0.5990726 0.4417268 0.0325951
0.6194654 0.4317155 0.0332272
0.6391966 0.4376561 0.0312841
0.6684048 0.4532455 0.0288575
0.7111211 0.4673515 0.0291843
0.7552953 0.4730594 0.0314885
0.7885966 0.4740448 0.0331968
0.8145686 0.4743940 0.0333384
0.8401002 0.4779806 0.0309316
0.8694622 0.4859581 0.0284801
0.9012450 0.4945780 0.0299418
0.9309214 0.4991951 0.0325380
0.9587386 0.5008872 0.0332092
0.9798036 0.5012046 0.0319223
0.0082969 0.5312358 0.0083006
0.0317749 0.5311982 0.0083250
0.0626088 0.5310617 0.0083883
0.0940550 0.5306478 0.0084937
0.1258737 0.5296768 0.0086739
0.1585602 0.5279189 0.0091090
0.1926698 0.5249790 0.0100705
0.2282930 0.5203122 0.0118418
0.2654633 0.5143173 0.0144317
0.3039223 0.5088412 0.0170935
0.3401731 0.5053133 0.0186530
0.3677994 0.5039258 0.0203595
0.3944321 0.5125658 0.0272529
0.4379843 0.5351501 0.0411547
0.4726228 0.5448789 0.0463020
0.4889384 0.5464884 0.0446293
0.5099757 0.5494223 0.0438936
0.5370281 0.5462147 0.0420190
0.5620735 0.5266942 0.0337582
0.5910084 0.5026161 0.0272096
0.6195928 0.4876268 0.0241326
0.6458820 0.4885181 0.0219286
0.6748235 0.4987163 0.0203288
0.7098776 0.5092739 0.0202861
0.7495822 0.5149872 0.0215541
0.7836219 0.5148677 0.0223710
0.8126785 0.5140169 0.0225449
0.8420386 0.5168560 0.0228392
0.8737942 0.5226481 0.0261466
0.9036804 0.5258991 0.0316932
0.9308853 0.5267515 0.0353761
0.9577005 0.5276687 0.0361059
0.9784260 0.5282217 0.0346612
0.0082884 0.5624930 0.0082976
0.0317466 0.5624766 0.0083186
0.0625201 0.5624216 0.0083671
0.0938205 0.5622681 0.0084390
0.1253276 0.5619089 0.0085279
0.1573460 0.5611196 0.0086857
0.1902246 0.5594452 0.0091181
0.2245263 0.5564085 0.0100764
0.2611820 0.5519276 0.0116166
0.2996656 0.5458854 0.0134384
0.3350912 0.5373201 0.0154016
0.3619670 0.5289814 0.0181366
0.3821588 0.5277019 0.0228768
0.4044654 0.5337991 0.0293061
0.4246166 0.5379948 0.0307882
0.4440559 0.5440201 0.0296574
0.4722607 0.5535029 0.0294838
0.5066676 0.5591972 0.0303337
0.5430142 0.5594542 0.0296512
0.5787380 0.5531585 0.0247897
0.6150711 0.5438077 0.0194959
0.6487223 0.5418990 0.0165187
0.6809308 0.5461346 0.0155510
0.7142290 0.5508763 0.0162086
0.7483751 0.5539610 0.0170234
0.7808031 0.5537521 0.0166437
0.8120586 0.5532010 0.0162096
0.8438228 0.5544630 0.0179192
0.8756005 0.5557832 0.0233395
0.9045106 0.5550480 0.0292144
0.9316336 0.5544093 0.0325690
0.9587995 0.5551205 0.0332186
0.9798061 0.5558660 0.0319249
0.0082867 0.5937455 0.0082931
0.0317413 0.5937365 0.0083067
0.0625014 0.5937111 0.0083385
0.0937518 0.5936521 0.0083880
0.1250806 0.5935187 0.0084496
0.1566450 0.5931898 0.0085280
0.1887733 0.5923964 0.0087047
0.2220769 0.5907080 0.0092594
0.2572511 0.5874459 0.0104525
0.2936994 0.5813200 0.0120799
0.3285411 0.5710984 0.0138626
0.3569355 0.5581681 0.0162561
0.3763829 0.5470680 0.0193092
0.3919273 0.5415934 0.0224586
0.4115019 0.5441527 0.0247789
0.4357430 0.5529404 0.0252656
0.4619306 0.5623818 0.0256709
0.4964755 0.5713275 0.0280241
0.5341445 0.5797909 0.0297576
0.5690529 0.5844634 0.0255110
0.6072559 0.5859762 0.0198285
0.6463826 0.5880425 0.0166081
0.6825663 0.5895419 0.0149289
0.7164000 0.5890081 0.0144316
0.7485490 0.5888656 0.0143991
0.7798014 0.5890154 0.0137253
0.8116176 0.5893217 0.0131596
0.8443971 0.5892203 0.0148155
0.8758161 0.5878307 0.0190575
0.9050469 0.5858695 0.0233491
0.9332783 0.5849395 0.0257660
0.9614514 0.5854371 0.0262415
0.9831472 0.5861618 0.0253290
0.0082862 0.6249975 0.0082893
0.0317412 0.6249926 0.0082958
0.0625019 0.6249799 0.0083122
0.0937421 0.6249536 0.0083427
0.1250088 0.6248996 0.0083856
0.1563771 0.6247718 0.0084405
0.1880909 0.6244067 0.0085444
0.2205731 0.6233761 0.0088511
0.2542105 0.6208479 0.0095395
0.2889598 0.6153864 0.0105067
0.3231860 0.6055671 0.0118502
0.3534896 0.5917408 0.0139736
0.3783484 0.5772023 0.0170275
0.3991831 0.5663329 0.0206603
0.4190248 0.5636818 0.0233954
0.4449556 0.5702917 0.0253693
0.4737968 0.5793993 0.0293598
0.5065015 0.5889100 0.0337640
0.5346776 0.5973493 0.0331492
0.5649224 0.6059766 0.0275051
0.6032788 0.6145652 0.0220379
0.6442283 0.6209723 0.0185028
0.6818675 0.6236907 0.0152412
0.7162354 0.6233305 0.0128345
0.7487434 0.6222837 0.0119666
0.7801176 0.6221974 0.0114710
0.8117938 0.6225879 0.0111368
0.8442253 0.6221650 0.0121431
0.8755450 0.6206135 0.0145587
0.9055598 0.6189415 0.0170130
0.9350551 0.6181720 0.0184135
0.9643254 0.6184623 0.0187260
0.9867751 0.6190071 0.0182833
0.0082860 0.6562489 0.0082872
0.0317415 0.6562467 0.0082896
0.0625045 0.6562409 0.0082965
0.0937467 0.6562285 0.0083116
0.1249996 0.6562043 0.0083349
0.1562977 0.6561489 0.0083665
0.1877642 0.6559620 0.0084280
0.2196283 0.6553380 0.0085562
0.2521825 0.6536182 0.0088177
0.2855331 0.6496198 0.0092779
0.3188512 0.6420693 0.0102035
0.3508970 0.6306314 0.0119306
0.3805113 0.6165244 0.0146987
0.4056667 0.6035488 0.0182191
0.4296938 0.5971227 0.0220006
0.4588455 0.5981759 0.0267977
0.4893501 0.6028494 0.0335928
0.5147831 0.6085702 0.0365234
0.5360427 0.6160812 0.0336961
0.5645097 0.6275152 0.0276799
0.6025929 0.6397123 0.0226871
0.6432262 0.6487231 0.0192045
0.6810326 0.6535317 0.0153571
0.7157895 0.6550918 0.0120874
0.7487783 0.6549593 0.0104236
0.7805998 0.6547942 0.0098550
0.8121695 0.6549320 0.0096905
0.8439863 0.6546314 0.0101368
0.8752630 0.6536905 0.0112561
0.9059286 0.6527029 0.0124132
0.9363521 0.6522399 0.0130816
0.9664257 0.6523864 0.0132975
0.9894292 0.6527109 0.0132413
0.0082859 0.6874996 0.0082863
0.0317416 0.6874988 0.0082871
0.0625055 0.6874965 0.0082896
0.0937492 0.6874912 0.0082954
0.1249994 0.6874807 0.0083053
0.1562665 0.6874555 0.0083206
0.1875969 0.6873642 0.0083510
0.2191007 0.6870449 0.0084004
0.2509690 0.6860946 0.0084846
0.2832822 0.6837706 0.0087072
0.3159637 0.6790794 0.0092665
0.3486921 0.6711134 0.0104292
0.3801422 0.6601982 0.0124453
0.4100529 0.6490393 0.0158203
0.4413805 0.6400257 0.0212974
0.4728231 0.6331196 0.0279628
0.4980185 0.6301356 0.0328963
0.5186683 0.6323171 0.0335545
0.5394998 0.6399976 0.0305072
0.5684357 0.6534011 0.0256026
0.6061270 0.6677478 0.0222272
0.6456526 0.6782687 0.0199549
0.6821117 0.6838933 0.0161408
0.7160103 0.6861347 0.0122322
0.7487899 0.6867824 0.0099284
0.7808121 0.6868637 0.0090812
0.8123608 0.6869001 0.0089014
0.8438472 0.6867442 0.0090536
0.8751074 0.6862999 0.0094945
0.9061275 0.6858361 0.0099636
0.9370511 0.6856187 0.0102450
0.9675558 0.6856841 0.0103892
0.9908493 0.6858299 0.0104754
0.0082859 0.7187499 0.0082860
0.0317416 0.7187496 0.0082862
0.0625056 0.7187489 0.0082870
0.0937498 0.7187470 0.0082888
0.1249998 0.7187432 0.0082922
0.1562552 0.7187332 0.0082981
0.1875302 0.7186952 0.0083105
0.2188694 0.7185586 0.0083298
0.2503652 0.7181337 0.0083578
0.2821146 0.7170230 0.0084595
0.3142343 0.7145466 0.0087489
0.3465770 0.7099765 0.0094036
0.3789463 0.7032282 0.0108124
0.4123989 0.6945869 0.0138401
0.4466698 0.6838754 0.0188525
0.4764658 0.6731929 0.0238874
0.5000505 0.6674584 0.0265206
0.5224107 0.6683915 0.0265426
0.5463415 0.6753711 0.0246577
0.5768682 0.6879708 0.0223458
0.6135430 0.7011896 0.0214418
0.6500223 0.7101756 0.0198475
0.6837670 0.7147980 0.0158094
0.7164976 0.7170388 0.0118901
0.7489218 0.7180820 0.0096565
0.7808703 0.7184446 0.0087767
0.8124037 0.7185162 0.0085712
0.8437683 0.7184557 0.0086002
0.8750290 0.7182806 0.0087417
0.9062088 0.7180954 0.0089063
0.9373552 0.7180108 0.0090309
0.9680464 0.7180395 0.0091388
0.9914603 0.7181002 0.0092363
0.0082859 0.7500000 0.0082859
0.0317416 0.7499999 0.0082860
0.0625056 0.7499997 0.0082861
0.0937500 0.7499992 0.0082866
0.1250001 0.7499980 0.0082875
