looks/recipe_trix400.cube
TITLE "Fuji recipe Tri-X 400 (16 RAFs)"
LUT_3D_SIZE 33
0.0788658 0.0788658 0.0788658
0.0878247 0.0878247 0.0878247
0.0948095 0.0948095 0.0948095
0.1007293 0.1007293 0.1007293
0.1053175 0.1053175 0.1053175
0.1111589 0.1111589 0.1111589
0.1174469 0.1174469 0.1174469
0.1237017 0.1237017 0.1237017
0.1302512 0.1302512 0.1302512
0.1461801 0.1461801 0.1461801
0.1727935 0.1727935 0.1727935
0.1871924 0.1871924 0.1871924
0.2014103 0.2014103 0.2014103
0.2140948 0.2140948 0.2140948
0.2247813 0.2247813 0.2247813
0.2347844 0.2347844 0.2347844
0.2406021 0.2406021 0.2406021
0.2378251 0.2378251 0.2378251
0.2343326 0.2343326 0.2343326
0.2375983 0.2375983 0.2375983
0.2374379 0.2374379 0.2374379
0.2366629 0.2366629 0.2366629
0.2400998 0.2400998 0.2400998
0.2473633 0.2473633 0.2473633
0.2565462 0.2565462 0.2565462
0.2664937 0.2664937 0.2664937
0.2767374 0.2767374 0.2767374
0.2870810 0.2870810 0.2870810
0.2973965 0.2973965 0.2973965
0.3077115 0.3077115 0.3077115
0.3180633 0.3180633 0.3180633
0.3282894 0.3282894 0.3282894
0.3360987 0.3360987 0.3360987
0.0857334 0.0857334 0.0857334
0.0972266 0.0972266 0.0972266
0.1081034 0.1081034 0.1081034
0.1149934 0.1149934 0.1149934
0.1198463 0.1198463 0.1198463
0.1243478 0.1243478 0.1243478
0.1285968 0.1285968 0.1285968
0.1339159 0.1339159 0.1339159
0.1436718 0.1436718 0.1436718
0.1640424 0.1640424 0.1640424
0.1822093 0.1822093 0.1822093
0.1924383 0.1924383 0.1924383
0.2069931 0.2069931 0.2069931
0.2198036 0.2198036 0.2198036
0.2301353 0.2301353 0.2301353
0.2400864 0.2400864 0.2400864
0.2464806 0.2464806 0.2464806
0.2459468 0.2459468 0.2459468
0.2470564 0.2470564 0.2470564
0.2506316 0.2506316 0.2506316
0.2486320 0.2486320 0.2486320
0.2468498 0.2468498 0.2468498
0.2500881 0.2500881 0.2500881
0.2568462 0.2568462 0.2568462
0.2653424 0.2653424 0.2653424
0.2748667 0.2748667 0.2748667
0.2849442 0.2849442 0.2849442
0.2952196 0.2952196 0.2952196
0.3054261 0.3054261 0.3054261
0.3156325 0.3156325 0.3156325
0.3259198 0.3259198 0.3259198
0.3361186 0.3361186 0.3361186
0.3439196 0.3439196 0.3439196
0.0972543 0.0972543 0.0972543
0.1126595 0.1126595 0.1126595
0.1263876 0.1263876 0.1263876
0.1334507 0.1334507 0.1334507
0.1382015 0.1382015 0.1382015
0.1432892 0.1432892 0.1432892
0.1489958 0.1489958 0.1489958
0.1561892 0.1561892 0.1561892
0.1649632 0.1649632 0.1649632
0.1773987 0.1773987 0.1773987
0.1877672 0.1877672 0.1877672
0.1979010 0.1979010 0.1979010
0.2114260 0.2114260 0.2114260
0.2224020 0.2224020 0.2224020
0.2313803 0.2313803 0.2313803
0.2411048 0.2411048 0.2411048
0.2493429 0.2493429 0.2493429
0.2538058 0.2538058 0.2538058
0.2614214 0.2614214 0.2614214
0.2637450 0.2637450 0.2637450
0.2605945 0.2605945 0.2605945
0.2604906 0.2604906 0.2604906
0.2642504 0.2642504 0.2642504
0.2696208 0.2696208 0.2696208
0.2770466 0.2770466 0.2770466
0.2859999 0.2859999 0.2859999
0.2958283 0.2958283 0.2958283
0.3060035 0.3060035 0.3060035
0.3160242 0.3160242 0.3160242
0.3260462 0.3260462 0.3260462
0.3362291 0.3362291 0.3362291
0.3463865 0.3463865 0.3463865
0.3541762 0.3541762 0.3541762
0.1171115 0.1171115 0.1171115
0.1295234 0.1295234 0.1295234
0.1409658 0.1409658 0.1409658
0.1486695 0.1486695 0.1486695
0.1539711 0.1539711 0.1539711
0.1588659 0.1588659 0.1588659
0.1650103 0.1650103 0.1650103
0.1729680 0.1729680 0.1729680
0.1821370 0.1821370 0.1821370
0.1912948 0.1912948 0.1912948
0.1997726 0.1997726 0.1997726
0.2114160 0.2114160 0.2114160
0.2192078 0.2192078 0.2192078
0.2252510 0.2252510 0.2252510
0.2325551 0.2325551 0.2325551
0.2403352 0.2403352 0.2403352
0.2486293 0.2486293 0.2486293
0.2579934 0.2579934 0.2579934
0.2689092 0.2689092 0.2689092
0.2714517 0.2714517 0.2714517
0.2708968 0.2708968 0.2708968
0.2746742 0.2746742 0.2746742
0.2780710 0.2780710 0.2780710
0.2819267 0.2819267 0.2819267
0.2887089 0.2887089 0.2887089
0.2972031 0.2972031 0.2972031
0.3068300 0.3068300 0.3068300
0.3169352 0.3169352 0.3169352
0.3267616 0.3267616 0.3267616
0.3365936 0.3365936 0.3365936
0.3466792 0.3466792 0.3466792
0.3568046 0.3568046 0.3568046
0.3645887 0.3645887 0.3645887
0.1280823 0.1280823 0.1280823
0.1389674 0.1389674 0.1389674
0.1530654 0.1530654 0.1530654
0.1627247 0.1627247 0.1627247
0.1682583 0.1682583 0.1682583
0.1718643 0.1718643 0.1718643
0.1771459 0.1771459 0.1771459
0.1853879 0.1853879 0.1853879
0.1957769 0.1957769 0.1957769
0.2062645 0.2062645 0.2062645
0.2164899 0.2164899 0.2164899
0.2271326 0.2271326 0.2271326
0.2316320 0.2316320 0.2316320
0.2363355 0.2363355 0.2363355
0.2426658 0.2426658 0.2426658
0.2465702 0.2465702 0.2465702
0.2525891 0.2525891 0.2525891
0.2640848 0.2640848 0.2640848
0.2734001 0.2734001 0.2734001
0.2768752 0.2768752 0.2768752
0.2807266 0.2807266 0.2807266
0.2858656 0.2858656 0.2858656
0.2887508 0.2887508 0.2887508
0.2926660 0.2926660 0.2926660
0.2994944 0.2994944 0.2994944
0.3078091 0.3078091 0.3078091
0.3174357 0.3174357 0.3174357
0.3275617 0.3275617 0.3275617
0.3372835 0.3372835 0.3372835
0.3470209 0.3470209 0.3470209
0.3570764 0.3570764 0.3570764
0.3672048 0.3672048 0.3672048
0.3749965 0.3749965 0.3749965
0.1280241 0.1280241 0.1280241
0.1430346 0.1430346 0.1430346
0.1637893 0.1637893 0.1637893
0.1771560 0.1771560 0.1771560
0.1831994 0.1831994 0.1831994
0.1860359 0.1860359 0.1860359
0.1888534 0.1888534 0.1888534
0.1952152 0.1952152 0.1952152
0.2065156 0.2065156 0.2065156
0.2193476 0.2193476 0.2193476
0.2291835 0.2291835 0.2291835
0.2387595 0.2387595 0.2387595
0.2446323 0.2446323 0.2446323
0.2491491 0.2491491 0.2491491
0.2553984 0.2553984 0.2553984
0.2599855 0.2599855 0.2599855
0.2671811 0.2671811 0.2671811
0.2782626 0.2782626 0.2782626
0.2834106 0.2834106 0.2834106
0.2872021 0.2872021 0.2872021
0.2939370 0.2939370 0.2939370
0.2965992 0.2965992 0.2965992
0.2982713 0.2982713 0.2982713
0.3027049 0.3027049 0.3027049
0.3094494 0.3094494 0.3094494
0.3177944 0.3177944 0.3177944
0.3277254 0.3277254 0.3277254
0.3378817 0.3378817 0.3378817
0.3475699 0.3475699 0.3475699
0.3573333 0.3573333 0.3573333
0.3674316 0.3674316 0.3674316
0.3775937 0.3775937 0.3775937
0.3854019 0.3854019 0.3854019
0.1339105 0.1339105 0.1339105
0.1538983 0.1538983 0.1538983
0.1733496 0.1733496 0.1733496
0.1881763 0.1881763 0.1881763
0.1980800 0.1980800 0.1980800
0.2022284 0.2022284 0.2022284
0.1993866 0.1993866 0.1993866
0.2011724 0.2011724 0.2011724
0.2123968 0.2123968 0.2123968
0.2289589 0.2289589 0.2289589
0.2385920 0.2385920 0.2385920
0.2502802 0.2502802 0.2502802
0.2580987 0.2580987 0.2580987
0.2619916 0.2619916 0.2619916
0.2687000 0.2687000 0.2687000
0.2758453 0.2758453 0.2758453
0.2839944 0.2839944 0.2839944
0.2944937 0.2944937 0.2944937
0.2992177 0.2992177 0.2992177
0.3046068 0.3046068 0.3046068
0.3108235 0.3108235 0.3108235
0.3107446 0.3107446 0.3107446
0.3114525 0.3114525 0.3114525
0.3154172 0.3154172 0.3154172
0.3211865 0.3211865 0.3211865
0.3289397 0.3289397 0.3289397
0.3385327 0.3385327 0.3385327
0.3482401 0.3482401 0.3482401
0.3578064 0.3578064 0.3578064
0.3676368 0.3676368 0.3676368
0.3777956 0.3777956 0.3777956
0.3879905 0.3879905 0.3879905
0.3958117 0.3958117 0.3958117
0.1446037 0.1446037 0.1446037
0.1637821 0.1637821 0.1637821
0.1791200 0.1791200 0.1791200
0.1916081 0.1916081 0.1916081
0.2065669 0.2065669 0.2065669
0.2159070 0.2159070 0.2159070
0.2143498 0.2143498 0.2143498
0.2144680 0.2144680 0.2144680
0.2214907 0.2214907 0.2214907
0.2354435 0.2354435 0.2354435
0.2456095 0.2456095 0.2456095
0.2610308 0.2610308 0.2610308
0.2706460 0.2706460 0.2706460
0.2758914 0.2758914 0.2758914
0.2826633 0.2826633 0.2826633
0.2915815 0.2915815 0.2915815
0.3008590 0.3008590 0.3008590
0.3092079 0.3092079 0.3092079
0.3171930 0.3171930 0.3171930
0.3237230 0.3237230 0.3237230
0.3248857 0.3248857 0.3248857
0.3236145 0.3236145 0.3236145
0.3262669 0.3262669 0.3262669
0.3313192 0.3313192 0.3313192
0.3367425 0.3367425 0.3367425
0.3426686 0.3426686 0.3426686
0.3501031 0.3501031 0.3501031
0.3589087 0.3589087 0.3589087
0.3682882 0.3682882 0.3682882
0.3780933 0.3780933 0.3780933
0.3882399 0.3882399 0.3882399
0.3984198 0.3984198 0.3984198
0.4062335 0.4062335 0.4062335
0.1373847 0.1373847 0.1373847
0.1536560 0.1536560 0.1536560
0.1714502 0.1714502 0.1714502
0.1890095 0.1890095 0.1890095
0.2094689 0.2094689 0.2094689
0.2246670 0.2246670 0.2246670
0.2291391 0.2291391 0.2291391
0.2306836 0.2306836 0.2306836
0.2360238 0.2360238 0.2360238
0.2474081 0.2474081 0.2474081
0.2569594 0.2569594 0.2569594
0.2691959 0.2691959 0.2691959
0.2730538 0.2730538 0.2730538
0.2813193 0.2813193 0.2813193
0.2989151 0.2989151 0.2989151
0.3093294 0.3093294 0.3093294
0.3152561 0.3152561 0.3152561
0.3259510 0.3259510 0.3259510
0.3380679 0.3380679 0.3380679
0.3400936 0.3400936 0.3400936
0.3368824 0.3368824 0.3368824
0.3379779 0.3379779 0.3379779
0.3410698 0.3410698 0.3410698
0.3455020 0.3455020 0.3455020
0.3502126 0.3502126 0.3502126
0.3549598 0.3549598 0.3549598
0.3616449 0.3616449 0.3616449
0.3704754 0.3704754 0.3704754
0.3795975 0.3795975 0.3795975
0.3890092 0.3890092 0.3890092
0.3988804 0.3988804 0.3988804
0.4089153 0.4089153 0.4089153
0.4166756 0.4166756 0.4166756
0.1255856 0.1255856 0.1255856
0.1408187 0.1408187 0.1408187
0.1625762 0.1625762 0.1625762
0.1874600 0.1874600 0.1874600
0.2112394 0.2112394 0.2112394
0.2320137 0.2320137 0.2320137
0.2463553 0.2463553 0.2463553
0.2499604 0.2499604 0.2499604
0.2506827 0.2506827 0.2506827
0.2573374 0.2573374 0.2573374
0.2708008 0.2708008 0.2708008
0.2788115 0.2788115 0.2788115
0.2773383 0.2773383 0.2773383
0.2842216 0.2842216 0.2842216
0.3041455 0.3041455 0.3041455
0.3163700 0.3163700 0.3163700
0.3269027 0.3269027 0.3269027
0.3460448 0.3460448 0.3460448
0.3604222 0.3604222 0.3604222
0.3598399 0.3598399 0.3598399
0.3572342 0.3572342 0.3572342
0.3605338 0.3605338 0.3605338
0.3595735 0.3595735 0.3595735
0.3585463 0.3585463 0.3585463
0.3607980 0.3607980 0.3607980
0.3654109 0.3654109 0.3654109
0.3730236 0.3730236 0.3730236
0.3821049 0.3821049 0.3821049
0.3909087 0.3909087 0.3909087
0.3998589 0.3998589 0.3998589
0.4094368 0.4094368 0.4094368
0.4193650 0.4193650 0.4193650
0.4271001 0.4271001 0.4271001
0.1221355 0.1221355 0.1221355
0.1364152 0.1364152 0.1364152
0.1585838 0.1585838 0.1585838
0.1843849 0.1843849 0.1843849
0.2107581 0.2107581 0.2107581
0.2362058 0.2362058 0.2362058
0.2612502 0.2612502 0.2612502
0.2759610 0.2759610 0.2759610
0.2757558 0.2757558 0.2757558
0.2745778 0.2745778 0.2745778
0.2825487 0.2825487 0.2825487
0.2883831 0.2883831 0.2883831
0.2946279 0.2946279 0.2946279
0.3023149 0.3023149 0.3023149
0.3133806 0.3133806 0.3133806
0.3225938 0.3225938 0.3225938
0.3314253 0.3314253 0.3314253
0.3523680 0.3523680 0.3523680
0.3715302 0.3715302 0.3715302
0.3762158 0.3762158 0.3762158
0.3792163 0.3792163 0.3792163
0.3799862 0.3799862 0.3799862
0.3761826 0.3761826 0.3761826
0.3717322 0.3717322 0.3717322
0.3710513 0.3710513 0.3710513
0.3755591 0.3755591 0.3755591
0.3843082 0.3843082 0.3843082
0.3933400 0.3933400 0.3933400
0.4016379 0.4016379 0.4016379
0.4102999 0.4102999 0.4102999
0.4198063 0.4198063 0.4198063
0.4297563 0.4297563 0.4297563
0.4375129 0.4375129 0.4375129
0.1257765 0.1257765 0.1257765
0.1382525 0.1382525 0.1382525
0.1574206 0.1574206 0.1574206
0.1806898 0.1806898 0.1806898
0.2077721 0.2077721 0.2077721
0.2377064 0.2377064 0.2377064
0.2650819 0.2650819 0.2650819
0.2884055 0.2884055 0.2884055
0.3041271 0.3041271 0.3041271
0.3123957 0.3123957 0.3123957
0.3118519 0.3118519 0.3118519
0.3085376 0.3085376 0.3085376
0.3102329 0.3102329 0.3102329
0.3190171 0.3190171 0.3190171
0.3259267 0.3259267 0.3259267
0.3342985 0.3342985 0.3342985
0.3392710 0.3392710 0.3392710
0.3534178 0.3534178 0.3534178
0.3703276 0.3703276 0.3703276
0.3794104 0.3794104 0.3794104
0.3883521 0.3883521 0.3883521
0.3887637 0.3887637 0.3887637
0.3857211 0.3857211 0.3857211
0.3837383 0.3837383 0.3837383
0.3841639 0.3841639 0.3841639
0.3879931 0.3879931 0.3879931
0.3952508 0.3952508 0.3952508
0.4033614 0.4033614 0.4033614
0.4114994 0.4114994 0.4114994
0.4203405 0.4203405 0.4203405
0.4300669 0.4300669 0.4300669
0.4401406 0.4401406 0.4401406
0.4479261 0.4479261 0.4479261
0.1330481 0.1330481 0.1330481
0.1435277 0.1435277 0.1435277
0.1593145 0.1593145 0.1593145
0.1793381 0.1793381 0.1793381
0.2047807 0.2047807 0.2047807
0.2343622 0.2343622 0.2343622
0.2665376 0.2665376 0.2665376
0.3011907 0.3011907 0.3011907
0.3344030 0.3344030 0.3344030
0.3474500 0.3474500 0.3474500
0.3490295 0.3490295 0.3490295
0.3455220 0.3455220 0.3455220
0.3298190 0.3298190 0.3298190
0.3256741 0.3256741 0.3256741
0.3325252 0.3325252 0.3325252
0.3416410 0.3416410 0.3416410
0.3449259 0.3449259 0.3449259
0.3555403 0.3555403 0.3555403
0.3678341 0.3678341 0.3678341
0.3768058 0.3768058 0.3768058
0.3876727 0.3876727 0.3876727
0.3896475 0.3896475 0.3896475
0.3899071 0.3899071 0.3899071
0.3962779 0.3962779 0.3962779
0.4038044 0.4038044 0.4038044
0.4058566 0.4058566 0.4058566
0.4072118 0.4072118 0.4072118
0.4126813 0.4126813 0.4126813
0.4208756 0.4208756 0.4208756
0.4302766 0.4302766 0.4302766
0.4403620 0.4403620 0.4403620
0.4505367 0.4505367 0.4505367
0.4583259 0.4583259 0.4583259
0.1419666 0.1419666 0.1419666
0.1510776 0.1510776 0.1510776
0.1644937 0.1644937 0.1644937
0.1814303 0.1814303 0.1814303
0.2040157 0.2040157 0.2040157
0.2345021 0.2345021 0.2345021
0.2734201 0.2734201 0.2734201
0.3174264 0.3174264 0.3174264
0.3504861 0.3504861 0.3504861
0.3704730 0.3704730 0.3704730
0.3813190 0.3813190 0.3813190
0.3757957 0.3757957 0.3757957
0.3529932 0.3529932 0.3529932
0.3387249 0.3387249 0.3387249
0.3468874 0.3468874 0.3468874
0.3569982 0.3569982 0.3569982
0.3595032 0.3595032 0.3595032
0.3664012 0.3664012 0.3664012
0.3746477 0.3746477 0.3746477
0.3840851 0.3840851 0.3840851
0.3937298 0.3937298 0.3937298
0.3952765 0.3952765 0.3952765
0.3964186 0.3964186 0.3964186
0.4053646 0.4053646 0.4053646
0.4160517 0.4160517 0.4160517
0.4184959 0.4184959 0.4184959
0.4185898 0.4185898 0.4185898
0.4225053 0.4225053 0.4225053
0.4305499 0.4305499 0.4305499
0.4404271 0.4404271 0.4404271
0.4507197 0.4507197 0.4507197
0.4609150 0.4609150 0.4609150
0.4687140 0.4687140 0.4687140
0.1517262 0.1517262 0.1517262
0.1601436 0.1601436 0.1601436
0.1721682 0.1721682 0.1721682
0.1871249 0.1871249 0.1871249
0.2088860 0.2088860 0.2088860
0.2413402 0.2413402 0.2413402
0.2802281 0.2802281 0.2802281
0.3200718 0.3200718 0.3200718
0.3548632 0.3548632 0.3548632
0.3841329 0.3841329 0.3841329
0.3953744 0.3953744 0.3953744
0.3912653 0.3912653 0.3912653
0.3774691 0.3774691 0.3774691
0.3648705 0.3648705 0.3648705
0.3639387 0.3639387 0.3639387
0.3735325 0.3735325 0.3735325
0.3856025 0.3856025 0.3856025
0.3918507 0.3918507 0.3918507
0.3880822 0.3880822 0.3880822
0.3916842 0.3916842 0.3916842
0.4015366 0.4015366 0.4015366
0.4043566 0.4043566 0.4043566
0.4049577 0.4049577 0.4049577
0.4104605 0.4104605 0.4104605
0.4201075 0.4201075 0.4201075
0.4248426 0.4248426 0.4248426
0.4274969 0.4274969 0.4274969
0.4325196 0.4325196 0.4325196
0.4407956 0.4407956 0.4407956
0.4507709 0.4507709 0.4507709
0.4610820 0.4610820 0.4610820
0.4712960 0.4712960 0.4712960
0.4791204 0.4791204 0.4791204
0.1619026 0.1619026 0.1619026
0.1700241 0.1700241 0.1700241
0.1814629 0.1814629 0.1814629
0.1955166 0.1955166 0.1955166
0.2147811 0.2147811 0.2147811
0.2414538 0.2414538 0.2414538
0.2735656 0.2735656 0.2735656
0.3118752 0.3118752 0.3118752
0.3559905 0.3559905 0.3559905
0.3900801 0.3900801 0.3900801
0.4068615 0.4068615 0.4068615
0.4080399 0.4080399 0.4080399
0.4001228 0.4001228 0.4001228
0.3910640 0.3910640 0.3910640
0.3821256 0.3821256 0.3821256
0.3843411 0.3843411 0.3843411
0.3996080 0.3996080 0.3996080
0.4085367 0.4085367 0.4085367
0.4032134 0.4032134 0.4032134
0.3989574 0.3989574 0.3989574
0.4045927 0.4045927 0.4045927
0.4102638 0.4102638 0.4102638
0.4131413 0.4131413 0.4131413
0.4155725 0.4155725 0.4155725
0.4216698 0.4216698 0.4216698
0.4286844 0.4286844 0.4286844
0.4350289 0.4350289 0.4350289
0.4423190 0.4423190 0.4423190
0.4513689 0.4513689 0.4513689
0.4613970 0.4613970 0.4613970
0.4716476 0.4716476 0.4716476
0.4818112 0.4818112 0.4818112
0.4895986 0.4895986 0.4895986
0.1722482 0.1722482 0.1722482
0.1802502 0.1802502 0.1802502
0.1912423 0.1912423 0.1912423
0.2038956 0.2038956 0.2038956
0.2193804 0.2193804 0.2193804
0.2392658 0.2392658 0.2392658
0.2664803 0.2664803 0.2664803
0.3057283 0.3057283 0.3057283
0.3528087 0.3528087 0.3528087
0.3914637 0.3914637 0.3914637
0.4139989 0.4139989 0.4139989
0.4233894 0.4233894 0.4233894
0.4244497 0.4244497 0.4244497
0.4225733 0.4225733 0.4225733
0.4117203 0.4117203 0.4117203
0.3971579 0.3971579 0.3971579
0.3997030 0.3997030 0.3997030
0.4065175 0.4065175 0.4065175
0.4040608 0.4040608 0.4040608
0.3991916 0.3991916 0.3991916
0.4045842 0.4045842 0.4045842
0.4130580 0.4130580 0.4130580
0.4175603 0.4175603 0.4175603
0.4201891 0.4201891 0.4201891
0.4254696 0.4254696 0.4254696
0.4339812 0.4339812 0.4339812
0.4432052 0.4432052 0.4432052
0.4523837 0.4523837 0.4523837
0.4623703 0.4623703 0.4623703
0.4725373 0.4725373 0.4725373
0.4825897 0.4825897 0.4825897
0.4925256 0.4925256 0.4925256
0.5001650 0.5001650 0.5001650
0.1826414 0.1826414 0.1826414
0.1905596 0.1905596 0.1905596
0.2011708 0.2011708 0.2011708
0.2126173 0.2126173 0.2126173
0.2255474 0.2255474 0.2255474
0.2420774 0.2420774 0.2420774
0.2667095 0.2667095 0.2667095
0.3021596 0.3021596 0.3021596
0.3438979 0.3438979 0.3438979
0.3804206 0.3804206 0.3804206
0.4048397 0.4048397 0.4048397
0.4240558 0.4240558 0.4240558
0.4371650 0.4371650 0.4371650
0.4351402 0.4351402 0.4351402
0.4235206 0.4235206 0.4235206
0.4081707 0.4081707 0.4081707
0.3968570 0.3968570 0.3968570
0.3969063 0.3969063 0.3969063
0.3977079 0.3977079 0.3977079
0.3981237 0.3981237 0.3981237
0.4052014 0.4052014 0.4052014
0.4138658 0.4138658 0.4138658
0.4198673 0.4198673 0.4198673
0.4252295 0.4252295 0.4252295
0.4326974 0.4326974 0.4326974
0.4427382 0.4427382 0.4427382
0.4529615 0.4529615 0.4529615
0.4627821 0.4627821 0.4627821
0.4732148 0.4732148 0.4732148
0.4834358 0.4834358 0.4834358
0.4933394 0.4933394 0.4933394
0.5031204 0.5031204 0.5031204
0.5106663 0.5106663 0.5106663
0.1930456 0.1930456 0.1930456
0.2009125 0.2009125 0.2009125
0.2113267 0.2113267 0.2113267
0.2222242 0.2222242 0.2222242
0.2340872 0.2340872 0.2340872
0.2486865 0.2486865 0.2486865
0.2690460 0.2690460 0.2690460
0.2965989 0.2965989 0.2965989
0.3286998 0.3286998 0.3286998
0.3591167 0.3591167 0.3591167
0.3860352 0.3860352 0.3860352
0.4129209 0.4129209 0.4129209
0.4313379 0.4313379 0.4313379
0.4326651 0.4326651 0.4326651
0.4253727 0.4253727 0.4253727
0.4156638 0.4156638 0.4156638
0.4006517 0.4006517 0.4006517
0.3954782 0.3954782 0.3954782
0.3970310 0.3970310 0.3970310
0.4000617 0.4000617 0.4000617
0.4073548 0.4073548 0.4073548
0.4160755 0.4160755 0.4160755
0.4240508 0.4240508 0.4240508
0.4322527 0.4322527 0.4322527
0.4420038 0.4420038 0.4420038
0.4529506 0.4529506 0.4529506
0.4630929 0.4630929 0.4630929
0.4730662 0.4730662 0.4730662
0.4836573 0.4836573 0.4836573
0.4938903 0.4938903 0.4938903
0.5037740 0.5037740 0.5037740
0.5135409 0.5135409 0.5135409
0.5210814 0.5210814 0.5210814
0.2034544 0.2034544 0.2034544
0.2112993 0.2112993 0.2112993
0.2216329 0.2216329 0.2216329
0.2322900 0.2322900 0.2322900
0.2435146 0.2435146 0.2435146
0.2563021 0.2563021 0.2563021
0.2721531 0.2721531 0.2721531
0.2920128 0.2920128 0.2920128
0.3152090 0.3152090 0.3152090
0.3402425 0.3402425 0.3402425
0.3671603 0.3671603 0.3671603
0.3957643 0.3957643 0.3957643
0.4197680 0.4197680 0.4197680
0.4338359 0.4338359 0.4338359
0.4373955 0.4373955 0.4373955
0.4332520 0.4332520 0.4332520
0.4201466 0.4201466 0.4201466
0.4118171 0.4118171 0.4118171
0.4098888 0.4098888 0.4098888
0.4096316 0.4096316 0.4096316
0.4141933 0.4141933 0.4141933
0.4222032 0.4222032 0.4222032
0.4313878 0.4313878 0.4313878
0.4413002 0.4413002 0.4413002
0.4519537 0.4519537 0.4519537
0.4627632 0.4627632 0.4627632
0.4729151 0.4729151 0.4729151
0.4832169 0.4832169 0.4832169
0.4937961 0.4937961 0.4937961
0.5040171 0.5040171 0.5040171
0.5139894 0.5139894 0.5139894
0.5238472 0.5238472 0.5238472
0.5314426 0.5314426 0.5314426
0.2138649 0.2138649 0.2138649
0.2216975 0.2216975 0.2216975
0.2319906 0.2319906 0.2319906
0.2425154 0.2425154 0.2425154
0.2532912 0.2532912 0.2532912
0.2647555 0.2647555 0.2647555
0.2775826 0.2775826 0.2775826
0.2924378 0.2924378 0.2924378
0.3100016 0.3100016 0.3100016
0.3308106 0.3308106 0.3308106
0.3555397 0.3555397 0.3555397
0.3847509 0.3847509 0.3847509
0.4127819 0.4127819 0.4127819
0.4357822 0.4357822 0.4357822
0.4498433 0.4498433 0.4498433
0.4480957 0.4480957 0.4480957
0.4375450 0.4375450 0.4375450
0.4316224 0.4316224 0.4316224
0.4274005 0.4274005 0.4274005
0.4241524 0.4241524 0.4241524
0.4257037 0.4257037 0.4257037
0.4318026 0.4318026 0.4318026
0.4409063 0.4409063 0.4409063
0.4512814 0.4512814 0.4512814
0.4619904 0.4619904 0.4619904
0.4724489 0.4724489 0.4724489
0.4827194 0.4827194 0.4827194
0.4932499 0.4932499 0.4932499
0.5037472 0.5037472 0.5037472
0.5139896 0.5139896 0.5139896
0.5241092 0.5241092 0.5241092
0.5341073 0.5341073 0.5341073
0.5417839 0.5417839 0.5417839
0.2242773 0.2242773 0.2242773
0.2321020 0.2321020 0.2321020
0.2423727 0.2423727 0.2423727
0.2528291 0.2528291 0.2528291
0.2633744 0.2633744 0.2633744
0.2741654 0.2741654 0.2741654
0.2855034 0.2855034 0.2855034
0.2979474 0.2979474 0.2979474
0.3125222 0.3125222 0.3125222
0.3301235 0.3301235 0.3301235
0.3513260 0.3513260 0.3513260
0.3768354 0.3768354 0.3768354
0.4046042 0.4046042 0.4046042
0.4315532 0.4315532 0.4315532
0.4476491 0.4476491 0.4476491
0.4487415 0.4487415 0.4487415
0.4449928 0.4449928 0.4449928
0.4435388 0.4435388 0.4435388
0.4395347 0.4395347 0.4395347
0.4358718 0.4358718 0.4358718
0.4368492 0.4368492 0.4368492
0.4425066 0.4425066 0.4425066
0.4512717 0.4512717 0.4512717
0.4614667 0.4614667 0.4614667
0.4719698 0.4719698 0.4719698
0.4823396 0.4823396 0.4823396
0.4927164 0.4927164 0.4927164
0.5032515 0.5032515 0.5032515
0.5137013 0.5137013 0.5137013
0.5240123 0.5240123 0.5240123
0.5342708 0.5342708 0.5342708
0.5443931 0.5443931 0.5443931
0.5521399 0.5521399 0.5521399
0.2346918 0.2346918 0.2346918
0.2425125 0.2425125 0.2425125
0.2527727 0.2527727 0.2527727
0.2632005 0.2632005 0.2632005
0.2736556 0.2736556 0.2736556
0.2841924 0.2841924 0.2841924
0.2949727 0.2949727 0.2949727
0.3063866 0.3063866 0.3063866
0.3190777 0.3190777 0.3190777
0.3337091 0.3337091 0.3337091
0.3509973 0.3509973 0.3509973
0.3719481 0.3719481 0.3719481
0.3961014 0.3961014 0.3961014
0.4191906 0.4191906 0.4191906
0.4339935 0.4339935 0.4339935
0.4407540 0.4407540 0.4407540
0.4451044 0.4451044 0.4451044
0.4469283 0.4469283 0.4469283
0.4449877 0.4449877 0.4449877
0.4435668 0.4435668 0.4435668
0.4461438 0.4461438 0.4461438
0.4526826 0.4526826 0.4526826
0.4616488 0.4616488 0.4616488
0.4717228 0.4717228 0.4717228
0.4821052 0.4821052 0.4821052
0.4924980 0.4924980 0.4924980
0.5029175 0.5029175 0.5029175
0.5134036 0.5134036 0.5134036
0.5238475 0.5238475 0.5238475
0.5342237 0.5342237 0.5342237
0.5445681 0.5445681 0.5445681
0.5547575 0.5547575 0.5547575
0.5625376 0.5625376 0.5625376
0.2451076 0.2451076 0.2451076
0.2529268 0.2529268 0.2529268
0.2631830 0.2631830 0.2631830
0.2736013 0.2736013 0.2736013
0.2840289 0.2840289 0.2840289
0.2944875 0.2944875 0.2944875
0.3050552 0.3050552 0.3050552
0.3159190 0.3159190 0.3159190
0.3273854 0.3273854 0.3273854
0.3399832 0.3399832 0.3399832
0.3543954 0.3543954 0.3543954
0.3709269 0.3709269 0.3709269
0.3892535 0.3892535 0.3892535
0.4068901 0.4068901 0.4068901
0.4211515 0.4211515 0.4211515
0.4319625 0.4319625 0.4319625
0.4403535 0.4403535 0.4403535
0.4450814 0.4450814 0.4450814
0.4469621 0.4469621 0.4469621
0.4493972 0.4493972 0.4493972
0.4545912 0.4545912 0.4545912
0.4624543 0.4624543 0.4624543
0.4719147 0.4719147 0.4719147
0.4820715 0.4820715 0.4820715
0.4924458 0.4924458 0.4924458
0.5028490 0.5028490 0.5028490
0.5132827 0.5132827 0.5132827
0.5237692 0.5237692 0.5237692
0.5342451 0.5342451 0.5342451
0.5446650 0.5446650 0.5446650
0.5550336 0.5550336 0.5550336
0.5652217 0.5652217 0.5652217
0.5729902 0.5729902 0.5729902
0.2555240 0.2555240 0.2555240
0.2633427 0.2633427 0.2633427
0.2735977 0.2735977 0.2735977
0.2840134 0.2840134 0.2840134
0.2944335 0.2944335 0.2944335
0.3048648 0.3048648 0.3048648
