looks/recipe_kodachrome2.cube
TITLE "Fuji recipe Kodachrome II (16 RAFs)"
LUT_3D_SIZE 9
0.0178734 0.0175288 0.0157086
0.0959193 0.0344079 0.0328404
0.1808405 0.0468287 0.0457501
0.4120651 0.1038663 0.1038893
0.5261796 0.1209269 0.1214032
0.6287606 0.1440199 0.1460353
0.7292646 0.0865313 0.0872709
0.8707685 0.0152669 0.0152658
0.9916351 0.0083937 0.0083903
0.0346806 0.0868777 0.0233105
0.1035330 0.1007767 0.0414209
0.2441326 0.1228227 0.0653571
0.3956513 0.1600007 0.0944360
0.5163707 0.1786212 0.1078156
0.6294753 0.1725049 0.1148014
0.7355017 0.1769503 0.1137841
0.8621483 0.1439692 0.0412263
0.9904799 0.1264679 0.0104837
0.0271742 0.2240504 0.0185031
0.1092086 0.1776407 0.0337427
0.2291869 0.2246080 0.0700439
0.4038351 0.2654603 0.1111952
0.5955832 0.2902981 0.1411933
0.6776793 0.3036851 0.1439193
0.7635003 0.2985534 0.0802383
0.8707724 0.2578327 0.0300737
0.9901186 0.2509758 0.0115357
0.0095664 0.3725725 0.0088251
0.1344091 0.3464368 0.0203245
0.2608566 0.3471888 0.0714843
0.3758962 0.3884154 0.0822940
0.5397689 0.3725646 0.1254856
0.6648592 0.3968182 0.1423829
0.7897726 0.4093879 0.1550712
0.8751764 0.3982372 0.0619864
0.9912283 0.3758250 0.0098168
0.0083220 0.4999679 0.0083119
0.1280753 0.4965940 0.0104059
0.2815975 0.4799750 0.0413976
0.4117091 0.5023146 0.0904814
0.5102949 0.5117449 0.0726652
0.6398773 0.4806444 0.0750394
0.7712908 0.4991267 0.0572515
0.8755305 0.5006696 0.0314583
0.9880597 0.5045277 0.0243241
0.0082875 0.6249976 0.0082900
0.1250558 0.6249059 0.0084252
0.2557778 0.6217700 0.0130145
0.3971982 0.5960651 0.0487864
0.5085961 0.5993379 0.0900709
0.6105831 0.6186609 0.0388295
0.7501989 0.6237257 0.0139979
0.8754784 0.6245198 0.0126318
0.9901933 0.6244526 0.0149674
0.0082859 0.7500000 0.0082859
0.1250006 0.7499983 0.0082878
0.2501310 0.7498483 0.0083793
0.3791919 0.7439470 0.0131394
0.5051490 0.7311597 0.0276906
0.6221330 0.7434253 0.0156514
0.7498443 0.7498277 0.0086563
0.8749247 0.7499366 0.0085284
0.9916808 0.7499520 0.0084173
0.0082859 0.8750000 0.0082859
0.1250000 0.8750000 0.0082859
0.2500005 0.8749993 0.0082863
0.3750421 0.8749296 0.0083270
0.5000739 0.8745909 0.0085328
0.6249676 0.8748514 0.0083841
0.7499957 0.8749577 0.0083592
0.8749389 0.8748991 0.0084728
0.9916894 0.8749792 0.0083279
0.0082859 0.9917141 0.0082859
0.1250000 0.9917141 0.0082859
0.2500000 0.9917141 0.0082859
0.3750000 0.9917141 0.0082859
0.5000000 0.9917139 0.0082860
0.6250000 0.9917140 0.0082860
0.7499999 0.9917121 0.0082882
0.8749978 0.9917080 0.0082935
0.9917105 0.9917091 0.0082928
0.0256843 0.0509135 0.0915963
0.1298768 0.0596165 0.1082611
0.2377047 0.0612528 0.1153377
0.3639110 0.0750070 0.1296513
0.5207369 0.1016736 0.1554488
0.6382648 0.1094897 0.1655487
0.7384944 0.0877781 0.1641754
0.8680730 0.0244423 0.1336762
0.9912021 0.0092530 0.1255491
0.0366561 0.1151478 0.1295698
0.1424600 0.1487927 0.1434172
0.2704118 0.1732122 0.1662915
0.3669882 0.1723488 0.1686908
0.4997652 0.1968008 0.1956918
0.6562876 0.2333744 0.2293873
0.7482513 0.2535897 0.2503605
0.8407077 0.2229912 0.2166658
0.9769494 0.1447820 0.1429439
0.0340174 0.2159522 0.1420402
0.1353823 0.2168103 0.1361367
0.2750883 0.2711226 0.1734762
0.4206397 0.2753037 0.1791498
0.5688851 0.3067131 0.2106453
0.6860462 0.3295025 0.2527832
0.7654585 0.3298790 0.2614506
0.8483078 0.3121797 0.2540230
0.9619942 0.2759149 0.1728348
0.0115868 0.3697707 0.1280061
0.1523523 0.3420523 0.1363741
0.2605372 0.3511245 0.1582850
0.4218429 0.3928928 0.1820760
0.5546432 0.3992666 0.2107486
0.7365575 0.4479890 0.2464770
0.8178350 0.4497716 0.2587266
0.8524310 0.4161351 0.2211122
0.9826941 0.3838102 0.1455450
0.0089736 0.4997476 0.1259652
0.1233376 0.4918349 0.1526520
0.2595260 0.4624258 0.1715910
0.4163446 0.5066196 0.1787214
0.5428321 0.5291967 0.1911267
0.6634316 0.4980250 0.2260393
0.7767793 0.5209246 0.2408741
0.8781156 0.5205995 0.2176627
0.9477146 0.5546141 0.2475713
0.0084148 0.6248245 0.1251863
0.1257799 0.6196032 0.1313378
0.2492177 0.6084738 0.1515981
0.4016043 0.5896233 0.1731066
0.5365910 0.5988942 0.1813963
0.6321030 0.6291236 0.1981816
0.7537907 0.6098633 0.1738668
0.8768235 0.6189036 0.1662597
0.9673162 0.6205500 0.2028014
0.0082874 0.7499966 0.1250024
0.1250437 0.7498600 0.1251097
0.2504016 0.7481971 0.1267604
0.3779516 0.7343432 0.1402626
0.5178023 0.7075379 0.1509989
0.6278753 0.7195655 0.1617119
0.7475583 0.7423784 0.1444335
0.8609127 0.7406911 0.1512839
0.9881646 0.7470483 0.1328778
0.0082859 0.8750000 0.1250000
0.1250001 0.8749996 0.1250002
0.2500093 0.8749768 0.1250152
0.3751893 0.8742392 0.1256232
0.4998790 0.8725970 0.1269928
0.6251075 0.8731179 0.1263079
0.7493838 0.8678154 0.1335046
0.8644854 0.8576051 0.1467903
0.9838731 0.8683781 0.1354467
0.0082859 0.9917141 0.1250000
0.1250000 0.9917141 0.1250000
0.2500000 0.9917141 0.1250000
0.3750007 0.9917110 0.1250020
0.4999995 0.9916904 0.1250187
0.6249980 0.9917006 0.1250106
0.7499844 0.9913604 0.1252727
0.8743600 0.9897844 0.1268307
0.9902139 0.9896076 0.1270283
0.0592166 0.0939415 0.2567069
0.1391149 0.0841794 0.2486924
0.2473141 0.0485534 0.2441137
0.3759638 0.0427285 0.2549531
0.5105616 0.0585020 0.2752463
0.6267662 0.0263576 0.2542406
0.7509540 0.0257631 0.2545648
0.8737658 0.0145890 0.2518190
0.9915030 0.0087262 0.2500978
0.0471652 0.1596286 0.2409437
0.1540798 0.1748683 0.2434376
0.2710614 0.1884292 0.2540174
0.3776978 0.2026860 0.2756444
0.5210766 0.2318138 0.3002035
0.6394397 0.2353238 0.3033729
0.7780750 0.2635440 0.3288238
0.8610004 0.1934212 0.2808150
0.9804811 0.1442081 0.2580849
0.0467417 0.2354700 0.2651396
0.1327898 0.2572749 0.2605486
0.3159007 0.3224114 0.3112762
0.4627887 0.3539280 0.3453285
0.5359582 0.3247450 0.3232650
0.7017928 0.3633844 0.3719112
0.7824129 0.3690239 0.3696605
0.8503298 0.3709914 0.3634861
0.9415210 0.3158347 0.3098958
0.0195741 0.3659420 0.2611306
0.1475683 0.3574358 0.2778094
0.2533205 0.3731587 0.2723586
0.4548963 0.4466011 0.3339854
0.5801154 0.4364974 0.3325631
0.7344919 0.4679821 0.3398810
0.7917407 0.4658794 0.3734904
0.8618571 0.4333706 0.3632682
0.9322857 0.4280865 0.3640705
0.0104416 0.4991423 0.2509329
0.1167568 0.4833164 0.2735335
0.1983248 0.4790803 0.2864659
0.3846126 0.4985613 0.2942091
0.5646712 0.5381421 0.3125795
0.6896453 0.5417090 0.3347876
0.8164940 0.5637426 0.3509163
0.8907616 0.5819264 0.3646463
0.9508675 0.5615360 0.3164694
0.0089959 0.6241328 0.2503670
0.1237850 0.5997023 0.2623923
0.2228402 0.5662540 0.2914595
0.3329814 0.5802377 0.3095906
0.5448567 0.6168259 0.2862553
0.6568393 0.6197898 0.3299775
0.7509738 0.6026230 0.3511898
0.8454214 0.6108953 0.3570455
0.9424382 0.6375642 0.3656886
0.0082954 0.7499791 0.2500053
0.1251111 0.7488752 0.2503864
0.2505427 0.7395103 0.2542633
0.3764669 0.7030120 0.2766499
0.4659172 0.6629033 0.3272313
0.6568548 0.6943081 0.2998726
0.7037195 0.6697432 0.3420444
0.7904210 0.6945241 0.3340854
0.9553424 0.7239460 0.3078220
0.0082859 0.8750000 0.2500000
0.1250006 0.8749977 0.2500005
0.2500314 0.8748505 0.2500477
0.3767052 0.8700193 0.2522539
0.4987755 0.8390600 0.2744218
0.6202459 0.8570413 0.2619449
0.7394450 0.8137428 0.2915105
0.8008670 0.7485144 0.3487489
0.8837937 0.7838569 0.3352752
0.0082859 0.9917141 0.2500000
0.1250000 0.9917141 0.2500000
0.2500001 0.9917139 0.2500001
0.3750190 0.9916572 0.2500250
0.4999917 0.9909398 0.2503509
0.6248959 0.9912894 0.2502428
0.7497795 0.9882524 0.2516505
0.8663132 0.9652175 0.2648579
0.9708595 0.9624206 0.2665416
0.0171764 0.0303818 0.3677920
0.1353578 0.0382206 0.3701001
0.2493431 0.0342644 0.3705034
0.3929491 0.0489050 0.3848497
0.5154829 0.0660743 0.3870862
0.6311375 0.0525185 0.3900259
0.7497981 0.0157110 0.3774991
0.8748893 0.0088816 0.3750618
0.9917053 0.0083085 0.3750002
0.0410171 0.1901154 0.3485404
0.1706399 0.2226245 0.3807847
0.2699047 0.2177451 0.3799317
0.4449108 0.2589954 0.4284927
0.5796192 0.2878651 0.4530055
0.6666527 0.2891234 0.4644651
0.7684650 0.2469451 0.4290036
0.8716858 0.1387888 0.3788366
0.9903570 0.1278180 0.3753184
0.0604069 0.2766422 0.3797602
0.1442817 0.2910227 0.3799170
0.2953091 0.3237115 0.4036655
0.4216955 0.3412645 0.4263461
0.5419929 0.3536078 0.4326809
0.6529959 0.3660157 0.4324000
0.7896590 0.3880779 0.4717973
0.8686494 0.3457915 0.4225088
0.9654479 0.3067372 0.4015868
0.0416003 0.3621506 0.3962253
0.1325828 0.3803622 0.4084055
0.2768188 0.4136878 0.4183179
0.4678034 0.4734632 0.4621567
0.5823404 0.4689991 0.4624566
0.6726420 0.4622968 0.4540884
0.7770670 0.4804249 0.4746751
0.8626354 0.4829989 0.4914103
0.9229464 0.4837541 0.4795273
0.0127307 0.4974144 0.3800687
0.1262220 0.4879157 0.3734842
0.2322734 0.4827432 0.3971639
0.4031883 0.5131792 0.4113399
0.5746030 0.5549102 0.4419867
0.6789034 0.5588072 0.4647939
0.8149171 0.5831339 0.4459324
0.8639066 0.5796098 0.4742850
0.9407443 0.5461339 0.4565060
0.0085542 0.6246498 0.3749197
0.1255749 0.6124615 0.3718345
0.2193239 0.5949034 0.3703448
0.3868115 0.6022968 0.4141180
0.5382354 0.6259139 0.4115909
0.6630794 0.6345552 0.4125513
0.6555416 0.5480720 0.4102780
0.8625116 0.6498234 0.4507340
0.9220536 0.6704726 0.4690825
0.0082922 0.7499888 0.3749987
0.1250209 0.7492134 0.3749071
0.2500006 0.7460920 0.3742064
0.3832230 0.7274420 0.3811063
0.4976344 0.6812809 0.4229831
0.6237348 0.6846549 0.4180698
0.7071487 0.6809803 0.4324310
0.8009818 0.7013471 0.4546793
0.9358451 0.7073028 0.4481629
0.0082859 0.8750000 0.3750000
0.1250001 0.8749989 0.3749999
0.2500130 0.8749373 0.3749930
0.3765651 0.8716410 0.3752364
0.5049302 0.8342574 0.3876839
0.6080293 0.8019706 0.4188204
0.7237552 0.8101882 0.4109048
0.8149364 0.7782993 0.4175809
0.9202561 0.7984264 0.4063245
0.0082859 0.9917141 0.3750000
0.1250000 0.9917141 0.3750000
0.2500001 0.9917139 0.3750000
0.3750194 0.9916580 0.3750056
0.5001065 0.9907519 0.3752113
0.6247198 0.9871380 0.3769523
0.7482240 0.9842427 0.3797900
0.8690414 0.9727575 0.3785224
0.9774461 0.9698954 0.3803834
0.0087455 0.0101407 0.4994329
0.1258071 0.0116968 0.4989011
0.2502643 0.0117005 0.4987887
0.3777138 0.0157204 0.4990207
0.5026904 0.0170113 0.4992686
0.6264461 0.0168460 0.4999751
0.7498270 0.0113465 0.5002007
0.8749551 0.0086068 0.5000677
0.9917119 0.0082930 0.5000020
0.0259841 0.1765093 0.4904268
0.1443014 0.1797452 0.4807427
0.2555993 0.1784311 0.4760767
0.3984504 0.1959747 0.4982916
0.5226442 0.2015351 0.5016574
0.6542016 0.2198398 0.5147175
0.7663581 0.2192013 0.5274185
0.8724384 0.1519307 0.5097455
0.9913352 0.1259191 0.5003366
0.0687613 0.3345839 0.5020455
0.1705782 0.3278819 0.4909233
0.2823625 0.3360332 0.4886343
0.4284725 0.3734502 0.5303285
0.5492622 0.3786511 0.5394995
0.7081938 0.4140044 0.5727829
0.8050033 0.4391406 0.5967983
0.8646347 0.3653171 0.5602872
0.9865373 0.2631832 0.5024168
0.0761579 0.4083937 0.5118793
0.1469190 0.4344663 0.5306962
0.2762426 0.4324181 0.5186718
0.4383684 0.4632061 0.5328137
0.5747259 0.4880097 0.5663900
0.6788726 0.4957829 0.5668674
0.7941382 0.5062182 0.5869924
0.8605896 0.4823326 0.5626836
0.9481901 0.4511848 0.5268436
0.0348813 0.4998099 0.5234369
0.1384304 0.5051146 0.5328575
0.2963481 0.5006861 0.5127485
0.4139296 0.5426497 0.5466436
0.6039384 0.6041289 0.5926896
0.6693949 0.5744204 0.5564488
0.7715362 0.5815111 0.5517201
0.8374496 0.5618079 0.5564451
0.9159900 0.5437983 0.5484287
0.0099289 0.6238252 0.5016163
0.1275899 0.6204547 0.5037603
0.2616010 0.6068489 0.5208071
0.3737760 0.5984710 0.5408801
0.5178709 0.6162317 0.5355312
0.6762264 0.6553016 0.5479768
0.7447554 0.6501184 0.5780274
0.8472166 0.6551388 0.5294923
0.9253756 0.6997814 0.5517778
0.0082921 0.7499911 0.5000069
0.1251252 0.7498295 0.5001037
0.2512696 0.7473024 0.5014717
0.3801125 0.7349178 0.5102565
0.5256163 0.7041313 0.5117643
0.6229720 0.6923913 0.5397608
0.7341202 0.7028563 0.5296409
0.7445807 0.6402288 0.5025367
0.9157682 0.7203699 0.5378573
0.0082859 0.8750000 0.5000000
0.1250005 0.8749996 0.5000002
0.2500268 0.8749728 0.5000125
0.3755139 0.8741804 0.4999845
0.5075426 0.8545623 0.5015455
0.6247825 0.7912209 0.5182759
0.6987859 0.7512970 0.5538045
0.8201831 0.7794212 0.5340489
0.9252562 0.7679806 0.5468257
0.0082859 0.9917141 0.5000000
0.1250000 0.9917141 0.5000000
0.2500001 0.9917141 0.5000000
0.3750051 0.9917046 0.4999990
0.5001941 0.9911088 0.5000120
0.6261086 0.9810281 0.5016281
0.7408239 0.9401102 0.5169312
0.8580547 0.9512178 0.5136657
0.9524782 0.8688581 0.5184762
0.0083048 0.0083732 0.6249607
0.1250211 0.0084049 0.6249379
0.2500081 0.0084017 0.6249365
0.3750304 0.0084246 0.6249592
0.5000245 0.0084085 0.6249595
0.6250805 0.0085878 0.6249749
0.7500405 0.0085974 0.6249890
0.8749938 0.0083731 0.6250011
0.9917132 0.0082889 0.6250001
0.0109617 0.1332716 0.6216074
0.1271590 0.1358540 0.6190408
0.2514618 0.1360128 0.6206811
0.3792308 0.1386837 0.6220952
0.5013093 0.1315309 0.6232210
0.6307299 0.1402002 0.6233924
0.7534306 0.1429821 0.6245517
0.8742025 0.1361349 0.6253799
0.9915355 0.1254624 0.6250301
0.0449438 0.3171805 0.5878481
0.1418456 0.3030725 0.5866511
0.2755735 0.3213924 0.5962262
0.3983304 0.3229763 0.6015279
0.5239025 0.3172154 0.6199265
0.6534538 0.3257228 0.6224393
0.7807323 0.3791852 0.6381762
0.8666800 0.3603125 0.6412457
0.9871389 0.2591300 0.6263838
0.0857433 0.4508315 0.6057395
0.1748218 0.4622807 0.6107566
0.2937033 0.4657660 0.6129175
0.4280002 0.4727333 0.6076077
0.5498713 0.4757292 0.6292667
0.6715742 0.5152946 0.6290972
0.7840652 0.5394562 0.6629466
0.8510482 0.5262792 0.6682414
0.9707157 0.4101871 0.6358946
0.0779694 0.5232611 0.6401769
0.1506368 0.5443378 0.6390207
0.2943298 0.5523269 0.6109948
0.4201669 0.5536565 0.6225594
0.5723894 0.5922682 0.6397994
0.6678707 0.5850475 0.6532810
0.7617618 0.6017911 0.6545278
0.8349723 0.5923361 0.6560290
0.9328719 0.5537797 0.6414754
0.0211680 0.6195465 0.6309522
0.1332919 0.6110597 0.6332664
0.2564188 0.6079081 0.6278310
0.4129165 0.6369447 0.6480292
0.5350770 0.6367193 0.6392703
0.6796981 0.6775755 0.6619431
0.7327127 0.6509258 0.6311553
0.8117678 0.6457512 0.6137137
0.8887884 0.6571310 0.6056939
0.0084555 0.7497874 0.6250893
0.1255313 0.7489715 0.6252649
0.2853205 0.7382101 0.6253529
0.4111336 0.7155426 0.6248969
0.5177510 0.7129795 0.6293579
0.6244802 0.6920741 0.6221701
0.7311640 0.7093040 0.6334229
0.7869699 0.7108949 0.6509497
0.8914078 0.7244112 0.6107790
0.0082861 0.8749998 0.6250001
0.1250428 0.8749800 0.6250005
0.2526440 0.8734075 0.6250384
0.3793805 0.8711274 0.6251591
0.5093347 0.8547066 0.6280044
0.6337651 0.7952058 0.6226658
0.7004222 0.7515792 0.6267909
0.7750282 0.7612562 0.6325455
0.9089084 0.7630431 0.6069462
0.0082859 0.9917141 0.6250000
0.1250001 0.9917141 0.6250000
0.2500074 0.9917076 0.6250002
0.3750326 0.9916703 0.6250050
0.5006855 0.9899954 0.6252188
0.6262035 0.9798543 0.6247829
0.7395434 0.9194446 0.6244264
0.8042930 0.8636185 0.6282001
0.9173872 0.7850899 0.5743315
0.0082861 0.0082868 0.7499995
0.1250001 0.0082871 0.7499991
0.2500001 0.0082871 0.7499993
0.3750003 0.0082873 0.7499993
0.5000001 0.0082863 0.7499998
0.6250004 0.0082875 0.7499995
0.7500002 0.0082877 0.7499995
0.8749999 0.0082870 0.7499998
0.9917141 0.0082859 0.7500000
0.0083651 0.1252764 0.7497887
0.1250293 0.1252068 0.7498131
0.2500558 0.1252636 0.7498243
0.3750437 0.1252496 0.7498468
0.5000205 0.1250956 0.7499600
0.6250593 0.1251552 0.7499489
0.7500664 0.1254083 0.7498997
0.8749820 0.1253407 0.7499328
0.9917042 0.1250281 0.7499946
0.0128764 0.2601302 0.7419196
0.1254469 0.2573422 0.7456707
0.2512698 0.2554462 0.7464653
0.3763502 0.2555497 0.7467099
0.5010815 0.2534128 0.7483014
0.6270777 0.2573959 0.7472948
0.7526973 0.2667980 0.7459640
0.8736916 0.2649884 0.7470149
0.9907324 0.2521639 0.7496568
0.0438395 0.4239965 0.7133308
0.1431256 0.4277881 0.7179626
0.2590935 0.4143372 0.7254854
0.3823926 0.4256607 0.7241493
0.5045706 0.4089808 0.7305545
0.6529592 0.4359466 0.7292187
0.7627336 0.4864220 0.7214472
0.8546749 0.5079403 0.7327741
0.9664725 0.4232909 0.7450832
0.1024163 0.5683157 0.7003565
0.1573872 0.5734915 0.7039497
0.2903600 0.5915589 0.7136658
0.4108279 0.5635282 0.7021273
0.5252663 0.5604699 0.6934102
0.6458846 0.5866659 0.7074894
0.7614915 0.6150300 0.7177567
0.8360934 0.6307698 0.7268544
0.9081553 0.5901758 0.7348028
0.0511053 0.6177611 0.7349667
0.1554964 0.6277402 0.7303239
0.2967964 0.6516636 0.7281670
0.4246460 0.6631871 0.7068523
0.5519211 0.6614396 0.6965445
0.6601026 0.6706485 0.7054143
0.7326260 0.6673206 0.7045828
0.8091187 0.6642644 0.7052881
0.8855308 0.6667664 0.7219968
0.0105976 0.7485484 0.7497791
0.1298198 0.7449329 0.7493392
0.3345615 0.7237130 0.7254249
0.5608925 0.6787498 0.6819812
0.5148137 0.6995751 0.6990637
0.6408942 0.7101563 0.7025202
0.7490541 0.7471249 0.7282164
0.7798401 0.7068166 0.6831920
0.8629112 0.7215889 0.6794935
0.0082950 0.8749908 0.7500002
0.1251137 0.8749009 0.7499856
0.2631589 0.8677443 0.7466209
0.4269890 0.8350321 0.7316486
0.5167145 0.8253435 0.7279537
0.6204031 0.7812310 0.7014962
0.7083431 0.7538553 0.6859204
0.7726176 0.7533250 0.7036920
0.8419557 0.7455869 0.6649135
0.0082859 0.9917141 0.7500000
0.1250012 0.9917133 0.7499998
0.2501805 0.9915625 0.7499548
0.3757351 0.9908360 0.7497391
0.5007816 0.9890009 0.7492317
0.6252680 0.9777399 0.7458711
0.7423064 0.9314526 0.7321896
0.7887874 0.8283770 0.7032014
0.9063905 0.7960009 0.6387838
0.0082859 0.0082859 0.8750000
0.1250000 0.0082859 0.8750000
0.2500000 0.0082859 0.8750000
0.3750000 0.0082859 0.8750000
0.5000000 0.0082859 0.8750000
0.6250000 0.0082859 0.8750000
0.7500000 0.0082859 0.8750000
0.8750000 0.0082859 0.8750000
0.9917141 0.0082859 0.8750000
0.0082862 0.1250011 0.8749990
0.1250000 0.1250007 0.8749995
0.2500001 0.1250003 0.8749997
0.3750001 0.1250003 0.8749998
0.5000001 0.1250001 0.8749999
0.6250002 0.1250005 0.8749998
0.7500002 0.1250016 0.8749993
0.8749999 0.1250016 0.8749994
0.9917141 0.1250002 0.8749999
0.0083416 0.2501266 0.8748541
0.1250054 0.2501033 0.8749012
0.2500075 0.2500621 0.8749504
0.3750060 0.2500754 0.8749466
0.5000017 0.2500225 0.8749825
0.6250497 0.2501312 0.8749294
0.7500997 0.2506186 0.8747458
0.8749009 0.2509666 0.8746306
0.9916287 0.2502304 0.8749183
0.0109886 0.3799227 0.8705745
0.1258911 0.3797802 0.8709326
0.2506464 0.3788778 0.8723449
0.3752587 0.3769939 0.8730081
0.5003868 0.3764508 0.8736449
0.6264565 0.3802003 0.8717108
0.7529562 0.3898412 0.8662681
0.8723286 0.4023879 0.8608493
0.9833595 0.3928293 0.8669736
0.0436879 0.5305513 0.8351943
0.1412441 0.5428165 0.8243113
0.2608673 0.5350683 0.8379078
0.3831159 0.5198408 0.8521510
0.5101129 0.5273315 0.8445521
0.6370158 0.5373442 0.8346752
0.7529317 0.5379143 0.8397850
0.8598060 0.5715939 0.8194484
0.9381370 0.5674527 0.8249971
0.0802518 0.6357622 0.8195575
0.1851099 0.6622011 0.7821208
0.2722136 0.6660015 0.7831840
0.4196463 0.6842831 0.7712424
0.5319498 0.6662031 0.7767133
0.6289987 0.6566983 0.7946303
0.7414117 0.6546780 0.7975477
0.8329992 0.6711753 0.7825158
0.8924497 0.6717981 0.7954229
0.0182400 0.7463694 0.8691355
0.1514469 0.7342318 0.8454876
0.2741687 0.7275895 0.8223841
0.4524708 0.7218140 0.7747529
0.5421521 0.7272863 0.7585465
0.6546386 0.7444102 0.7649822
0.7248400 0.7413446 0.7591686
0.7992410 0.7368076 0.7577674
0.8519579 0.7363784 0.7607065
0.0084125 0.8748887 0.8749341
0.1259611 0.8738837 0.8742891
0.2608944 0.8665150 0.8675346
0.4264920 0.8350621 0.8350395
0.5148199 0.8353924 0.8383988
0.6198812 0.7548695 0.7576765
0.7037713 0.7570392 0.7445418
0.8134345 0.8075748 0.7844135
0.8384336 0.7571006 0.7267713
0.0082859 0.9917141 0.8750000
0.1250024 0.9917104 0.8749986
0.2501796 0.9915618 0.8749018
0.3757361 0.9908381 0.8744329
0.5011237 0.9887716 0.8733776
0.6266800 0.9529302 0.8534344
0.7246637 0.8584646 0.7933124
0.7630701 0.7917458 0.7442853
0.8520856 0.8036325 0.7388046
0.0082859 0.0082859 0.9917141
0.1250000 0.0082859 0.9917141
0.2500000 0.0082859 0.9917141
0.3750000 0.0082859 0.9917141
0.5000000 0.0082859 0.9917141
0.6250000 0.0082859 0.9917141
0.7500000 0.0082859 0.9917141
0.8750000 0.0082859 0.9917141
0.9917141 0.0082859 0.9917141
0.0082859 0.1250000 0.9917141
0.1250000 0.1250000 0.9917141
0.2500000 0.1250000 0.9917141
0.3750000 0.1250000 0.9917141
0.5000000 0.1250000 0.9917141
0.6250000 0.1250000 0.9917141
0.7500000 0.1250000 0.9917141
0.8750000 0.1250000 0.9917141
0.9917141 0.1250000 0.9917141
0.0082860 0.2500002 0.9917139
0.1250000 0.2500002 0.9917139
0.2500000 0.2500002 0.9917139
0.3750000 0.2500001 0.9917140
0.5000000 0.2500000 0.9917141
0.6250001 0.2500004 0.9917138
0.7500007 0.2500035 0.9917116
0.8749995 0.2500070 0.9917094
0.9917126 0.2500045 0.9917114
0.0083221 0.3750635 0.9916413
0.1250167 0.3750857 0.9916204
0.2500059 0.3750610 0.9916482
0.3750032 0.3750152 0.9916973
0.5000061 0.3750227 0.9916902
0.6250125 0.3750696 0.9916410
0.7500182 0.3750949 0.9916148
0.8749641 0.3755465 0.9912388
0.9914323 0.3756049 0.9911925
0.0107717 0.5021792 0.9879836
0.1270416 0.5044795 0.9853833
0.2500871 0.5036226 0.9869360
0.3756619 0.5021394 0.9889807
0.5002477 0.5010393 0.9898712
0.6251469 0.5005785 0.9906431
0.7500563 0.5010756 0.9900321
0.8742999 0.5043548 0.9858887
0.9879041 0.5048694 0.9852129
0.0196486 0.6280030 0.9780119
0.1528523 0.6445750 0.9238310
0.2596689 0.6527458 0.9102840
0.3897021 0.6449202 0.9411447
0.5054153 0.6378075 0.9600620
0.6247286 0.6313224 0.9750364
0.7477708 0.6305362 0.9760848
0.8678836 0.6339027 0.9661763
0.9719621 0.6363314 0.9628388
0.0131113 0.7486145 0.9863896
0.1539422 0.7398567 0.9416361
0.2731769 0.7290204 0.8833723
0.3971235 0.7438543 0.9315377
0.5320511 0.7435189 0.8680186
0.6253974 0.7475742 0.8758178
0.7425646 0.7648138 0.8942963
0.8443910 0.7466645 0.8917807
0.8960800 0.7458586 0.8546370
0.0083516 0.8749449 0.9916444
0.1260933 0.8737796 0.9900628
0.2517396 0.8692935 0.9839374
0.3796571 0.8698508 0.9829351
0.5164699 0.8502504 0.9459805
0.6963303 0.8313117 0.8705831
0.7498564 0.8061840 0.8150811
0.8057108 0.8105391 0.8151790
0.8571382 0.7899125 0.7899383
0.0082859 0.9917141 0.9917141
0.1250024 0.9917100 0.9917109
0.2500052 0.9916900 0.9916951
0.3750413 0.9916490 0.9916528
0.5007746 0.9902636 0.9902946
0.6328270 0.9542552 0.9546323
0.7482823 0.8564240 0.8548452
0.7842965 0.8185132 0.8051775
0.8514287 0.8457708 0.8193696
