looks/recipe_classic_neg_signature.cube
TITLE "Fuji recipe Classic Neg Signature (16 RAFs)"
LUT_3D_SIZE 9
0.0275585 0.0337444 0.0274570
0.1164665 0.0264134 0.0099264
0.1818102 0.0251899 0.0033498
0.3800276 0.0605751 0.0025576
0.5016268 0.0765891 0.0023274
0.6417728 0.1049932 0.0026116
0.7340550 0.0798761 0.0043559
0.8664561 0.0225042 0.0074861
0.9911312 0.0087704 0.0082634
0.0205341 0.1146179 0.0361250
0.0965164 0.1255962 0.0388022
0.2473191 0.1150592 0.0118153
0.3941418 0.1320318 0.0039536
0.5226258 0.1473519 0.0036803
0.6321349 0.1403249 0.0039772
0.7530685 0.1415876 0.0042459
0.8575116 0.1329184 0.0066976
0.9853689 0.1264740 0.0081294
0.0179064 0.2308704 0.0218308
0.0640902 0.2005527 0.0344129
0.1805290 0.2436240 0.0552893
0.3832632 0.2093998 0.0196222
0.6237957 0.2342613 0.0058789
0.7042537 0.2418633 0.0060621
0.7776933 0.2612437 0.0083816
0.8704862 0.2440268 0.0079065
0.9852613 0.2463064 0.0081719
0.0101907 0.3717003 0.0107487
0.1253313 0.3540573 0.0369886
0.1727680 0.3741293 0.0835245
0.3326044 0.4012899 0.0754989
0.5087391 0.3512727 0.0295114
0.6297992 0.3220027 0.0110181
0.8269535 0.3385543 0.0109398
0.8734818 0.3686342 0.0091116
0.9910300 0.3744961 0.0083759
0.0083439 0.4999528 0.0083292
0.1297895 0.4986794 0.0145494
0.2330047 0.4878764 0.0596924
0.3573622 0.5451538 0.1100799
0.4856415 0.5294243 0.0715652
0.6298689 0.4675747 0.0165262
0.7577435 0.4795001 0.0127624
0.8745115 0.4857915 0.0156500
0.9901718 0.4988929 0.0091235
0.0082862 0.6249989 0.0082876
0.1250752 0.6248302 0.0084475
0.2483767 0.6171821 0.0193295
0.3269969 0.5909545 0.0720893
0.4837704 0.6156462 0.0758287
0.6200817 0.6246111 0.0248477
0.7520348 0.6205638 0.0098545
0.8745436 0.6145016 0.0117558
0.9897478 0.6225845 0.0102723
0.0082859 0.7500000 0.0082859
0.1250013 0.7499971 0.0082877
0.2500680 0.7495095 0.0086170
0.3765486 0.7441980 0.0133754
0.4976159 0.7383991 0.0195998
0.6244553 0.7485927 0.0103033
0.7499209 0.7498245 0.0085841
0.8744962 0.7494032 0.0089959
0.9914910 0.7496912 0.0084922
0.0082859 0.8750000 0.0082859
0.1250000 0.8750000 0.0082859
0.2500004 0.8749986 0.0082865
0.3750166 0.8749530 0.0083104
0.5000001 0.8748825 0.0083552
0.6250075 0.8749543 0.0083333
0.7499922 0.8749314 0.0083387
0.8747787 0.8746049 0.0085890
0.9916347 0.8749211 0.0083464
0.0082859 0.9917141 0.0082859
0.1250000 0.9917141 0.0082859
0.2500000 0.9917141 0.0082859
0.3750000 0.9917141 0.0082859
0.5000001 0.9917141 0.0082859
0.6250000 0.9917141 0.0082859
0.7499999 0.9917127 0.0082866
0.8749968 0.9917060 0.0082902
0.9917130 0.9917125 0.0082868
0.0194632 0.0574185 0.1075786
0.1426087 0.0671732 0.1061634
0.2481350 0.0680761 0.1118736
0.3630996 0.0471639 0.0688289
0.5019032 0.0598630 0.0591159
0.6355379 0.0616310 0.0727685
0.7504626 0.0659541 0.0761262
0.8626710 0.0361436 0.1016634
0.9898271 0.0100372 0.1235960
0.0196684 0.1329445 0.1580871
0.1521773 0.1823331 0.1735851
0.2878085 0.1763130 0.1382749
0.3671627 0.1275128 0.0653093
0.4947170 0.1200917 0.0281967
0.6557676 0.1400179 0.0166357
0.7657675 0.1520781 0.0149408
0.8391898 0.1493278 0.0351613
0.9585748 0.1326653 0.0978603
0.0132733 0.2337601 0.1608855
0.1009128 0.2444046 0.1620921
0.2537691 0.2975646 0.1858697
0.4299442 0.2443568 0.0976225
0.5866641 0.2233952 0.0446976
0.6984283 0.2149651 0.0242245
0.7703803 0.2160124 0.0291917
0.8479741 0.1951829 0.0438753
0.9299868 0.2115018 0.0724284
0.0093040 0.3704168 0.1290494
0.1214897 0.3553366 0.1475093
0.2023413 0.3753861 0.1647282
0.3894314 0.4026648 0.1541902
0.6347604 0.3537713 0.0716589
0.7712857 0.3371823 0.0416665
0.8241680 0.3196710 0.0356965
0.8540688 0.3130100 0.0665454
0.9780708 0.3570699 0.1173182
0.0081886 0.4997369 0.1261631
0.1011946 0.4918818 0.1573695
0.1574848 0.4830133 0.1901576
0.3515019 0.5488639 0.1835465
0.5507182 0.5409476 0.1495177
0.7092623 0.4796355 0.1095401
0.7801710 0.4459547 0.0936617
0.8714662 0.4298098 0.0822123
0.9663370 0.4904090 0.1263623
0.0082771 0.6249198 0.1251131
0.1224590 0.6222588 0.1286930
0.2219531 0.6106581 0.1464002
0.3610171 0.6087464 0.1623324
0.5330202 0.6172543 0.1621864
0.6350078 0.6366410 0.1761447
0.7602454 0.5975465 0.1310382
0.8689000 0.5561154 0.1200299
0.9340905 0.5563496 0.1339421
0.0082858 0.7499993 0.1250006
0.1249780 0.7499622 0.1250370
0.2494669 0.7491422 0.1257598
0.3787258 0.7395391 0.1298976
0.5255554 0.7233000 0.1442055
0.6335821 0.7280958 0.1486905
0.7418046 0.7318739 0.1392583
0.8374895 0.7126436 0.1459968
0.9743488 0.7307879 0.1340145
0.0082859 0.8750000 0.1250000
0.1250000 0.8749999 0.1250000
0.2499985 0.8749942 0.1250035
0.3749677 0.8748596 0.1250825
0.5008368 0.8736472 0.1257044
0.6252506 0.8735996 0.1257016
0.7493526 0.8697785 0.1267272
0.8593546 0.8470736 0.1337461
0.9848990 0.8682439 0.1279805
0.0082859 0.9917141 0.1250000
0.1250000 0.9917141 0.1250000
0.2500000 0.9917141 0.1250000
0.3750000 0.9917139 0.1250001
0.4999997 0.9917114 0.1250014
0.6250004 0.9917109 0.1250012
0.7499923 0.9916146 0.1250215
0.8747737 0.9911262 0.1251320
0.9915127 0.9914210 0.1251052
0.0259685 0.0657387 0.2496412
0.1380124 0.0691720 0.2476983
0.2484908 0.0471657 0.2447758
0.3896551 0.0391794 0.2307824
0.5336555 0.0417983 0.2364787
0.6317635 0.0191465 0.2411360
0.7530919 0.0146533 0.2391297
0.8737872 0.0118127 0.2439499
0.9912999 0.0087164 0.2493266
0.0261053 0.1600440 0.2657872
0.1582859 0.1825323 0.2666865
0.2953347 0.1896408 0.2552603
0.4346793 0.1700085 0.2038154
0.5527211 0.1551604 0.1806500
0.6702843 0.1357223 0.1279295
0.7846925 0.1337103 0.1235592
0.8619733 0.1344230 0.1636857
0.9731476 0.1295881 0.2181735
0.0182484 0.2445290 0.3085572
0.1037091 0.2825502 0.3085586
0.3232023 0.3525920 0.3483505
0.4821779 0.3528909 0.3175128
0.5640960 0.2697599 0.2034559
0.7213151 0.2389613 0.1437119
0.8243770 0.2243206 0.1210374
0.8616434 0.1957577 0.0796112
0.9077480 0.2095015 0.1050388
0.0119317 0.3684597 0.2618179
0.0930432 0.3785591 0.3053767
0.1682242 0.4046749 0.3160187
0.4568177 0.4631537 0.3329062
0.6132503 0.4251388 0.2698049
0.7561200 0.3736551 0.1775914
0.7916042 0.3427624 0.1578989
0.8728302 0.3106053 0.1490126
0.9327710 0.2893339 0.1596083
0.0079992 0.4993076 0.2519234
0.0529379 0.4804994 0.3054704
0.0301176 0.4874474 0.3355920
0.3072072 0.5307897 0.3065816
0.5889090 0.5651425 0.2900390
0.7019153 0.4986693 0.2323464
0.8308039 0.4710994 0.1897061
0.8554609 0.4815492 0.2162081
0.9295114 0.4901336 0.2320979
0.0082346 0.6245415 0.2503330
0.1109150 0.6112615 0.2626927
0.1356772 0.5804220 0.2990169
0.1194417 0.5914482 0.3267032
0.4587546 0.6316501 0.3003698
0.6617664 0.6238571 0.2756419
0.7412838 0.5671919 0.2414751
0.8489371 0.5255268 0.2140921
0.8697985 0.5166757 0.2087340
0.0082856 0.7499954 0.2500022
0.1248285 0.7497064 0.2501574
0.2448496 0.7459604 0.2524393
0.3352751 0.7291267 0.2650510
0.3899896 0.6904088 0.3117345
0.6650145 0.6818528 0.2700604
0.6998706 0.6441692 0.2583960
0.7483227 0.6284136 0.2399935
0.8803790 0.6180896 0.2549501
0.0082859 0.8750000 0.2500000
0.1249999 0.8749997 0.2500001
0.2499758 0.8749678 0.2500122
0.3747168 0.8743216 0.2503393
0.4930349 0.8663084 0.2547678
0.6202771 0.8619862 0.2574997
0.7442902 0.8480927 0.2530124
0.8168781 0.7704688 0.2502873
0.9107950 0.7948143 0.2554114
0.0082859 0.9917141 0.2500000
0.1250000 0.9917141 0.2500000
0.2500000 0.9917141 0.2500000
0.3749996 0.9917118 0.2500008
0.4999876 0.9916670 0.2500226
0.6248989 0.9914780 0.2501346
0.7498520 0.9911175 0.2501538
0.8731029 0.9866220 0.2501229
0.9882402 0.9859111 0.2512524
0.0101354 0.0198549 0.3692472
0.1328338 0.0292768 0.3690138
0.2534214 0.0379171 0.3729230
0.4066195 0.0348580 0.3597873
0.5398656 0.0439021 0.3414780
0.6452010 0.0327253 0.3549562
0.7526463 0.0143918 0.3703469
0.8749457 0.0089956 0.3740624
0.9916980 0.0083046 0.3749614
0.0259088 0.1903623 0.3857388
0.1434869 0.2026838 0.3950029
0.2789281 0.2043951 0.3764168
0.4964285 0.2241136 0.3699764
0.6545971 0.1815604 0.2828518
0.7478652 0.1732035 0.2631118
0.8005185 0.1604437 0.2893540
0.8744128 0.1338060 0.3497708
0.9898604 0.1263378 0.3699464
0.0189897 0.2753635 0.4294303
0.1070752 0.2884624 0.4350923
0.2803784 0.3136743 0.4204180
0.4957407 0.3446296 0.4214942
0.5977809 0.3147949 0.3471762
0.7245712 0.2782815 0.2895734
0.8465312 0.2562572 0.2598127
0.8909693 0.2563739 0.2805879
0.9629072 0.2486906 0.2936368
0.0158976 0.3683069 0.4187307
0.0770088 0.3948609 0.4728709
0.2777794 0.4403358 0.4710436
0.4975339 0.5071900 0.5010824
0.6296163 0.4746147 0.4324326
0.7349419 0.4154753 0.3472670
0.8031696 0.3824503 0.2948132
0.8805696 0.3497351 0.2629191
0.9315220 0.3249568 0.2593119
0.0089019 0.4977738 0.3802543
0.1024633 0.4939670 0.3924103
0.1606464 0.5034760 0.4454271
0.3521765 0.5611772 0.4880661
0.6272828 0.5853279 0.4571507
0.7108238 0.5558643 0.4331952
0.7846339 0.4883715 0.3290148
0.8271088 0.4518225 0.3023842
0.8946825 0.4587125 0.3344196
0.0082766 0.6248186 0.3750644
0.1194252 0.6196206 0.3755325
0.2081936 0.6093152 0.3789423
0.3137143 0.6151002 0.4206386
0.5457297 0.6394792 0.4219458
0.6815689 0.6284733 0.4069822
0.7673967 0.5660945 0.3367859
0.8304656 0.5633267 0.3401584
0.8359325 0.5675147 0.3530520
0.0082858 0.7499982 0.3750001
0.1249293 0.7498797 0.3750085
0.2487005 0.7489205 0.3750469
0.3653200 0.7401440 0.3804263
0.4236510 0.6955885 0.4055311
0.5149949 0.6713676 0.4320771
0.7309331 0.6672360 0.3951121
0.7669438 0.6351908 0.3605914
0.8257505 0.6107146 0.3595579
0.0082859 0.8750000 0.3750000
0.1250000 0.8749999 0.3750000
0.2499971 0.8749940 0.3750003
0.3748553 0.8743928 0.3751339
0.4951327 0.8628086 0.3785184
0.5849653 0.8126864 0.3960440
0.6883146 0.7925926 0.4116168
0.8247420 0.7935640 0.3761323
0.8498822 0.6798248 0.3721773
0.0082859 0.9917141 0.3750000
0.1250000 0.9917141 0.3750000
0.2500000 0.9917141 0.3750000
0.3749998 0.9917118 0.3750003
0.4999783 0.9914902 0.3750437
0.6244873 0.9893707 0.3756266
0.7473854 0.9844593 0.3776649
0.8687351 0.9680426 0.3768792
0.9192202 0.8553609 0.3812317
0.0088925 0.0103040 0.4997206
0.1252550 0.0113202 0.4992355
0.2502038 0.0113345 0.4986892
0.3769583 0.0112147 0.4986994
0.5054118 0.0128460 0.4944400
0.6289918 0.0129221 0.4933993
0.7511864 0.0109250 0.4965948
0.8750446 0.0086414 0.4997790
0.9917102 0.0083031 0.4999929
0.0171842 0.1694012 0.5000284
0.1311117 0.1681643 0.4852964
0.2499673 0.1662226 0.4757651
0.4204116 0.1715860 0.4873649
0.5575261 0.1730466 0.4578198
0.6796382 0.1621113 0.4335500
0.7915208 0.1642718 0.4445613
0.8806357 0.1462070 0.4825767
0.9910489 0.1267905 0.4987810
0.0218397 0.3121574 0.5416684
0.1351118 0.2972805 0.5141671
0.2804030 0.3140854 0.5008572
0.4984316 0.3642097 0.5239335
0.6386543 0.3371638 0.4670209
0.7666190 0.3137551 0.4211670
0.8697355 0.3072275 0.3960479
0.9097351 0.2979912 0.4114727
0.9860791 0.2555323 0.4897543
0.0180415 0.4092910 0.5766682
0.0933540 0.4454208 0.6100910
0.2239350 0.4274994 0.5686639
0.4500771 0.4628454 0.5584216
0.6597567 0.4861387 0.5461420
0.7130329 0.4603655 0.4812294
0.8247159 0.4101892 0.4333784
0.8752834 0.3844993 0.4137651
0.9537554 0.3778874 0.4396940
0.0138867 0.4990366 0.5414240
0.0869400 0.5010770 0.5655680
0.2327089 0.5337268 0.5959206
0.4050228 0.5681449 0.6018720
0.6198510 0.5947586 0.5780420
0.6896232 0.5611705 0.5185835
0.7592372 0.5145378 0.4502165
0.8199823 0.4754396 0.4066725
0.8711089 0.4503712 0.3850586
0.0085266 0.6241677 0.5014930
0.1242177 0.6213961 0.5058244
0.2550649 0.6197789 0.5356641
0.3761666 0.6236879 0.5648592
0.4874490 0.6234488 0.5540659
0.6801540 0.6335683 0.5374482
0.7350364 0.6117405 0.5161981
0.7794321 0.5672649 0.4474518
0.8128356 0.5409994 0.4166442
0.0082873 0.7499952 0.5000050
0.1250884 0.7499350 0.5000653
0.2585163 0.7473288 0.5015054
0.3830893 0.7404014 0.5088643
0.5085717 0.7182373 0.5029683
0.5954863 0.6754817 0.5233229
0.7004669 0.6665342 0.5147601
0.7570652 0.6225002 0.4593334
0.8107951 0.6264139 0.4530787
0.0082859 0.8750000 0.5000000
0.1250026 0.8749989 0.5000004
0.2501621 0.8749103 0.5000300
0.3753183 0.8746927 0.5000802
0.5004809 0.8691711 0.5003943
0.6144544 0.8260912 0.5013915
0.6794143 0.7370560 0.5063787
0.7474361 0.7227697 0.5087274
0.8107522 0.6623237 0.4551712
0.0082859 0.9917141 0.5000000
0.1250000 0.9917141 0.5000000
0.2500004 0.9917138 0.5000001
0.3750007 0.9917129 0.5000002
0.5000170 0.9916223 0.5000044
0.6248590 0.9885234 0.5000249
0.7434197 0.9603016 0.5018913
0.8394024 0.9122309 0.5007750
0.8119059 0.6854967 0.4416937
0.0082990 0.0083861 0.6249659
0.1250058 0.0083734 0.6249433
0.2499995 0.0083690 0.6249346
0.3750434 0.0083534 0.6249611
0.5000589 0.0083747 0.6249169
0.6250559 0.0083655 0.6248897
0.7500424 0.0083643 0.6249052
0.8750057 0.0083225 0.6249673
0.9917135 0.0082889 0.6249976
0.0090504 0.1349089 0.6215208
0.1249139 0.1294188 0.6221898
0.2502634 0.1289878 0.6221943
0.3788786 0.1309363 0.6233260
0.5033456 0.1297657 0.6212566
0.6282821 0.1276855 0.6207878
0.7534361 0.1294871 0.6193333
0.8760259 0.1287832 0.6200458
0.9915895 0.1253288 0.6245890
0.0163356 0.3040602 0.6110412
0.1282994 0.2907266 0.6128690
0.2669680 0.2962007 0.6059871
0.4154842 0.3003627 0.6102257
0.5403075 0.2901227 0.6090014
0.6520976 0.2854378 0.6007347
0.7828927 0.2890386 0.5723624
0.8760915 0.2938303 0.5696224
0.9848213 0.2589218 0.6159543
0.0222286 0.4443118 0.6615927
0.1320525 0.4518028 0.6622370
0.2936775 0.4497139 0.6338220
0.4307222 0.4535888 0.6178151
0.6059425 0.4751793 0.6208882
0.7102280 0.4578555 0.5677001
0.7909740 0.4604644 0.5293469
0.8579020 0.4342146 0.5010693
0.9204525 0.4277644 0.5621551
0.0208403 0.5143906 0.6883367
0.0849641 0.5325911 0.6992460
0.2912859 0.5720828 0.6767037
0.4380285 0.5564032 0.6429530
0.5822588 0.5695794 0.6332437
0.7060050 0.5505398 0.5836325
0.7561527 0.5430135 0.5532007
0.8238501 0.5048088 0.5094139
0.8646507 0.5224210 0.5322506
0.0109923 0.6191503 0.6348837
0.1219522 0.6142970 0.6440611
0.3242411 0.6180972 0.6404392
0.4956435 0.6206567 0.6340370
0.5438325 0.6394008 0.6562685
0.6931866 0.6552706 0.6244192
0.7271876 0.6186267 0.5743546
0.7737075 0.5910517 0.5377913
0.8170120 0.5440452 0.4791245
0.0083321 0.7499005 0.6250724
0.1257564 0.7494693 0.6252227
0.3249878 0.7284757 0.6189027
0.5290729 0.6936433 0.6122372
0.5197970 0.7051556 0.6382806
0.6179534 0.6795945 0.6103439
0.7129690 0.6727755 0.5943382
0.7446339 0.6463659 0.5620432
0.7857753 0.6208591 0.5227785
0.0082859 0.8749999 0.6250001
0.1250835 0.8749642 0.6249951
0.2552896 0.8721348 0.6246058
0.3842418 0.8680712 0.6241626
0.5070987 0.8521590 0.6277506
0.6192068 0.7880899 0.6199533
0.6896538 0.7496775 0.5881183
0.7311117 0.6966959 0.5692746
0.7841192 0.6678822 0.5329322
0.0082859 0.9917141 0.6250000
0.1250002 0.9917140 0.6250000
0.2500126 0.9917039 0.6249990
0.3750242 0.9916834 0.6249990
0.5001295 0.9911581 0.6250243
0.6248788 0.9868208 0.6247781
0.7458732 0.9698300 0.6207073
0.8211979 0.8806376 0.6013566
0.8016793 0.6922579 0.5105320
0.0082859 0.0082871 0.7499993
0.1249999 0.0082863 0.7499997
0.2500000 0.0082861 0.7499998
0.3750001 0.0082861 0.7499999
0.5000001 0.0082861 0.7499998
0.6250001 0.0082860 0.7499998
0.7500001 0.0082861 0.7499998
0.8750001 0.0082861 0.7499998
0.9917141 0.0082859 0.7500000
0.0083033 0.1252480 0.7498389
0.1249783 0.1251201 0.7499391
0.2500153 0.1250760 0.7499484
0.3750352 0.1250720 0.7499554
0.5000172 0.1250317 0.7499717
0.6250125 0.1250212 0.7499791
0.7500309 0.1250618 0.7499225
0.8750010 0.1250721 0.7499175
0.9917085 0.1250126 0.7499868
0.0099939 0.2575370 0.7453991
0.1237757 0.2560457 0.7470638
0.2511159 0.2545409 0.7474825
0.3754587 0.2520100 0.7486425
0.5013823 0.2521408 0.7488944
0.6259140 0.2515593 0.7485063
0.7513585 0.2546653 0.7454295
0.8745510 0.2545233 0.7439387
0.9906261 0.2517121 0.7483090
0.0146203 0.4248779 0.7418619
0.1219752 0.4240731 0.7415028
0.2551597 0.3964021 0.7392499
0.3892133 0.4006587 0.7290116
0.5105639 0.3900021 0.7405343
0.6409569 0.3961966 0.7278161
0.7651382 0.4200327 0.6894009
0.8599274 0.4202390 0.6763967
0.9494199 0.4145885 0.6950815
0.0331359 0.5464948 0.7535046
0.1339774 0.5613869 0.7498283
0.2821956 0.5517413 0.7298325
0.4233550 0.5304517 0.6874729
0.5400926 0.5470952 0.7066050
0.6738201 0.5636058 0.6819369
0.7642616 0.5415688 0.6527387
0.8254405 0.5395848 0.6080578
0.8653051 0.5371205 0.6038622
0.0360514 0.6154066 0.7517974
0.1526332 0.6113712 0.7503817
0.3063931 0.6275021 0.7359517
0.4351605 0.6401250 0.7101023
0.5658459 0.6421906 0.6841967
0.6718358 0.6445501 0.6654717
0.7370560 0.6159612 0.6278184
0.7904175 0.5992478 0.5967641
0.8198066 0.5892431 0.5814737
0.0093397 0.7489345 0.7500394
0.1293456 0.7455249 0.7498276
0.3189850 0.7286346 0.7273514
0.4544468 0.6955698 0.7068974
0.5263825 0.6893505 0.6981814
0.6340137 0.6855838 0.6777002
0.7364069 0.6985752 0.6590494
0.7582280 0.6632791 0.6149697
0.7889721 0.6406525 0.5851610
0.0082912 0.8749943 0.7500001
0.1250825 0.8749389 0.7499831
0.2552844 0.8721333 0.7482101
0.3815234 0.8667988 0.7467504
0.5069347 0.8486613 0.7386796
0.6295944 0.8199548 0.7218730
0.6853210 0.7013661 0.6233793
0.7468323 0.7029760 0.6314451
0.7710468 0.6920901 0.6132020
0.0082859 0.9917141 0.7500000
0.1250002 0.9917140 0.7499999
0.2500126 0.9917039 0.7499957
0.3750230 0.9916723 0.7499896
0.5001066 0.9911866 0.7498426
0.6252586 0.9885917 0.7489610
0.7291820 0.9430261 0.7200282
0.8023019 0.8357629 0.6715820
0.7863479 0.7098897 0.5886251
0.0082859 0.0082859 0.8750000
0.1250000 0.0082859 0.8750000
0.2500000 0.0082859 0.8750000
0.3750000 0.0082859 0.8750000
0.5000000 0.0082859 0.8750000
0.6250000 0.0082859 0.8750000
0.7500000 0.0082859 0.8750000
0.8750000 0.0082859 0.8750000
0.9917141 0.0082859 0.8750000
0.0082860 0.1250009 0.8749993
0.1249999 0.1250006 0.8749996
0.2500000 0.1250002 0.8749999
0.3750000 0.1250001 0.8749999
0.5000000 0.1250000 0.8750000
0.6250000 0.1250000 0.8749999
0.7500001 0.1250002 0.8749998
0.8750000 0.1250002 0.8749998
0.9917141 0.1250001 0.8749999
0.0082950 0.2500809 0.8749421
0.1249949 0.2500797 0.8749520
0.2500012 0.2500266 0.8749772
0.3750052 0.2500178 0.8749838
0.5000024 0.2500059 0.8749946
0.6250075 0.2500131 0.8749847
0.7500136 0.2500729 0.8749130
0.8749865 0.2500772 0.8748972
0.9916761 0.2500640 0.8749223
0.0092035 0.3792222 0.8723707
0.1249531 0.3793164 0.8723831
0.2502348 0.3765624 0.8738463
0.3754880 0.3762006 0.8733021
0.5000938 0.3752615 0.8746845
0.6252849 0.3757119 0.8742242
0.7503940 0.3763861 0.8723237
0.8743196 0.3770056 0.8707967
0.9888250 0.3777981 0.8692903
0.0384041 0.5201899 0.8489127
0.1502469 0.5366244 0.8312831
0.2524618 0.5192480 0.8525769
0.3789303 0.5061595 0.8635300
0.5030347 0.5062484 0.8648306
0.6284191 0.5054474 0.8644536
0.7520664 0.5067566 0.8539740
0.8684694 0.5062043 0.8481004
0.9689273 0.5085642 0.8363765
0.0438410 0.6182347 0.8476378
0.2124190 0.6207970 0.7802289
0.3083428 0.6280625 0.7699152
0.4183212 0.6408710 0.8017015
0.5275845 0.6406025 0.8123360
0.6394902 0.6421981 0.8111604
0.7458219 0.6292471 0.8118363
0.8476794 0.6221367 0.7952222
0.8893804 0.6225731 0.7354028
0.0141878 0.7467533 0.8719272
0.1528114 0.7296402 0.8527979
0.2784453 0.7174157 0.8345048
0.4157326 0.7253494 0.8250356
0.5582335 0.7027251 0.7547606
0.6790088 0.7121540 0.7172277
0.7425349 0.7208661 0.7273104
0.7919636 0.6932815 0.7153762
0.8195512 0.6600488 0.6533450
0.0083171 0.8749669 0.8749839
0.1253881 0.8745302 0.8747305
0.2503726 0.8741505 0.8744864
0.3777531 0.8717953 0.8721889
0.5142137 0.8538635 0.8541650
0.6507246 0.8127400 0.8032646
0.7230478 0.7384236 0.7102786
0.7554140 0.7185900 0.6728704
0.7778845 0.6917902 0.6410189
0.0082859 0.9917141 0.8750000
0.1250001 0.9917138 0.8749999
0.2500004 0.9917135 0.8749997
0.3750098 0.9916992 0.8749915
0.5001975 0.9913147 0.8747553
0.6273543 0.9845993 0.8700312
0.7496753 0.9195614 0.8222899
0.7256528 0.7076053 0.6378073
0.7657354 0.7374496 0.6731708
0.0082859 0.0082859 0.9917141
0.1250000 0.0082859 0.9917141
0.2500000 0.0082859 0.9917141
0.3750000 0.0082859 0.9917141
0.5000000 0.0082859 0.9917141
0.6250000 0.0082859 0.9917141
0.7500000 0.0082859 0.9917141
0.8750000 0.0082859 0.9917141
0.9917141 0.0082859 0.9917141
0.0082859 0.1250000 0.9917141
0.1250000 0.1250000 0.9917141
0.2500000 0.1250000 0.9917141
0.3750000 0.1250000 0.9917141
0.5000000 0.1250000 0.9917141
0.6250000 0.1250000 0.9917141
0.7500000 0.1250000 0.9917141
0.8750000 0.1250000 0.9917141
0.9917141 0.1250000 0.9917141
0.0082859 0.2500002 0.9917139
0.1250000 0.2500002 0.9917139
0.2500000 0.2500000 0.9917141
0.3750000 0.2500000 0.9917141
0.5000000 0.2500000 0.9917141
0.6250000 0.2500000 0.9917141
0.7500000 0.2500001 0.9917140
0.8750000 0.2500001 0.9917139
0.9917140 0.2500001 0.9917139
0.0083203 0.3750512 0.9916571
0.1250747 0.3751661 0.9915459
0.2500016 0.3750418 0.9916700
0.3750008 0.3750038 0.9917074
0.5000002 0.3750009 0.9917129
0.6250006 0.3750017 0.9917115
0.7500005 0.3750030 0.9917077
0.8749977 0.3750062 0.9916989
0.9917051 0.3750090 0.9916912
0.0107334 0.5012965 0.9889382
0.1311231 0.5065326 0.9783671
0.2519351 0.5031244 0.9853036
0.3749825 0.5004817 0.9907531
0.5000198 0.5000772 0.9915577
0.6250324 0.5000758 0.9915861
0.7500104 0.5000485 0.9915317
0.8749444 0.5000584 0.9914258
0.9913985 0.5001457 0.9910352
0.0153403 0.6248690 0.9843634
0.1572190 0.6255240 0.9420027
0.2810547 0.6278653 0.9147488
0.3749511 0.6256256 0.9782887
0.5021141 0.6262510 0.9849646
0.6324924 0.6311460 0.9743621
0.7500408 0.6271995 0.9853224
0.8736507 0.6250617 0.9862428
0.9836723 0.6251553 0.9764528
0.0094843 0.7493511 0.9904739
0.1397958 0.7413247 0.9723554
0.2629288 0.7364004 0.9596918
0.3768450 0.7472333 0.9837919
0.5125740 0.7471550 0.9699373
0.6701365 0.7455044 0.8881086
0.7514042 0.7460600 0.9213766
0.8611113 0.7447432 0.9553995
0.9614600 0.7359101 0.9371762
0.0082956 0.8749917 0.9917055
0.1251851 0.8747767 0.9914725
0.2501614 0.8746457 0.9913144
0.3752245 0.8747288 0.9913124
0.5051688 0.8720894 0.9853057
0.6447754 0.8544244 0.9460001
0.7505774 0.8233847 0.8827167
0.7973910 0.7896110 0.8291535
0.8701687 0.7795295 0.8069683
0.0082859 0.9917141 0.9917141
0.1250001 0.9917140 0.9917140
0.2500001 0.9917139 0.9917139
0.3750009 0.9917129 0.9917129
0.5000758 0.9916383 0.9916238
0.6264147 0.9887043 0.9882144
0.7496492 0.9572107 0.9515387
0.8302814 0.8953827 0.8790605
0.7801014 0.7490259 0.6899406
