looks/recipe_trix400.cube
TITLE "Fuji recipe Tri-X 400 (16 RAFs)"
LUT_3D_SIZE 9
0.0788658 0.0788658 0.0788658
0.1053175 0.1053175 0.1053175
0.1302512 0.1302512 0.1302512
0.2014103 0.2014103 0.2014103
0.2406021 0.2406021 0.2406021
0.2374379 0.2374379 0.2374379
0.2565462 0.2565462 0.2565462
0.2973965 0.2973965 0.2973965
0.3360987 0.3360987 0.3360987
0.1280823 0.1280823 0.1280823
0.1682583 0.1682583 0.1682583
0.1957769 0.1957769 0.1957769
0.2316320 0.2316320 0.2316320
0.2525891 0.2525891 0.2525891
0.2807266 0.2807266 0.2807266
0.2994944 0.2994944 0.2994944
0.3372835 0.3372835 0.3372835
0.3749965 0.3749965 0.3749965
0.1373847 0.1373847 0.1373847
0.2094689 0.2094689 0.2094689
0.2360238 0.2360238 0.2360238
0.2730538 0.2730538 0.2730538
0.3152561 0.3152561 0.3152561
0.3368824 0.3368824 0.3368824
0.3502126 0.3502126 0.3502126
0.3795975 0.3795975 0.3795975
0.4166756 0.4166756 0.4166756
0.1330481 0.1330481 0.1330481
0.2047807 0.2047807 0.2047807
0.3344030 0.3344030 0.3344030
0.3298190 0.3298190 0.3298190
0.3449259 0.3449259 0.3449259
0.3876727 0.3876727 0.3876727
0.4038044 0.4038044 0.4038044
0.4208756 0.4208756 0.4208756
0.4583259 0.4583259 0.4583259
0.1722482 0.1722482 0.1722482
0.2193804 0.2193804 0.2193804
0.3528087 0.3528087 0.3528087
0.4244497 0.4244497 0.4244497
0.3997030 0.3997030 0.3997030
0.4045842 0.4045842 0.4045842
0.4254696 0.4254696 0.4254696
0.4623703 0.4623703 0.4623703
0.5001650 0.5001650 0.5001650
0.2138649 0.2138649 0.2138649
0.2532912 0.2532912 0.2532912
0.3100016 0.3100016 0.3100016
0.4127819 0.4127819 0.4127819
0.4375450 0.4375450 0.4375450
0.4257037 0.4257037 0.4257037
0.4619904 0.4619904 0.4619904
0.5037472 0.5037472 0.5037472
0.5417839 0.5417839 0.5417839
0.2555240 0.2555240 0.2555240
0.2944335 0.2944335 0.2944335
0.3367651 0.3367651 0.3367651
0.3876367 0.3876367 0.3876367
0.4366271 0.4366271 0.4366271
0.4632130 0.4632130 0.4632130
0.5028653 0.5028653 0.5028653
0.5447765 0.5447765 0.5447765
0.5834560 0.5834560 0.5834560
0.2971906 0.2971906 0.2971906
0.3360953 0.3360953 0.3360953
0.3777649 0.3777649 0.3777649
0.4195125 0.4195125 0.4195125
0.4614279 0.4614279 0.4614279
0.5028004 0.5028004 0.5028004
0.5444701 0.5444701 0.5444701
0.5864586 0.5864586 0.5864586
0.6251132 0.6251132 0.6251132
0.3360953 0.3360953 0.3360953
0.3750000 0.3750000 0.3750000
0.4166667 0.4166667 0.4166667
0.4583334 0.4583334 0.4583334
0.5000002 0.5000002 0.5000002
0.5416667 0.5416667 0.5416667
0.5833355 0.5833355 0.5833355
0.6250195 0.6250195 0.6250195
0.6639090 0.6639090 0.6639090
0.1128697 0.1128697 0.1128697
0.1319223 0.1319223 0.1319223
0.1539840 0.1539840 0.1539840
0.2085600 0.2085600 0.2085600
0.2378472 0.2378472 0.2378472
0.2714576 0.2714576 0.2714576
0.2968582 0.2968582 0.2968582
0.3373010 0.3373010 0.3373010
0.3749965 0.3749965 0.3749965
0.1609108 0.1609108 0.1609108
0.1973732 0.1973732 0.1973732
0.2175267 0.2175267 0.2175267
0.2372525 0.2372525 0.2372525
0.2852096 0.2852096 0.2852096
0.3258756 0.3258756 0.3258756
0.3395846 0.3395846 0.3395846
0.3739230 0.3739230 0.3739230
0.4134230 0.4134230 0.4134230
0.1687020 0.1687020 0.1687020
0.2479117 0.2479117 0.2479117
0.2850331 0.2850331 0.2850331
0.3068983 0.3068983 0.3068983
0.3383971 0.3383971 0.3383971
0.3761044 0.3761044 0.3761044
0.3930025 0.3930025 0.3930025
0.4128807 0.4128807 0.4128807
0.4553003 0.4553003 0.4553003
0.1727344 0.1727344 0.1727344
0.2515690 0.2515690 0.2515690
0.3432917 0.3432917 0.3432917
0.3653453 0.3653453 0.3653453
0.3832971 0.3832971 0.3832971
0.4441189 0.4441189 0.4441189
0.4458331 0.4458331 0.4458331
0.4570684 0.4570684 0.4570684
0.4952816 0.4952816 0.4952816
0.2125548 0.2125548 0.2125548
0.2865818 0.2865818 0.2865818
0.3871853 0.3871853 0.3871853
0.4832210 0.4832210 0.4832210
0.4459638 0.4459638 0.4459638
0.4467438 0.4467438 0.4467438
0.4921712 0.4921712 0.4921712
0.5247881 0.5247881 0.5247881
0.5438905 0.5438905 0.5438905
0.2532119 0.2532119 0.2532119
0.3021255 0.3021255 0.3021255
0.3720629 0.3720629 0.3720629
0.4859746 0.4859746 0.4859746
0.5252174 0.5252174 0.5252174
0.4921212 0.4921212 0.4921212
0.5116157 0.5116157 0.5116157
0.5584885 0.5584885 0.5584885
0.5837849 0.5837849 0.5837849
0.2944331 0.2944331 0.2944331
0.3335191 0.3335191 0.3335191
0.3776772 0.3776772 0.3776772
0.4426336 0.4426336 0.4426336
0.5171116 0.5171116 0.5171116
0.5142524 0.5142524 0.5142524
0.5547372 0.5547372 0.5547372
0.6015544 0.6015544 0.6015544
0.6277957 0.6277957 0.6277957
0.3360953 0.3360953 0.3360953
0.3750003 0.3750003 0.3750003
0.4166838 0.4166838 0.4166838
0.4589267 0.4589267 0.4589267
0.5024170 0.5024170 0.5024170
0.5423731 0.5423731 0.5423731
0.5868964 0.5868964 0.5868964
0.6415536 0.6415536 0.6415536
0.6676710 0.6676710 0.6676710
0.3750000 0.3750000 0.3750000
0.4139047 0.4139047 0.4139047
0.4555714 0.4555714 0.4555714
0.4972404 0.4972404 0.4972404
0.5389135 0.5389135 0.5389135
0.5805749 0.5805749 0.5805749
0.6223385 0.6223385 0.6223385
0.6645283 0.6645283 0.6645283
0.7029858 0.7029858 0.7029858
0.1246205 0.1246205 0.1246205
0.1792821 0.1792821 0.1792821
0.1861020 0.1861020 0.1861020
0.2210967 0.2210967 0.2210967
0.2740399 0.2740399 0.2740399
0.2985650 0.2985650 0.2985650
0.3375716 0.3375716 0.3375716
0.3781898 0.3781898 0.3781898
0.4166365 0.4166365 0.4166365
0.2087002 0.2087002 0.2087002
0.2363366 0.2363366 0.2363366
0.2410430 0.2410430 0.2410430
0.2669197 0.2669197 0.2669197
0.3145089 0.3145089 0.3145089
0.3393209 0.3393209 0.3393209
0.3778312 0.3778312 0.3778312
0.4074250 0.4074250 0.4074250
0.4553407 0.4553407 0.4553407
0.2384208 0.2384208 0.2384208
0.2744144 0.2744144 0.2744144
0.3265954 0.3265954 0.3265954
0.3565893 0.3565893 0.3565893
0.3796802 0.3796802 0.3796802
0.3915392 0.3915392 0.3915392
0.4182943 0.4182943 0.4182943
0.4524008 0.4524008 0.4524008
0.4943520 0.4943520 0.4943520
0.2292946 0.2292946 0.2292946
0.3088150 0.3088150 0.3088150
0.3593364 0.3593364 0.3593364
0.4370449 0.4370449 0.4370449
0.4291450 0.4291450 0.4291450
0.4714392 0.4714392 0.4714392
0.4832628 0.4832628 0.4832628
0.5010160 0.5010160 0.5010160
0.5386928 0.5386928 0.5386928
0.2560695 0.2560695 0.2560695
0.3652821 0.3652821 0.3652821
0.4254028 0.4254028 0.4254028
0.4731956 0.4731956 0.4731956
0.4886185 0.4886185 0.4886185
0.5143558 0.5143558 0.5143558
0.5485871 0.5485871 0.5485871
0.5731851 0.5731851 0.5731851
0.5882119 0.5882119 0.5882119
0.2953996 0.2953996 0.2953996
0.3570146 0.3570146 0.3570146
0.4545705 0.4545705 0.4545705
0.5135984 0.5135984 0.5135984
0.5684654 0.5684654 0.5684654
0.5574793 0.5574793 0.5574793
0.5759884 0.5759884 0.5759884
0.6046799 0.6046799 0.6046799
0.6324293 0.6324293 0.6324293
0.3361054 0.3361054 0.3361054
0.3758586 0.3758586 0.3758586
0.4247667 0.4247667 0.4247667
0.4929765 0.4929765 0.4929765
0.5824293 0.5824293 0.5824293
0.5906205 0.5906205 0.5906205
0.6296820 0.6296820 0.6296820
0.6610726 0.6610726 0.6610726
0.6731133 0.6731133 0.6731133
0.3777620 0.3777620 0.3777620
0.4166681 0.4166681 0.4166681
0.4583815 0.4583815 0.4583815
0.5023406 0.5023406 0.5023406
0.5528244 0.5528244 0.5528244
0.5895559 0.5895559 0.5895559
0.6355094 0.6355094 0.6355094
0.6924070 0.6924070 0.6924070
0.7254422 0.7254422 0.7254422
0.4166667 0.4166667 0.4166667
0.4555714 0.4555714 0.4555714
0.4972381 0.4972381 0.4972381
0.5389133 0.5389133 0.5389133
0.5806546 0.5806546 0.5806546
0.6222894 0.6222894 0.6222894
0.6641856 0.6641856 0.6641856
0.7071950 0.7071950 0.7071950
0.7434838 0.7434838 0.7434838
0.1385554 0.1385554 0.1385554
0.1839122 0.1839122 0.1839122
0.2174322 0.2174322 0.2174322
0.2627862 0.2627862 0.2627862
0.3037020 0.3037020 0.3037020
0.3416044 0.3416044 0.3416044
0.3785235 0.3785235 0.3785235
0.4194290 0.4194290 0.4194290
0.4583282 0.4583282 0.4583282
0.2285910 0.2285910 0.2285910
0.2610285 0.2610285 0.2610285
0.2856953 0.2856953 0.2856953
0.3280003 0.3280003 0.3280003
0.3563964 0.3563964 0.3563964
0.3873422 0.3873422 0.3873422
0.4222634 0.4222634 0.4222634
0.4538414 0.4538414 0.4538414
0.4971044 0.4971044 0.4971044
0.3013824 0.3013824 0.3013824
0.3294742 0.3294742 0.3294742
0.3513731 0.3513731 0.3513731
0.3790636 0.3790636 0.3790636
0.3893221 0.3893221 0.3893221
0.4163481 0.4163481 0.4163481
0.4446977 0.4446977 0.4446977
0.4938504 0.4938504 0.4938504
0.5380540 0.5380540 0.5380540
0.3211098 0.3211098 0.3211098
0.3790522 0.3790522 0.3790522
0.3946396 0.3946396 0.3946396
0.4534185 0.4534185 0.4534185
0.4612398 0.4612398 0.4612398
0.4806218 0.4806218 0.4806218
0.5099652 0.5099652 0.5099652
0.5392352 0.5392352 0.5392352
0.5723819 0.5723819 0.5723819
0.3059987 0.3059987 0.3059987
0.3699266 0.3699266 0.3699266
0.4413520 0.4413520 0.4413520
0.4851288 0.4851288 0.4851288
0.5293171 0.5293171 0.5293171
0.5295362 0.5295362 0.5295362
0.5833694 0.5833694 0.5833694
0.5938579 0.5938579 0.5938579
0.6206931 0.6206931 0.6206931
0.3364445 0.3364445 0.3364445
0.3812914 0.3812914 0.3812914
0.4377523 0.4377523 0.4377523
0.5172805 0.5172805 0.5172805
0.5861116 0.5861116 0.5861116
0.5868595 0.5868595 0.5868595
0.6068969 0.6068969 0.6068969
0.6398943 0.6398943 0.6398943
0.6639074 0.6639074 0.6639074
0.3777643 0.3777643 0.3777643
0.4168966 0.4168966 0.4168966
0.4592825 0.4592825 0.4592825
0.5250026 0.5250026 0.5250026
0.6141020 0.6141020 0.6141020
0.6447664 0.6447664 0.6447664
0.6597250 0.6597250 0.6597250
0.6975011 0.6975011 0.6975011
0.7094472 0.7094472 0.7094472
0.4194286 0.4194286 0.4194286
0.4583336 0.4583336 0.4583336
0.5000212 0.5000212 0.5000212
0.5436445 0.5436445 0.5436445
0.5970962 0.5970962 0.5970962
0.6537865 0.6537865 0.6537865
0.6768974 0.6768974 0.6768974
0.7256430 0.7256430 0.7256430
0.7447678 0.7447678 0.7447678
0.4583333 0.4583333 0.4583333
0.4972380 0.4972380 0.4972380
0.5389048 0.5389048 0.5389048
0.5805781 0.5805781 0.5805781
0.6224592 0.6224592 0.6224592
0.6652520 0.6652520 0.6652520
0.7064002 0.7064002 0.7064002
0.7465846 0.7465846 0.7465846
0.7833773 0.7833773 0.7833773
0.1726228 0.1726228 0.1726228
0.2114058 0.2114058 0.2114058
0.2530483 0.2530483 0.2530483
0.2950270 0.2950270 0.2950270
0.3365808 0.3365808 0.3365808
0.3780582 0.3780582 0.3780582
0.4196483 0.4196483 0.4196483
0.4610798 0.4610798 0.4610798
0.4999999 0.4999999 0.4999999
0.2292900 0.2292900 0.2292900
0.2660781 0.2660781 0.2660781
0.2864097 0.2864097 0.2864097
0.3432792 0.3432792 0.3432792
0.3771696 0.3771696 0.3771696
0.4175274 0.4175274 0.4175274
0.4562987 0.4562987 0.4562987
0.4994415 0.4994415 0.4994415
0.5388237 0.5388237 0.5388237
0.3351147 0.3351147 0.3351147
0.3426663 0.3426663 0.3426663
0.3650441 0.3650441 0.3650441
0.4029417 0.4029417 0.4029417
0.4237146 0.4237146 0.4237146
0.4488201 0.4488201 0.4488201
0.4790579 0.4790579 0.4790579
0.5282141 0.5282141 0.5282141
0.5786038 0.5786038 0.5786038
0.4145287 0.4145287 0.4145287
0.4135835 0.4135835 0.4135835
0.4419627 0.4419627 0.4419627
0.4669668 0.4669668 0.4669668
0.4954763 0.4954763 0.4954763
0.5002565 0.5002565 0.5002565
0.5275527 0.5275527 0.5275527
0.5573164 0.5573164 0.5573164
0.6197071 0.6197071 0.6197071
0.3868259 0.3868259 0.3868259
0.4521951 0.4521951 0.4521951
0.4839208 0.4839208 0.4839208
0.5270063 0.5270063 0.5270063
0.5870499 0.5870499 0.5870499
0.5846696 0.5846696 0.5846696
0.6015297 0.6015297 0.6015297
0.6071044 0.6071044 0.6071044
0.6416922 0.6416922 0.6416922
0.3814029 0.3814029 0.3814029
0.4287356 0.4287356 0.4287356
0.4938629 0.4938629 0.4938629
0.5569398 0.5569398 0.5569398
0.6070879 0.6070879 0.6070879
0.6352767 0.6352767 0.6352767
0.6318350 0.6318350 0.6318350
0.6854489 0.6854489 0.6854489
0.6973553 0.6973553 0.6973553
0.4194592 0.4194592 0.4194592
0.4585192 0.4585192 0.4585192
0.5028725 0.5028725 0.5028725
0.5585660 0.5585660 0.5585660
0.6301513 0.6301513 0.6301513
0.6811426 0.6811426 0.6811426
0.6954699 0.6954699 0.6954699
0.6720876 0.6720876 0.6720876
0.7316213 0.7316213 0.7316213
0.4610953 0.4610953 0.4610953
0.5000004 0.5000004 0.5000004
0.5416781 0.5416781 0.5416781
0.5838977 0.5838977 0.5838977
0.6316102 0.6316102 0.6316102
0.6980090 0.6980090 0.6980090
0.7405860 0.7405860 0.7405860
0.7558024 0.7558024 0.7558024
0.7813454 0.7813454 0.7813454
0.5000000 0.5000000 0.5000000
0.5389047 0.5389047 0.5389047
0.5805714 0.5805714 0.5805714
0.6222412 0.6222412 0.6222412
0.6640639 0.6640639 0.6640639
0.7087172 0.7087172 0.7087172
0.7519172 0.7519172 0.7519172
0.7896783 0.7896783 0.7896783
0.8263803 0.8263803 0.8263803
0.2138658 0.2138658 0.2138658
0.2527754 0.2527754 0.2527754
0.2944321 0.2944321 0.2944321
0.3361143 0.3361143 0.3361143
0.3777930 0.3777930 0.3777930
0.4194629 0.4194629 0.4194629
0.4611154 0.4611154 0.4611154
0.5027599 0.5027599 0.5027599
0.5416663 0.5416663 0.5416663
0.2549120 0.2549120 0.2549120
0.2930037 0.2930037 0.2930037
0.3359734 0.3359734 0.3359734
0.3770017 0.3770017 0.3770017
0.4175697 0.4175697 0.4175697
0.4570185 0.4570185 0.4570185
0.4974237 0.4974237 0.4974237
0.5399287 0.5399287 0.5399287
0.5803950 0.5803950 0.5803950
0.3253345 0.3253345 0.3253345
0.3498555 0.3498555 0.3498555
0.3985325 0.3985325 0.3985325
0.4292120 0.4292120 0.4292120
0.4571331 0.4571331 0.4571331
0.4966061 0.4966061 0.4966061
0.5262238 0.5262238 0.5262238
0.5546299 0.5546299 0.5546299
0.6185153 0.6185153 0.6185153
0.4155135 0.4155135 0.4155135
0.4375457 0.4375457 0.4375457
0.4602152 0.4602152 0.4602152
0.4841096 0.4841096 0.4841096
0.5148072 0.5148072 0.5148072
0.5363224 0.5363224 0.5363224
0.5608596 0.5608596 0.5608596
0.5831474 0.5831474 0.5831474
0.6515855 0.6515855 0.6515855
0.4875202 0.4875202 0.4875202
0.5195742 0.5195742 0.5195742
0.5156966 0.5156966 0.5156966
0.5514125 0.5514125 0.5514125
0.5806969 0.5806969 0.5806969
0.5939768 0.5939768 0.5939768
0.6108564 0.6108564 0.6108564
0.6316876 0.6316876 0.6316876
0.6727786 0.6727786 0.6727786
0.4481007 0.4481007 0.4481007
0.4988163 0.4988163 0.4988163
0.5416791 0.5416791 0.5416791
0.6146790 0.6146790 0.6146790
0.6311857 0.6311857 0.6311857
0.6927945 0.6927945 0.6927945
0.6941066 0.6941066 0.6941066
0.7034860 0.7034860 0.7034860
0.7407858 0.7407858 0.7407858
0.4615745 0.4615745 0.4615745
0.5016993 0.5016993 0.5016993
0.5495543 0.5495543 0.5495543
0.6120561 0.6120561 0.6120561
0.6704945 0.6704945 0.6704945
0.7097275 0.7097275 0.7097275
0.7415968 0.7415968 0.7415968
0.7047448 0.7047448 0.7047448
0.7562735 0.7562735 0.7562735
0.5027630 0.5027630 0.5027630
0.5416726 0.5416726 0.5416726
0.5835739 0.5835739 0.5835739
0.6273057 0.6273057 0.6273057
0.6901230 0.6901230 0.6901230
0.7389391 0.7389391 0.7389391
0.7666549 0.7666549 0.7666549
0.7808102 0.7808102 0.7808102
0.7842800 0.7842800 0.7842800
0.5416667 0.5416667 0.5416667
0.5805714 0.5805714 0.5805714
0.6222386 0.6222386 0.6222386
0.6639652 0.6639652 0.6639652
0.7077169 0.7077169 0.7077169
0.7542097 0.7542097 0.7542097
0.7891433 0.7891433 0.7891433
0.8140891 0.8140891 0.8140891
0.8441164 0.8441164 0.8441164
0.2555240 0.2555240 0.2555240
0.2944288 0.2944288 0.2944288
0.3360959 0.3360959 0.3360959
0.3777624 0.3777624 0.3777624
0.4194288 0.4194288 0.4194288
0.4610951 0.4610951 0.4610951
0.5027615 0.5027615 0.5027615
0.5444283 0.5444283 0.5444283
0.5833333 0.5833333 0.5833333
0.2944564 0.2944564 0.2944564
0.3333763 0.3333763 0.3333763
0.3751281 0.3751281 0.3751281
0.4167338 0.4167338 0.4167338
0.4583239 0.4583239 0.4583239
0.4999926 0.4999926 0.4999926
0.5415876 0.5415876 0.5415876
0.5831850 0.5831850 0.5831850
0.6222188 0.6222188 0.6222188
0.3376848 0.3376848 0.3376848
0.3755657 0.3755657 0.3755657
0.4176479 0.4176479 0.4176479
0.4591351 0.4591351 0.4591351
0.4999906 0.4999906 0.4999906
0.5414272 0.5414272 0.5414272
0.5799096 0.5799096 0.5799096
0.6206018 0.6206018 0.6206018
0.6621157 0.6621157 0.6621157
0.3921887 0.3921887 0.3921887
0.4280579 0.4280579 0.4280579
0.4721231 0.4721231 0.4721231
0.5103782 0.5103782 0.5103782
0.5422037 0.5422037 0.5422037
0.5809796 0.5809796 0.5809796
0.6088147 0.6088147 0.6088147
0.6303505 0.6303505 0.6303505
0.6939101 0.6939101 0.6939101
0.4971911 0.4971911 0.4971911
0.5231193 0.5231193 0.5231193
0.5457081 0.5457081 0.5457081
0.5733978 0.5733978 0.5733978
0.5929320 0.5929320 0.5929320
0.6295967 0.6295967 0.6295967
0.6473839 0.6473839 0.6473839
0.6672250 0.6672250 0.6672250
0.7057985 0.7057985 0.7057985
0.5228505 0.5228505 0.5228505
0.5817492 0.5817492 0.5817492
0.5928546 0.5928546 0.5928546
0.6258706 0.6258706 0.6258706
0.6513166 0.6513166 0.6513166
0.7144166 0.7144166 0.7144166
0.6882350 0.6882350 0.6882350
0.7102509 0.7102509 0.7102509
0.7289694 0.7289694 0.7289694
0.5064560 0.5064560 0.5064560
0.5580415 0.5580415 0.5580415
0.5990294 0.5990294 0.5990294
0.6589242 0.6589242 0.6589242
0.7052142 0.7052142 0.7052142
0.7276688 0.7276688 0.7276688
0.7826250 0.7826250 0.7826250
0.7690859 0.7690859 0.7690859
0.7831149 0.7831149 0.7831149
0.5444570 0.5444570 0.5444570
0.5835025 0.5835025 0.5835025
0.6256765 0.6256765 0.6256765
0.6759835 0.6759835 0.6759835
0.7455841 0.7455841 0.7455841
0.7832411 0.7832411 0.7832411
0.7887212 0.7887212 0.7887212
0.8118391 0.8118391 0.8118391
0.8049416 0.8049416 0.8049416
0.5833333 0.5833333 0.5833333
0.6222382 0.6222382 0.6222382
0.6639056 0.6639056 0.6639056
0.7057978 0.7057978 0.7057978
0.7531710 0.7531710 0.7531710
0.7973368 0.7973368 0.7973368
0.8511883 0.8511883 0.8511883
0.8364430 0.8364430 0.8364430
0.8330159 0.8330159 0.8330159
0.2971906 0.2971906 0.2971906
0.3360953 0.3360953 0.3360953
0.3777620 0.3777620 0.3777620
0.4194286 0.4194286 0.4194286
0.4610953 0.4610953 0.4610953
0.5027620 0.5027620 0.5027620
0.5444286 0.5444286 0.5444286
0.5860953 0.5860953 0.5860953
0.6250000 0.6250000 0.6250000
0.3360953 0.3360953 0.3360953
0.3750001 0.3750001 0.3750001
0.4166667 0.4166667 0.4166667
0.4583332 0.4583332 0.4583332
0.4999999 0.4999999 0.4999999
0.5416665 0.5416665 0.5416665
0.5833331 0.5833331 0.5833331
0.6249994 0.6249994 0.6249994
0.6639044 0.6639044 0.6639044
0.3777641 0.3777641 0.3777641
0.4166680 0.4166680 0.4166680
0.4583490 0.4583490 0.4583490
0.5000201 0.5000201 0.5000201
0.5416655 0.5416655 0.5416655
0.5833482 0.5833482 0.5833482
0.6249802 0.6249802 0.6249802
0.6662734 0.6662734 0.6662734
0.7055080 0.7055080 0.7055080
0.4198340 0.4198340 0.4198340
0.4586622 0.4586622 0.4586622
0.5010260 0.5010260 0.5010260
0.5424816 0.5424816 0.5424816
0.5841200 0.5841200 0.5841200
0.6233480 0.6233480 0.6233480
0.6638898 0.6638898 0.6638898
0.6975683 0.6975683 0.6975683
0.7412443 0.7412443 0.7412443
0.4719239 0.4719239 0.4719239
0.5122172 0.5122172 0.5122172
0.5638216 0.5638216 0.5638216
0.5920966 0.5920966 0.5920966
0.6351139 0.6351139 0.6351139
0.5814564 0.5814564 0.5814564
0.6940019 0.6940019 0.6940019
0.7126762 0.7126762 0.7126762
0.7333106 0.7333106 0.7333106
0.5235794 0.5235794 0.5235794
0.6084427 0.6084427 0.6084427
0.6438126 0.6438126 0.6438126
0.6642147 0.6642147 0.6642147
0.6799060 0.6799060 0.6799060
0.6960230 0.6960230 0.6960230
0.7085667 0.7085667 0.7085667
0.7399018 0.7399018 0.7399018
0.7582721 0.7582721 0.7582721
0.5499031 0.5499031 0.5499031
0.6125780 0.6125780 0.6125780
0.6658794 0.6658794 0.6658794
0.6822983 0.6822983 0.6822983
0.7200077 0.7200077 0.7200077
0.8250036 0.8250036 0.8250036
0.7921272 0.7921272 0.7921272
0.7879003 0.7879003 0.7879003
0.7963418 0.7963418 0.7963418
0.5861396 0.5861396 0.5861396
0.6255540 0.6255540 0.6255540
0.6671305 0.6671305 0.6671305
0.6866273 0.6866273 0.6866273
0.7519851 0.7519851 0.7519851
0.7831011 0.7831011 0.7831011
0.7855292 0.7855292 0.7855292
0.8700095 0.8700095 0.8700095
0.8211564 0.8211564 0.8211564
0.6250000 0.6250000 0.6250000
0.6639048 0.6639048 0.6639048
0.7052290 0.7052290 0.7052290
0.7440637 0.7440637 0.7440637
0.7880542 0.7880542 0.7880542
0.8184392 0.8184392 0.8184392
0.8679522 0.8679522 0.8679522
0.8504944 0.8504944 0.8504944
0.8697872 0.8697872 0.8697872
0.3360953 0.3360953 0.3360953
0.3750000 0.3750000 0.3750000
0.4166667 0.4166667 0.4166667
0.4583333 0.4583333 0.4583333
0.5000000 0.5000000 0.5000000
0.5416667 0.5416667 0.5416667
0.5833333 0.5833333 0.5833333
0.6250000 0.6250000 0.6250000
0.6639047 0.6639047 0.6639047
0.3750000 0.3750000 0.3750000
0.4139047 0.4139047 0.4139047
0.4555714 0.4555714 0.4555714
0.4972380 0.4972380 0.4972380
0.5389047 0.5389047 0.5389047
0.5805714 0.5805714 0.5805714
0.6222380 0.6222380 0.6222380
0.6639047 0.6639047 0.6639047
0.7028094 0.7028094 0.7028094
0.4166667 0.4166667 0.4166667
0.4555714 0.4555714 0.4555714
0.4972381 0.4972381 0.4972381
0.5389047 0.5389047 0.5389047
0.5805714 0.5805714 0.5805714
0.6222381 0.6222381 0.6222381
0.6639038 0.6639038 0.6639038
0.7055668 0.7055668 0.7055668
0.7444736 0.7444736 0.7444736
0.4583353 0.4583353 0.4583353
0.4972410 0.4972410 0.4972410
0.5389277 0.5389277 0.5389277
0.5805795 0.5805795 0.5805795
0.6222607 0.6222607 0.6222607
0.6637698 0.6637698 0.6637698
0.7053768 0.7053768 0.7053768
0.7467472 0.7467472 0.7467472
0.7853498 0.7853498 0.7853498
0.5001218 0.5001218 0.5001218
0.5393308 0.5393308 0.5393308
0.5823911 0.5823911 0.5823911
0.6235515 0.6235515 0.6235515
0.6643329 0.6643329 0.6643329
0.7017470 0.7017470 0.7017470
0.7362725 0.7362725 0.7362725
0.7836452 0.7836452 0.7836452
0.8134031 0.8134031 0.8134031
0.5427588 0.5427588 0.5427588
0.5864289 0.5864289 0.5864289
0.6350845 0.6350845 0.6350845
0.6800383 0.6800383 0.6800383
0.6981162 0.6981162 0.6981162
0.7288358 0.7288358 0.7288358
0.7789477 0.7789477 0.7789477
0.8018748 0.8018748 0.8018748
0.8299444 0.8299444 0.8299444
0.5836275 0.5836275 0.5836275
0.6259277 0.6259277 0.6259277
0.6700453 0.6700453 0.6700453
0.7178304 0.7178304 0.7178304
0.7532810 0.7532810 0.7532810
0.7652704 0.7652704 0.7652704
0.7961375 0.7961375 0.7961375
0.7829427 0.7829427 0.7829427
0.8216503 0.8216503 0.8216503
0.6250032 0.6250032 0.6250032
0.6639404 0.6639404 0.6639404
0.7036640 0.7036640 0.7036640
0.7259157 0.7259157 0.7259157
0.7817994 0.7817994 0.7817994
0.8128565 0.8128565 0.8128565
0.8581272 0.8581272 0.8581272
0.8767045 0.8767045 0.8767045
0.8398376 0.8398376 0.8398376
0.6639047 0.6639047 0.6639047
0.7028086 0.7028086 0.7028086
0.7441509 0.7441509 0.7441509
0.7837134 0.7837134 0.7837134
0.8188261 0.8188261 0.8188261
0.8344257 0.8344257 0.8344257
0.8938310 0.8938310 0.8938310
0.9139033 0.9139033 0.9139033
0.9414456 0.9414456 0.9414456
