looks/recipe_reggies_portra.cube
TITLE "Fuji recipe Reggie's Portra (16 RAFs)"
LUT_3D_SIZE 9
0.0172250 0.0170061 0.0145883
0.0915964 0.0200096 0.0180051
0.1768379 0.0196694 0.0183824
0.4165746 0.0404897 0.0402090
0.5335686 0.0515242 0.0522327
0.6328653 0.0621208 0.0648329
0.7306212 0.0447026 0.0458424
0.8708501 0.0119235 0.0118893
0.9916345 0.0083405 0.0083368
0.0303285 0.0900320 0.0169742
0.0990970 0.0979598 0.0258849
0.2422196 0.0989715 0.0289174
0.3986430 0.1143904 0.0361699
0.5171078 0.1203158 0.0375661
0.6307914 0.1131696 0.0521776
0.7341206 0.1244522 0.0603655
0.8615448 0.1298787 0.0263813
0.9908928 0.1253528 0.0090804
0.0249888 0.2263376 0.0143456
0.1002972 0.1804876 0.0159774
0.2406299 0.2269080 0.0365603
0.3970303 0.2293890 0.0526605
0.5781242 0.2243957 0.0521386
0.6569823 0.2361207 0.0639109
0.7581379 0.2747842 0.0451853
0.8689680 0.2529971 0.0197238
0.9899292 0.2497420 0.0100956
0.0094152 0.3726167 0.0085389
0.1310318 0.3473980 0.0123205
0.2353853 0.3407060 0.0226044
0.3611746 0.3520820 0.0365859
0.5048807 0.3270203 0.0464862
0.6341791 0.3366398 0.0544459
0.7802452 0.3489057 0.0734268
0.8584667 0.3763330 0.0458740
0.9895568 0.3757862 0.0103580
0.0083254 0.4999610 0.0083088
0.1269208 0.4963602 0.0090764
0.2692591 0.4767079 0.0185777
0.3879393 0.4941793 0.0260740
0.5255145 0.5244128 0.0480905
0.6194654 0.4317155 0.0332272
0.7552953 0.4730594 0.0314885
0.8694622 0.4859581 0.0284801
0.9798036 0.5012046 0.0319223
0.0082862 0.6249975 0.0082893
0.1250088 0.6248996 0.0083856
0.2542105 0.6208479 0.0095395
0.3783484 0.5772023 0.0170275
0.4737968 0.5793993 0.0293598
0.6032788 0.6145652 0.0220379
0.7487434 0.6222837 0.0119666
0.8755450 0.6206135 0.0145587
0.9867751 0.6190071 0.0182833
0.0082859 0.7500000 0.0082859
0.1250001 0.7499980 0.0082875
0.2501230 0.7497754 0.0083101
0.3778533 0.7423116 0.0097784
0.5001360 0.7141399 0.0188668
0.6205221 0.7376259 0.0194973
0.7492209 0.7493575 0.0092707
0.8749745 0.7498423 0.0085015
0.9916613 0.7497569 0.0087374
0.0082859 0.8750000 0.0082859
0.1250000 0.8750000 0.0082859
0.2500005 0.8749991 0.0082861
0.3750518 0.8748719 0.0083083
0.5000134 0.8742401 0.0084303
0.6249835 0.8744209 0.0086889
0.7499837 0.8749200 0.0083838
0.8749552 0.8749067 0.0084249
0.9916942 0.8749817 0.0083131
0.0082859 0.9917141 0.0082859
0.1250000 0.9917141 0.0082859
0.2500000 0.9917141 0.0082859
0.3750000 0.9917141 0.0082859
0.5000001 0.9917136 0.0082860
0.6250000 0.9917132 0.0082863
0.7500000 0.9917108 0.0082890
0.8749985 0.9917076 0.0082928
0.9917124 0.9917114 0.0082891
0.0174252 0.0507502 0.0951268
0.1207077 0.0478718 0.0989828
0.2284780 0.0412985 0.0972887
0.3626047 0.0472274 0.1055893
0.5116231 0.0504381 0.1048219
0.6310144 0.0458316 0.1053538
0.7407987 0.0479345 0.1252216
0.8678164 0.0173132 0.1263680
0.9914401 0.0085313 0.1250671
0.0165898 0.1107950 0.1289916
0.1375293 0.1469731 0.1438865
0.2693855 0.1497556 0.1441515
0.3672407 0.1275235 0.1239426
0.4932972 0.1253982 0.1244990
0.6607979 0.1433601 0.1381115
0.7458390 0.1524353 0.1469311
0.8350953 0.1545720 0.1485295
0.9827503 0.1293101 0.1281484
0.0174927 0.2114719 0.1348761
0.1164361 0.2180795 0.1247266
0.2699250 0.2699122 0.1512999
0.4209746 0.2480025 0.1342798
0.5541319 0.2446739 0.1339723
0.6797125 0.2484431 0.1541356
0.7503272 0.2428531 0.1638187
0.8369114 0.2294057 0.1657889
0.9686393 0.2488740 0.1372650
0.0102747 0.3697713 0.1275461
0.1506494 0.3486435 0.1209063
0.2411093 0.3603907 0.1254592
0.4181462 0.3947061 0.1357990
0.5440664 0.3522244 0.1344026
0.7116274 0.3784671 0.1480250
0.7804114 0.3611834 0.1393845
0.8389564 0.3715536 0.1417986
0.9813485 0.3763091 0.1344508
0.0084444 0.4996788 0.1256404
0.1077802 0.4902860 0.1430878
0.2456677 0.4674042 0.1401310
0.3839867 0.4992506 0.1174945
0.5283846 0.5013708 0.1220556
0.6337346 0.4533753 0.1440207
0.7785283 0.4747367 0.1700926
0.8635815 0.4786061 0.1616416
0.9321571 0.5072619 0.1668576
0.0083125 0.6248130 0.1251259
0.1223485 0.6191301 0.1289216
0.2354702 0.6050002 0.1400622
0.3745888 0.5856276 0.1258975
0.5041474 0.5862213 0.1060393
0.6222909 0.6284996 0.1373307
0.7444441 0.5832965 0.1479911
0.8749409 0.5932747 0.1501683
0.9567170 0.5863345 0.1742299
0.0082862 0.7499965 0.1250017
0.1249900 0.7498565 0.1250696
0.2496663 0.7481357 0.1259872
0.3714422 0.7318834 0.1340275
0.5062882 0.7044686 0.1215225
0.6269290 0.7057958 0.1453609
0.7465936 0.7430108 0.1403135
0.8668032 0.7429989 0.1395793
0.9900987 0.7373946 0.1433262
0.0082859 0.8750000 0.1250000
0.1250000 0.8749996 0.1250001
0.2500076 0.8749717 0.1250098
0.3749331 0.8740628 0.1253819
0.4995056 0.8726053 0.1262063
0.6261948 0.8711269 0.1272687
0.7500539 0.8647758 0.1341738
0.8673009 0.8588830 0.1385786
0.9876211 0.8712789 0.1291808
0.0082859 0.9917141 0.1250000
0.1250000 0.9917141 0.1250000
0.2500000 0.9917141 0.1250000
0.3750003 0.9917110 0.1250014
0.4999965 0.9916916 0.1250141
0.6250082 0.9916860 0.1250155
0.7500060 0.9911353 0.1253173
0.8745254 0.9893051 0.1267608
0.9910034 0.9905707 0.1258383
0.0168535 0.0561842 0.2409549
0.1283474 0.0647124 0.2495053
0.2499197 0.0445001 0.2477988
0.3781683 0.0354555 0.2509405
0.5117071 0.0440378 0.2685075
0.6266336 0.0200274 0.2485930
0.7497971 0.0153858 0.2478279
0.8732275 0.0126966 0.2490693
0.9915549 0.0084417 0.2499680
0.0114232 0.1478584 0.2461769
0.1335459 0.1646689 0.2538947
0.2764695 0.1696731 0.2551765
0.3898810 0.1702693 0.2567784
0.5245245 0.1799697 0.2667984
0.6392797 0.1735876 0.2507953
0.7603208 0.1759243 0.2531968
0.8533312 0.1490564 0.2397575
0.9853860 0.1289410 0.2486391
0.0164976 0.2299476 0.2694502
0.1029805 0.2622196 0.2675800
0.3027359 0.3153782 0.3097004
0.4607187 0.3258039 0.3175909
0.5290906 0.2619551 0.2652250
0.7035900 0.2805399 0.2909667
0.7793361 0.2690288 0.2695108
0.8410490 0.2643325 0.2557363
0.9437888 0.2725554 0.2633747
0.0127568 0.3661241 0.2606861
0.1168300 0.3655009 0.2715378
0.2205717 0.3864238 0.2704659
0.4368167 0.4331947 0.3086881
0.5692886 0.4020231 0.2834654
0.7155707 0.4043646 0.2703317
0.7785669 0.3811878 0.2809772
0.8516592 0.3572099 0.2737126
0.9385471 0.3664772 0.2906049
0.0088324 0.4989883 0.2500938
0.0695455 0.4779122 0.2468726
0.1373459 0.4774962 0.2431472
0.3471668 0.4969485 0.2575826
0.5564052 0.5328121 0.2665451
0.6841812 0.5062029 0.2608631
0.8082307 0.5115322 0.2667134
0.8945667 0.5374154 0.2810977
0.9592224 0.5364085 0.2697372
0.0084166 0.6240591 0.2500437
0.1058605 0.5972520 0.2523202
0.1672441 0.5634044 0.2511453
0.2698352 0.5828841 0.2447659
0.5281615 0.6279399 0.2430834
0.6666479 0.6323302 0.2678147
0.7525748 0.5736302 0.2764228
0.8716428 0.5948375 0.2867266
0.9541982 0.5958832 0.2803902
0.0082878 0.7499781 0.2500010
0.1246487 0.7488120 0.2501099
0.2456515 0.7395539 0.2502521
0.3567951 0.7027081 0.2471716
0.4287599 0.6701677 0.2654243
0.6713535 0.7026343 0.2577496
0.7262171 0.6898109 0.2859875
0.8188804 0.7017039 0.2775409
0.9880050 0.6964410 0.3063810
0.0082859 0.8750000 0.2500000
0.1250000 0.8749977 0.2500000
0.2499935 0.8748527 0.2500029
0.3756995 0.8702172 0.2507154
0.4917113 0.8419734 0.2634450
0.6280617 0.8543361 0.2555520
0.7495682 0.8135925 0.2673291
0.8255927 0.7584142 0.2950897
0.9384421 0.8163778 0.2833103
0.0082859 0.9917141 0.2500000
0.1250000 0.9917141 0.2500000
0.2500001 0.9917139 0.2500000
0.3750117 0.9916601 0.2500137
0.4998918 0.9909809 0.2501968
0.6249073 0.9912863 0.2501907
0.7502232 0.9880100 0.2507294
0.8684727 0.9583561 0.2600222
0.9796906 0.9721849 0.2560840
0.0084848 0.0190368 0.3681200
0.1308812 0.0332737 0.3730694
0.2486726 0.0327699 0.3756554
0.3938693 0.0411117 0.3838539
0.5176632 0.0508176 0.3815619
0.6289284 0.0320844 0.3816580
0.7498407 0.0135388 0.3759804
0.8748509 0.0087535 0.3749045
0.9917083 0.0082933 0.3749959
0.0094981 0.1837910 0.3605610
0.1305755 0.2013437 0.3951435
0.2577855 0.1982343 0.4000388
0.4578971 0.2278973 0.4377665
0.5926513 0.2233790 0.4321080
0.6713949 0.2176943 0.4309980
0.7646449 0.1913487 0.3807731
0.8692664 0.1352178 0.3725715
0.9907805 0.1263022 0.3746191
0.0117511 0.2639579 0.3841974
0.0904472 0.2771709 0.3894693
0.2686779 0.3056929 0.4123115
0.4200119 0.3185398 0.4285460
0.5454252 0.3074028 0.4075590
0.6435092 0.2942697 0.3802942
0.7770911 0.2945065 0.3875123
0.8653567 0.2898253 0.3652872
0.9649237 0.2701180 0.3690258
0.0118830 0.3553033 0.3959487
0.0744289 0.3753798 0.4099827
0.2359416 0.4073544 0.4159629
0.4509665 0.4635779 0.4557863
0.5698043 0.4389287 0.4342271
0.6554629 0.4013041 0.4000259
0.7632296 0.3981708 0.3962803
0.8612540 0.3927751 0.4029352
0.9214907 0.3926660 0.3827859
0.0091397 0.4964498 0.3795811
0.0994181 0.4840057 0.3623662
0.1837222 0.4820696 0.3831318
0.3788916 0.5106569 0.3964387
0.5675031 0.5550477 0.4342227
0.6691244 0.5271642 0.4211962
0.8056505 0.5387987 0.4021233
0.8552855 0.5153036 0.3894520
0.9517800 0.5045694 0.4076505
0.0083387 0.6246190 0.3748163
0.1149561 0.6112809 0.3663450
0.1889918 0.5902895 0.3533019
0.3468367 0.5982706 0.3804296
0.4894116 0.6139030 0.3941067
0.6814061 0.6558204 0.4013184
0.7069318 0.5566044 0.3648926
0.8936468 0.6366128 0.4093773
0.9668709 0.6623192 0.4276285
0.0082877 0.7499883 0.3749963
0.1247034 0.7491786 0.3747422
0.2481735 0.7460710 0.3726827
0.3758218 0.7249880 0.3645746
0.4480785 0.6873902 0.3662177
0.6169602 0.7092673 0.3902399
0.7625524 0.7272063 0.4017445
0.8433696 0.7081690 0.4034810
0.9853305 0.7055036 0.4120389
0.0082859 0.8750000 0.3750000
0.1249998 0.8749988 0.3749997
0.2500140 0.8749336 0.3749771
0.3762508 0.8703468 0.3745461
0.4944193 0.8278630 0.3749541
0.5969490 0.8046039 0.4046697
0.7565534 0.8215318 0.4034632
0.8357113 0.7825326 0.3904760
0.9750306 0.7808901 0.4118966
0.0082859 0.9917141 0.3750000
0.1250000 0.9917141 0.3750000
0.2500001 0.9917139 0.3750000
0.3750248 0.9916347 0.3749989
0.5001715 0.9900985 0.3752052
0.6241624 0.9833415 0.3778782
0.7459445 0.9798506 0.3815032
0.8750308 0.9697177 0.3763957
0.9919370 0.9065166 0.4089655
0.0083946 0.0100243 0.4995106
0.1250727 0.0112995 0.4991204
0.2500268 0.0112920 0.4991289
0.3779605 0.0145703 0.4992205
0.5030970 0.0149086 0.4986377
0.6264826 0.0140110 0.4990397
0.7498313 0.0105147 0.4997556
0.8749454 0.0085254 0.5000188
0.9917117 0.0082913 0.5000010
0.0095912 0.1706933 0.4916624
0.1228564 0.1685053 0.4853801
0.2462251 0.1671990 0.4839437
0.3952780 0.1832857 0.5029258
0.5259264 0.1831020 0.5000597
0.6511145 0.1866276 0.4997773
0.7620799 0.1857923 0.5074577
0.8713840 0.1430153 0.5043582
0.9913045 0.1256205 0.5001596
0.0123399 0.3142326 0.5034881
0.0995447 0.2927770 0.4939057
0.2360896 0.3053257 0.4998016
0.4056359 0.3381677 0.5363126
0.5476295 0.3424141 0.5432128
0.6949447 0.3372103 0.5370604
0.7907000 0.3415497 0.5402474
0.8577898 0.3129708 0.5253347
0.9865553 0.2564518 0.4991989
0.0139593 0.3914839 0.5084757
0.0628396 0.4084802 0.5234277
0.2138791 0.4154438 0.5229967
0.4053342 0.4350334 0.5313013
0.5611697 0.4590258 0.5577713
0.6714495 0.4419317 0.5344394
0.7823865 0.4295083 0.5331665
0.8569190 0.4207161 0.5151553
0.9495621 0.4140724 0.4915903
0.0108619 0.4915601 0.5191459
0.0818800 0.4896663 0.5181671
0.2620561 0.4966212 0.5124188
0.3741604 0.5355065 0.5454739
0.5959222 0.6041610 0.5947686
0.6560351 0.5471505 0.5336151
0.7609330 0.5324587 0.5244420
0.8425034 0.5061216 0.5044892
0.9046502 0.4965776 0.4889497
0.0084975 0.6233234 0.5013207
0.1228904 0.6186329 0.5022631
0.2369577 0.6062830 0.5206934
0.3284068 0.6016027 0.5339092
0.4998314 0.6218718 0.5342276
0.6951782 0.6810497 0.5743410
0.7584333 0.6478831 0.5624467
0.8401678 0.6186463 0.5041642
0.9300497 0.6591355 0.5119202
0.0082868 0.7499909 0.5000046
0.1250391 0.7498172 0.5000879
0.2499603 0.7473365 0.5014522
0.3748091 0.7359748 0.5045614
0.4910359 0.7073324 0.4792374
0.6177326 0.7128838 0.5273727
0.7721617 0.7449993 0.5382953
0.6404172 0.5142459 0.3619577
0.9684598 0.7320762 0.5332007
0.0082859 0.8750000 0.5000000
0.1250001 0.8749997 0.5000001
0.2500121 0.8749834 0.5000046
0.3757185 0.8735614 0.4995502
0.5049484 0.8457016 0.4953312
0.6158149 0.7916200 0.4986824
0.7098528 0.7850906 0.5364958
0.8477165 0.8031913 0.5265902
0.9942538 0.7844149 0.5286573
0.0082859 0.9917141 0.5000000
0.1250000 0.9917141 0.5000000
0.2500001 0.9917141 0.5000000
0.3750109 0.9916916 0.4999962
0.5004663 0.9902023 0.4999391
0.6269995 0.9687958 0.5001972
0.7385162 0.9266905 0.5184565
0.8627119 0.9363033 0.5192539
0.9952708 0.8140671 0.5111656
0.0082878 0.0083670 0.6249617
0.1249933 0.0083844 0.6249426
0.2499963 0.0083708 0.6249430
0.3750211 0.0083861 0.6249627
0.5000621 0.0084435 0.6249596
0.6250540 0.0085232 0.6249461
0.7500309 0.0085210 0.6249468
0.8749916 0.0083521 0.6249889
0.9917131 0.0082881 0.6249996
0.0086706 0.1323420 0.6215860
0.1225361 0.1325773 0.6198310
0.2493101 0.1323065 0.6221688
0.3757108 0.1328689 0.6230168
0.5042187 0.1324438 0.6227908
0.6289759 0.1360412 0.6214270
0.7529135 0.1374059 0.6213048
0.8738304 0.1325493 0.6232664
0.9915236 0.1253296 0.6249554
0.0104263 0.3035669 0.5863538
0.1040292 0.2839841 0.5928453
0.2431507 0.3026352 0.5963971
0.3807062 0.3062340 0.6035420
0.5093942 0.2979678 0.6177957
0.6659356 0.3139249 0.6138399
0.7778116 0.3284656 0.6124635
0.8639492 0.3213203 0.6203393
0.9866887 0.2569620 0.6251165
0.0136702 0.4228033 0.5948961
0.0798279 0.4233520 0.5975519
0.2197627 0.4329068 0.6128938
0.3793039 0.4362058 0.6056664
0.5261472 0.4530617 0.6317819
0.6632034 0.4722830 0.6091185
0.7810019 0.4734740 0.6342784
0.8550014 0.4648964 0.6389478
0.9718527 0.4007072 0.6304046
0.0145750 0.5001054 0.6267505
0.0526209 0.5100235 0.6187344
0.2106978 0.5333570 0.6023995
0.3740625 0.5475403 0.6324227
0.5410668 0.5631753 0.6317704
0.6772962 0.5782616 0.6650184
0.7719754 0.5700702 0.6423550
0.8427355 0.5374186 0.6178076
0.9453948 0.5276147 0.6281819
0.0095346 0.6149858 0.6281635
0.1090183 0.6041225 0.6256524
0.1987632 0.5971731 0.6217936
0.3451261 0.6419779 0.6468463
0.5325046 0.6477258 0.6466413
0.7028656 0.7085847 0.6927862
0.7482513 0.6523709 0.6347814
0.8284359 0.6150654 0.6007162
0.8804550 0.6132762 0.6029053
0.0083052 0.7497284 0.6250535
0.1247483 0.7487629 0.6250628
0.2598875 0.7430191 0.6254671
0.4207363 0.7233878 0.6349054
0.5070553 0.7096342 0.6253683
0.6257507 0.7186227 0.6380914
0.7587420 0.7428409 0.6651013
0.8246312 0.7343215 0.6569571
0.8738647 0.6840670 0.5898275
0.0082859 0.8749997 0.6250001
0.1250090 0.8749946 0.6250007
0.2515630 0.8741388 0.6250974
0.3812557 0.8700239 0.6256039
0.5082855 0.8605002 0.6265990
0.6227971 0.8076921 0.6175841
0.7180887 0.7908074 0.6345305
0.8149806 0.8000939 0.6301968
0.9542683 0.7757367 0.6076017
0.0082859 0.9917141 0.6250000
0.1250001 0.9917141 0.6250000
0.2500194 0.9916990 0.6250019
0.3750862 0.9916140 0.6250198
0.5006387 0.9898922 0.6254057
0.6277504 0.9710169 0.6262217
0.7441929 0.9138377 0.6254377
0.8081983 0.8630491 0.6434779
0.9957989 0.8371595 0.6018424
0.0082859 0.0082867 0.7499995
0.1249998 0.0082868 0.7499992
0.2500000 0.0082867 0.7499996
0.3750000 0.0082867 0.7499996
0.5000003 0.0082867 0.7499996
0.6250003 0.0082872 0.7499993
0.7500002 0.0082873 0.7499992
0.8749999 0.0082867 0.7499996
0.9917141 0.0082859 0.7500000
0.0082905 0.1252469 0.7497855
0.1249661 0.1251424 0.7498502
0.2499857 0.1252271 0.7498209
0.3750122 0.1252296 0.7498412
0.4999967 0.1251050 0.7499381
0.6250944 0.1252321 0.7498754
0.7500602 0.1252969 0.7498457
0.8749762 0.1252573 0.7498869
0.9917033 0.1250240 0.7499913
0.0085724 0.2583761 0.7413688
0.1220681 0.2560235 0.7452982
0.2492444 0.2545089 0.7464893
0.3750280 0.2545611 0.7464606
0.5005603 0.2539368 0.7477397
0.6271294 0.2559152 0.7465326
0.7522295 0.2625902 0.7442045
0.8738191 0.2624415 0.7450767
0.9903691 0.2524300 0.7491844
0.0111637 0.4102523 0.7065163
0.1016835 0.4111683 0.7103186
0.2288546 0.4002301 0.7230452
0.3716934 0.4048462 0.7202352
0.5011017 0.4037501 0.7298250
0.6506011 0.4262999 0.7255867
0.7693077 0.4605964 0.7191749
0.8660663 0.4527871 0.7202543
0.9695525 0.4208485 0.7432984
0.0170674 0.5330814 0.6778522
0.0542962 0.5345008 0.6831581
0.2132178 0.5533912 0.7051454
0.3703324 0.5476362 0.6973971
0.5136898 0.5515472 0.7001857
0.6371951 0.5672233 0.7164906
0.7757036 0.5972415 0.7300217
0.8600659 0.5986314 0.7285516
0.9275109 0.5702958 0.7340546
0.0130524 0.6026506 0.7253181
0.0754650 0.5985867 0.7124717
0.2325628 0.6382603 0.7209136
0.3529397 0.6607410 0.7176409
0.5209986 0.6459634 0.6917680
0.6612504 0.6882913 0.7332950
0.7678786 0.6987877 0.7400833
0.8424176 0.6563665 0.7145106
0.9109720 0.6614822 0.7250294
0.0086958 0.7478335 0.7493324
0.1220037 0.7421764 0.7476221
0.2877871 0.7353776 0.7394851
0.5710852 0.6781334 0.6820284
0.4837530 0.7251927 0.7206842
0.6508057 0.7478206 0.7383047
0.7780374 0.7884935 0.7692264
0.8198996 0.7305882 0.7056555
0.8697148 0.6944525 0.6668696
0.0082882 0.8749885 0.7499988
0.1250707 0.8748857 0.7499819
0.2687507 0.8658149 0.7464303
0.4657688 0.8168691 0.7298028
0.5057287 0.8211436 0.7300101
0.5987245 0.7988362 0.7073615
0.7293920 0.7995570 0.7128863
0.8213948 0.8090190 0.7412109
0.8615921 0.7667703 0.6884858
0.0082859 0.9917141 0.7500000
0.1250101 0.9917082 0.7499986
0.2515174 0.9905677 0.7497371
0.3812664 0.9850913 0.7484816
0.5014994 0.9865527 0.7487430
0.6260734 0.9744440 0.7446640
0.7451102 0.9277331 0.7290735
0.8130141 0.8605711 0.7162961
0.9663706 0.8430871 0.6825176
0.0082859 0.0082859 0.8750000
0.1250000 0.0082859 0.8750000
0.2500000 0.0082859 0.8750000
0.3750000 0.0082859 0.8750000
0.5000000 0.0082859 0.8750000
0.6250000 0.0082859 0.8750000
0.7500000 0.0082859 0.8750000
0.8750000 0.0082859 0.8750000
0.9917141 0.0082859 0.8750000
0.0082859 0.1250010 0.8749990
0.1249998 0.1250006 0.8749995
0.2500000 0.1250002 0.8749997
0.3750000 0.1250003 0.8749998
0.5000000 0.1250002 0.8749999
0.6250002 0.1250004 0.8749997
0.7500001 0.1250013 0.8749992
0.8749999 0.1250012 0.8749993
0.9917140 0.1250002 0.8749999
0.0082899 0.2501046 0.8748453
0.1249599 0.2500852 0.8748939
0.2499806 0.2500483 0.8749496
0.3749953 0.2500505 0.8749468
0.5000011 0.2500236 0.8749783
0.6250488 0.2501156 0.8749205
0.7500418 0.2503163 0.8748024
0.8749810 0.2502946 0.8748109
0.9916662 0.2501559 0.8749325
0.0085393 0.3789112 0.8699302
0.1229467 0.3786250 0.8703073
0.2492397 0.3766465 0.8732213
0.3749299 0.3767211 0.8732038
0.5002089 0.3764998 0.8734185
0.6272401 0.3790907 0.8722277
0.7518806 0.3862502 0.8676280
0.8753166 0.3905304 0.8666698
0.9861056 0.3905893 0.8675641
0.0130313 0.5186890 0.8275619
0.0956312 0.5267533 0.8146926
0.2307943 0.5205640 0.8453019
0.3720543 0.5136642 0.8531328
0.5001718 0.5204632 0.8475674
0.6256586 0.5286203 0.8478798
0.7582357 0.5361373 0.8463726
0.8760180 0.5535362 0.8277308
0.9477783 0.5713567 0.8239452
0.0214405 0.6138203 0.8059447
0.0774071 0.6250642 0.7556642
0.1769097 0.6433926 0.7739199
0.3505826 0.6772829 0.7949650
0.5081930 0.6657431 0.7929835
0.6255308 0.6618395 0.7959523
0.7635073 0.6733276 0.8088093
0.8596079 0.6723888 0.7991301
0.9164665 0.6749907 0.8043857
0.0107787 0.7438685 0.8676422
0.1116804 0.7222120 0.8387953
0.2107916 0.7171580 0.8218503
0.3631031 0.7377990 0.7935382
0.5003114 0.7518360 0.7915522
0.6916078 0.8148118 0.8427193
0.7533965 0.7798845 0.8065482
0.8396351 0.7618538 0.7934612
0.8903017 0.7434500 0.7891033
0.0083210 0.8748593 0.8749168
0.1250668 0.8736815 0.8742177
0.2911402 0.8536741 0.8548250
0.5562014 0.7560354 0.7588072
0.5137753 0.8387229 0.8412363
0.6253527 0.8036656 0.8056523
0.7273982 0.8042111 0.7892901
0.8543164 0.8589253 0.8318607
0.8865333 0.7966160 0.7660899
0.0082859 0.9917140 0.8749999
0.1250235 0.9916993 0.8749913
0.2536470 0.9889588 0.8733282
0.3900594 0.9757999 0.8653443
0.5016309 0.9883819 0.8731472
0.6308393 0.9686153 0.8643408
0.7456017 0.8941754 0.8232868
0.8108681 0.8543926 0.7914060
0.9064338 0.8626602 0.7893921
0.0082859 0.0082859 0.9917141
0.1250000 0.0082859 0.9917141
0.2500000 0.0082859 0.9917141
0.3750000 0.0082859 0.9917141
0.5000000 0.0082859 0.9917141
0.6250000 0.0082859 0.9917141
0.7500000 0.0082859 0.9917141
0.8750000 0.0082859 0.9917141
0.9917141 0.0082859 0.9917141
0.0082859 0.1250000 0.9917141
0.1250000 0.1250000 0.9917141
0.2500000 0.1250000 0.9917141
0.3750000 0.1250000 0.9917141
0.5000000 0.1250000 0.9917141
0.6250000 0.1250000 0.9917141
0.7500000 0.1250000 0.9917141
0.8750000 0.1250000 0.9917141
0.9917141 0.1250000 0.9917141
0.0082859 0.2500002 0.9917139
0.1249999 0.2500002 0.9917139
0.2500000 0.2500001 0.9917141
0.3750000 0.2500000 0.9917141
0.5000000 0.2500000 0.9917141
0.6250002 0.2500004 0.9917138
0.7500001 0.2500013 0.9917131
0.8750002 0.2500036 0.9917117
0.9917131 0.2500041 0.9917115
0.0082908 0.3750514 0.9916335
0.1249699 0.3750692 0.9916106
0.2499770 0.3750389 0.9916672
0.3749987 0.3750110 0.9916992
0.5000001 0.3750172 0.9916939
0.6250101 0.3750300 0.9916812
0.7500161 0.3750800 0.9916252
0.8750457 0.3754764 0.9912649
0.9915235 0.3755375 0.9912099
0.0087400 0.5014211 0.9875131
0.1234148 0.5033448 0.9843532
0.2473523 0.5028469 0.9865475
0.3744655 0.5014329 0.9902014
0.5003255 0.5010772 0.9900912
0.6248070 0.5011206 0.9898809
0.7503491 0.5016130 0.9897640
0.8749946 0.5033446 0.9871361
0.9881834 0.5060438 0.9837428
0.0111378 0.6251531 0.9763110
0.1087399 0.6310097 0.9161724
0.2106158 0.6425353 0.9072841
0.3671804 0.6458194 0.9524435
0.4995176 0.6405154 0.9646502
0.6245781 0.6327190 0.9759453
0.7494376 0.6338149 0.9725552
0.8738422 0.6405875 0.9642408
0.9731748 0.6423687 0.9614540
0.0096222 0.7474931 0.9857311
0.1222231 0.7320227 0.9382037
0.2089705 0.7189571 0.8833175
0.3850692 0.7504830 0.9151737
0.4899080 0.7598574 0.8774536
0.6208653 0.7682440 0.9037259
0.7510067 0.7777914 0.9169959
0.8673265 0.7603454 0.9200495
0.9320530 0.7608759 0.8826358
0.0083061 0.8749309 0.9916364
0.1250766 0.8735687 0.9900001
0.2483540 0.8684157 0.9835421
0.3862843 0.8645851 0.9740583
0.5124967 0.8519676 0.9440086
0.6593615 0.8408891 0.8801105
0.7712787 0.8630425 0.8793625
0.8451509 0.8655552 0.8808965
0.8965987 0.8147277 0.8339942
0.0082859 0.9917141 0.9917141
0.1250011 0.9917096 0.9917107
0.2503019 0.9914846 0.9914882
0.3762498 0.9903922 0.9904116
0.5015175 0.9898655 0.9900128
0.6611339 0.9668327 0.9686221
0.7427633 0.8734486 0.8703882
0.8390490 0.8873924 0.8663156
0.9227914 0.9278399 0.8949036
