looks/recipe_pacific_blues.cube
TITLE "Fuji recipe Pacific Blues (16 RAFs)"
LUT_3D_SIZE 33
0.0244586 0.0305062 0.0253606
0.0413046 0.0352995 0.0269605
0.0659483 0.0334247 0.0217306
0.0859255 0.0281146 0.0144671
0.1052253 0.0237197 0.0088299
0.1259765 0.0229426 0.0062077
0.1430285 0.0232741 0.0044377
0.1515132 0.0223771 0.0031811
0.1596842 0.0211414 0.0025610
0.1926596 0.0246368 0.0025638
0.2634668 0.0383679 0.0025804
0.3182623 0.0507429 0.0024199
0.3553445 0.0585540 0.0021472
0.3877002 0.0639333 0.0018858
0.4099718 0.0645201 0.0020335
0.4406568 0.0681105 0.0021581
0.4838236 0.0771647 0.0022814
0.5199902 0.0848833 0.0023225
0.5504439 0.0911274 0.0023476
0.5791343 0.0964219 0.0023707
0.6073974 0.1007861 0.0024058
0.6316710 0.1013214 0.0026098
0.6514392 0.0907295 0.0032809
0.6822674 0.0728982 0.0043155
0.7230629 0.0587047 0.0052809
0.7590948 0.0439200 0.0062075
0.7955914 0.0289438 0.0070779
0.8338235 0.0181388 0.0077059
0.8703010 0.0124215 0.0080500
0.9042494 0.0099404 0.0082012
0.9366972 0.0088875 0.0082578
0.9679845 0.0084689 0.0082776
0.9916268 0.0083410 0.0082837
0.0199127 0.0389515 0.0245679
0.0378854 0.0478175 0.0298886
0.0624544 0.0516022 0.0288249
0.0849432 0.0482302 0.0214018
0.1059652 0.0423554 0.0139797
0.1270982 0.0386578 0.0097844
0.1468222 0.0372095 0.0071987
0.1621044 0.0367751 0.0054760
0.1763764 0.0366064 0.0041461
0.1974013 0.0357690 0.0032724
0.2420165 0.0399511 0.0026566
0.3050737 0.0526591 0.0022916
0.3501911 0.0616969 0.0020256
0.3842031 0.0674464 0.0018377
0.4103109 0.0711795 0.0018582
0.4392219 0.0763346 0.0019453
0.4799565 0.0852527 0.0020285
0.5163568 0.0930469 0.0020262
0.5480433 0.0996148 0.0020209
0.5775028 0.1051739 0.0020232
0.6058941 0.1097969 0.0020469
0.6299918 0.1110139 0.0022424
0.6509697 0.1035066 0.0028222
0.6838228 0.0918712 0.0036354
0.7201777 0.0817516 0.0045831
0.7539365 0.0678973 0.0056760
0.7914724 0.0532093 0.0067307
0.8309649 0.0428993 0.0075008
0.8681374 0.0371994 0.0079360
0.9028226 0.0341664 0.0081428
0.9360156 0.0326513 0.0082340
0.9677324 0.0320362 0.0082700
0.9915246 0.0318452 0.0082810
0.0149959 0.0563287 0.0256829
0.0305649 0.0664334 0.0297873
0.0545621 0.0730181 0.0322355
0.0812880 0.0723319 0.0286780
0.1057683 0.0678245 0.0215107
0.1281923 0.0637897 0.0150881
0.1530131 0.0624020 0.0107804
0.1771716 0.0632505 0.0080172
0.1984792 0.0644172 0.0060520
0.2177143 0.0610665 0.0045721
0.2477602 0.0566014 0.0033606
0.3017692 0.0641665 0.0027291
0.3430403 0.0711312 0.0024405
0.3765835 0.0759333 0.0022160
0.4039912 0.0784240 0.0022071
0.4353829 0.0850288 0.0023620
0.4734638 0.0930178 0.0023450
0.5101867 0.0998824 0.0022354
0.5447099 0.1060931 0.0021536
0.5760631 0.1111379 0.0021018
0.6051415 0.1155340 0.0020908
0.6300984 0.1175874 0.0022380
0.6546244 0.1147633 0.0027079
0.6905609 0.1107146 0.0033670
0.7203670 0.1042908 0.0041874
0.7507877 0.0932444 0.0052931
0.7886449 0.0822481 0.0064094
0.8275408 0.0745335 0.0072442
0.8646088 0.0691679 0.0077549
0.9005035 0.0656171 0.0080470
0.9349192 0.0637494 0.0081965
0.9672504 0.0629683 0.0082564
0.9912759 0.0626962 0.0082750
0.0135497 0.0806010 0.0233661
0.0235251 0.0857251 0.0255721
0.0438033 0.0917835 0.0311160
0.0718658 0.0939517 0.0335439
0.1000433 0.0912998 0.0293875
0.1261004 0.0870948 0.0221985
0.1553502 0.0842484 0.0153198
0.1859749 0.0844250 0.0102768
0.2149212 0.0868684 0.0071297
0.2433907 0.0887821 0.0053318
0.2764856 0.0894906 0.0041062
0.3134451 0.0936520 0.0034916
0.3441819 0.0971785 0.0032115
0.3757291 0.1002766 0.0029135
0.4043621 0.0980263 0.0028914
0.4422069 0.1028286 0.0029942
0.4796744 0.1083736 0.0029800
0.5175510 0.1138487 0.0028602
0.5504861 0.1170223 0.0027473
0.5790249 0.1170533 0.0026797
0.6076247 0.1191387 0.0026526
0.6347831 0.1216811 0.0027400
0.6629860 0.1228586 0.0030987
0.6968743 0.1234243 0.0036511
0.7227742 0.1202780 0.0043246
0.7519427 0.1141677 0.0052608
0.7882682 0.1088820 0.0062477
0.8242967 0.1041595 0.0070077
0.8610506 0.0998149 0.0075713
0.8982578 0.0967790 0.0079544
0.9335846 0.0951477 0.0081541
0.9664283 0.0943545 0.0082343
0.9908024 0.0940185 0.0082635
0.0117940 0.0961470 0.0139123
0.0203449 0.1007338 0.0198373
0.0387096 0.1108748 0.0313874
0.0617041 0.1150139 0.0362102
0.0878998 0.1141725 0.0355687
0.1172054 0.1099560 0.0305926
0.1517829 0.1050858 0.0227236
0.1896583 0.1037434 0.0155440
0.2267428 0.1055051 0.0103219
0.2609335 0.1095537 0.0072727
0.2964078 0.1142546 0.0053030
0.3324191 0.1196490 0.0041843
0.3662752 0.1244082 0.0035048
0.3946635 0.1276546 0.0030241
0.4280666 0.1318316 0.0029919
0.4676071 0.1394959 0.0032038
0.5002546 0.1430257 0.0034621
0.5403100 0.1482973 0.0034820
0.5666863 0.1465568 0.0034866
0.5876349 0.1376272 0.0036146
0.6144631 0.1339022 0.0037397
0.6431996 0.1329139 0.0037415
0.6734641 0.1342811 0.0039668
0.7026143 0.1356046 0.0043066
0.7276428 0.1349237 0.0047740
0.7569328 0.1334749 0.0054429
0.7894464 0.1323065 0.0062134
0.8229820 0.1304306 0.0069005
0.8596233 0.1284362 0.0074892
0.8967085 0.1270390 0.0078947
0.9318701 0.1261035 0.0081023
0.9652244 0.1255117 0.0082016
0.9901434 0.1252310 0.0082473
0.0130828 0.1148938 0.0136180
0.0246294 0.1216077 0.0242399
0.0400442 0.1318913 0.0362362
0.0552544 0.1344013 0.0377245
0.0764082 0.1355109 0.0384038
0.1053040 0.1346421 0.0377241
0.1415442 0.1302690 0.0327975
0.1833945 0.1265765 0.0251937
0.2293095 0.1258488 0.0172744
0.2696486 0.1314531 0.0135552
0.3069125 0.1352820 0.0095105
0.3442259 0.1392461 0.0063412
0.3838325 0.1437575 0.0045330
0.4157178 0.1465323 0.0034732
0.4506857 0.1527383 0.0030624
0.4879610 0.1623986 0.0030922
0.5192934 0.1699176 0.0033847
0.5566441 0.1780097 0.0035648
0.5791265 0.1784868 0.0039950
0.6009414 0.1736492 0.0047780
0.6258456 0.1674366 0.0053352
0.6507739 0.1590533 0.0052243
0.6786762 0.1552608 0.0051277
0.7057801 0.1535292 0.0052069
0.7331241 0.1533726 0.0055320
0.7639758 0.1543504 0.0060226
0.7937809 0.1550958 0.0065119
0.8258058 0.1556152 0.0070452
0.8607259 0.1560619 0.0075317
0.8954090 0.1562288 0.0078484
0.9300410 0.1562475 0.0080457
0.9640646 0.1562476 0.0081701
0.9895315 0.1562472 0.0082330
0.0172092 0.1479889 0.0201496
0.0312638 0.1493032 0.0298181
0.0415077 0.1485051 0.0346089
0.0491760 0.1477078 0.0334075
0.0673839 0.1546153 0.0391913
0.0948111 0.1610367 0.0442244
0.1313388 0.1602041 0.0438337
0.1741423 0.1549160 0.0376286
0.2223720 0.1531716 0.0300788
0.2660758 0.1609778 0.0267111
0.3069398 0.1613923 0.0184989
0.3457287 0.1602588 0.0110040
0.3898087 0.1619882 0.0067725
0.4330127 0.1658936 0.0046295
0.4774504 0.1711411 0.0036859
0.5177206 0.1797368 0.0033330
0.5504801 0.1889994 0.0033131
0.5750321 0.1944701 0.0033624
0.5933208 0.1973201 0.0040715
0.6188084 0.2004731 0.0054315
0.6373146 0.1989127 0.0062028
0.6549954 0.1931490 0.0063448
0.6790206 0.1867363 0.0062280
0.7057220 0.1801168 0.0061330
0.7348909 0.1780209 0.0063111
0.7684672 0.1793964 0.0066785
0.7998464 0.1807750 0.0070071
0.8310360 0.1821013 0.0073399
0.8623231 0.1833248 0.0076074
0.8947858 0.1845869 0.0078269
0.9292274 0.1858107 0.0080233
0.9635766 0.1866899 0.0081648
0.9892617 0.1871222 0.0082357
0.0183715 0.1863738 0.0224356
0.0326943 0.1784089 0.0257290
0.0430166 0.1670360 0.0259153
0.0489145 0.1621010 0.0278842
0.0604824 0.1694394 0.0366355
0.0821822 0.1827427 0.0466919
0.1147507 0.1899644 0.0512149
0.1579914 0.1857535 0.0480740
0.2090602 0.1859389 0.0456030
0.2584556 0.1910384 0.0408465
0.3017353 0.1892189 0.0306433
0.3431790 0.1810722 0.0179343
0.3875069 0.1791432 0.0101047
0.4445536 0.1849661 0.0065148
0.5069637 0.1938150 0.0048347
0.5553200 0.2017841 0.0040483
0.5864958 0.2085031 0.0036876
0.6001938 0.2094132 0.0034963
0.6163066 0.2122796 0.0041853
0.6350579 0.2149404 0.0056017
0.6468447 0.2159559 0.0063720
0.6601905 0.2167719 0.0067659
0.6813626 0.2165254 0.0069920
0.7118930 0.2152176 0.0071403
0.7432486 0.2134937 0.0073074
0.7749949 0.2130608 0.0074705
0.8059373 0.2119540 0.0075653
0.8351405 0.2108947 0.0076209
0.8643454 0.2115491 0.0077166
0.8960516 0.2135284 0.0078825
0.9300887 0.2156722 0.0080668
0.9640092 0.2172276 0.0082030
0.9894153 0.2180124 0.0082643
0.0147184 0.2239881 0.0185554
0.0318245 0.2126372 0.0186809
0.0478716 0.1981779 0.0210604
0.0570604 0.1882742 0.0267624
0.0626771 0.1865122 0.0332278
0.0733897 0.1966097 0.0421738
0.0955049 0.2124875 0.0520129
0.1305501 0.2176614 0.0543643
0.1874060 0.2183425 0.0549976
0.2479031 0.2249684 0.0552110
0.2920540 0.2283886 0.0496707
0.3336361 0.2112903 0.0306185
0.3758127 0.1974428 0.0161535
0.4396453 0.2025029 0.0102551
0.4998788 0.2116832 0.0078225
0.5543749 0.2199537 0.0064120
0.5933035 0.2269620 0.0052438
0.6116438 0.2297815 0.0047545
0.6465871 0.2351574 0.0051329
0.6646292 0.2345025 0.0060221
0.6736488 0.2348526 0.0065980
0.6824284 0.2384081 0.0070061
0.7018899 0.2462521 0.0076388
0.7364858 0.2570208 0.0084509
0.7653138 0.2599856 0.0088494
0.7881241 0.2563329 0.0086692
0.8122830 0.2497506 0.0082499
0.8386720 0.2440003 0.0079616
0.8674747 0.2426369 0.0079089
0.8989372 0.2442991 0.0080162
0.9321071 0.2464971 0.0081618
0.9650081 0.2481610 0.0082575
0.9898213 0.2490551 0.0082922
0.0120986 0.2633635 0.0145032
0.0329465 0.2541962 0.0168477
0.0547387 0.2401946 0.0220152
0.0678467 0.2252855 0.0270880
0.0741661 0.2154865 0.0322774
0.0795202 0.2175559 0.0404301
0.0908067 0.2330423 0.0522881
0.1110740 0.2479186 0.0600548
0.1549622 0.2550212 0.0627308
0.2240787 0.2580923 0.0642426
0.2821359 0.2582242 0.0588644
0.3199306 0.2430493 0.0417096
0.3514052 0.2192321 0.0244327
0.4127861 0.2249570 0.0165475
0.4565094 0.2316400 0.0141767
0.5111980 0.2392204 0.0121873
0.5619603 0.2493847 0.0094297
0.5843192 0.2546956 0.0080714
0.6458801 0.2598133 0.0070962
0.7009413 0.2642757 0.0068354
0.7255601 0.2677595 0.0072010
0.7336528 0.2719115 0.0076829
0.7472264 0.2814565 0.0086696
0.7711886 0.2937114 0.0099597
0.7873867 0.2964244 0.0102402
0.7993395 0.2919934 0.0096982
0.8170530 0.2855870 0.0089724
0.8417540 0.2796064 0.0084251
0.8707271 0.2766106 0.0081827
0.9019929 0.2768137 0.0081800
0.9342095 0.2782362 0.0082520
0.9661003 0.2795512 0.0082978
0.9903578 0.2803261 0.0083149
0.0119607 0.3033065 0.0138395
0.0349830 0.2969534 0.0182367
0.0609762 0.2854789 0.0240856
0.0798005 0.2701641 0.0283821
0.0921931 0.2582404 0.0363540
0.0990671 0.2548728 0.0466332
0.1035101 0.2608880 0.0565277
0.1138933 0.2772480 0.0674434
0.1371550 0.2927655 0.0730973
0.1882073 0.2949576 0.0716275
0.2639177 0.2855386 0.0623194
0.3203478 0.2728735 0.0473368
0.3467530 0.2551577 0.0321063
0.3945335 0.2671087 0.0263396
0.4319294 0.2661807 0.0234152
0.4670108 0.2585776 0.0181179
0.5069667 0.2630446 0.0134463
0.5353550 0.2686918 0.0113633
0.6050879 0.2771868 0.0099231
0.7011188 0.2864873 0.0084538
0.7489360 0.2906683 0.0082398
0.7659459 0.2943525 0.0086487
0.7782540 0.3023827 0.0095843
0.7960206 0.3137690 0.0110121
0.8033471 0.3173070 0.0111637
0.8070481 0.3160275 0.0103749
0.8198946 0.3140783 0.0094668
0.8433073 0.3121431 0.0087901
0.8726500 0.3106365 0.0084439
0.9040164 0.3100254 0.0083171
0.9357293 0.3104658 0.0083045
0.9670148 0.3112443 0.0083198
0.9908763 0.3117690 0.0083248
0.0109087 0.3388175 0.0121840
0.0346643 0.3345826 0.0156775
0.0645825 0.3273257 0.0214848
0.0918447 0.3173666 0.0294567
0.1122132 0.3082039 0.0421530
0.1232926 0.3064939 0.0567191
0.1259154 0.3088434 0.0669310
0.1293020 0.3173380 0.0762215
0.1385326 0.3285500 0.0814560
0.1646835 0.3354232 0.0811180
0.2254786 0.3291592 0.0720257
0.3041711 0.3229475 0.0592181
0.3591035 0.3220326 0.0482162
0.4064161 0.3233374 0.0408274
0.4412130 0.3202314 0.0390741
0.4602910 0.2944715 0.0282943
0.4881089 0.2796977 0.0180129
0.5190372 0.2818477 0.0139583
0.5793737 0.2928966 0.0125914
0.6689411 0.3018979 0.0105525
0.7246829 0.3052318 0.0096196
0.7676137 0.3082649 0.0094867
0.7921417 0.3151791 0.0102464
0.8069813 0.3244078 0.0114935
0.8098112 0.3296088 0.0115131
0.8101563 0.3337370 0.0106576
0.8209199 0.3379036 0.0097176
0.8436430 0.3408167 0.0089832
0.8731729 0.3422603 0.0085993
0.9048122 0.3425832 0.0084130
0.9365495 0.3427059 0.0083414
0.9676214 0.3430042 0.0083257
0.9912635 0.3432739 0.0083169
0.0095993 0.3722282 0.0101732
0.0336997 0.3697256 0.0121872
0.0655627 0.3653855 0.0167655
0.0964809 0.3592222 0.0253829
0.1223116 0.3565581 0.0403485
0.1400705 0.3662009 0.0614515
0.1463908 0.3726887 0.0795403
0.1481949 0.3722375 0.0887463
0.1520551 0.3673847 0.0893376
0.1652422 0.3733248 0.0896480
0.2065627 0.3856774 0.0875441
0.2864763 0.4043909 0.0850676
0.3718589 0.4137934 0.0763718
0.4295678 0.3809277 0.0582820
0.4570483 0.3630374 0.0516844
0.4724499 0.3446087 0.0414492
0.4951769 0.3170895 0.0256538
0.5264027 0.3052461 0.0165469
0.5662650 0.3094550 0.0141611
0.6130915 0.3182883 0.0132052
0.6636581 0.3234222 0.0121004
0.7411932 0.3251606 0.0104070
0.7836755 0.3302570 0.0103786
0.8001391 0.3375545 0.0112556
0.8046708 0.3442274 0.0112158
0.8075961 0.3529469 0.0105828
0.8200234 0.3621453 0.0099344
0.8433490 0.3686900 0.0092274
0.8730448 0.3724523 0.0088193
0.9048699 0.3740932 0.0086115
0.9367781 0.3745800 0.0084704
0.9678831 0.3746886 0.0083718
0.9914810 0.3747716 0.0083228
0.0089155 0.4049985 0.0090705
0.0330632 0.4037347 0.0102157
0.0652191 0.4018347 0.0135506
0.0974746 0.4001819 0.0213683
0.1259994 0.3993656 0.0357683
0.1466988 0.4027556 0.0562755
0.1573609 0.4048647 0.0762334
0.1638577 0.4060039 0.0896566
0.1713607 0.4062044 0.0947800
0.1849378 0.4131934 0.0949133
0.2282910 0.4403388 0.0983090
0.3144652 0.4735488 0.1033432
0.3947459 0.4773624 0.0951567
0.4423531 0.4284256 0.0700016
0.4663000 0.3929099 0.0538720
0.4852524 0.3828773 0.0450073
0.5058938 0.3662729 0.0326963
0.5373337 0.3414400 0.0187419
0.5650263 0.3326897 0.0140190
0.5929986 0.3390342 0.0141241
0.6347823 0.3465874 0.0140325
0.7084083 0.3515777 0.0119895
0.7590718 0.3568484 0.0108684
0.7824760 0.3621027 0.0109297
0.7930263 0.3685049 0.0108438
0.8020148 0.3783266 0.0105884
0.8182608 0.3889786 0.0103039
0.8429637 0.3972506 0.0098581
0.8729044 0.4027026 0.0096966
0.9046698 0.4052696 0.0093587
0.9365944 0.4060640 0.0089045
0.9678227 0.4061877 0.0085492
0.9915087 0.4062005 0.0083818
0.0086253 0.4370782 0.0086287
0.0326306 0.4366251 0.0093686
0.0645223 0.4357072 0.0117368
0.0968426 0.4343916 0.0175619
0.1265137 0.4316710 0.0283124
0.1501597 0.4282188 0.0436148
0.1670398 0.4261006 0.0613138
0.1801018 0.4285048 0.0789220
0.1927815 0.4367916 0.0912908
0.2081402 0.4515314 0.0970347
0.2372011 0.4715047 0.1024939
0.3122736 0.4998960 0.1066550
0.4120221 0.5234035 0.1067266
0.4546220 0.4965161 0.0878559
0.4700575 0.4414241 0.0593699
0.4878030 0.4121545 0.0432739
0.5071065 0.4009387 0.0329779
0.5368413 0.3828182 0.0194798
0.5654730 0.3716965 0.0136370
0.5949941 0.3737642 0.0141377
0.6254404 0.3790211 0.0154271
0.6701167 0.3857094 0.0143066
0.7240683 0.3929782 0.0121658
0.7609674 0.3970035 0.0111460
0.7805638 0.4012992 0.0110382
0.7966592 0.4089489 0.0111016
0.8172418 0.4185609 0.0112968
0.8433156 0.4274934 0.0118326
0.8730450 0.4337566 0.0120475
0.9042805 0.4363112 0.0109001
0.9361280 0.4370897 0.0095723
0.9675590 0.4373681 0.0087918
0.9913927 0.4374641 0.0084862
0.0084702 0.4686140 0.0084588
0.0322571 0.4683837 0.0088978
0.0637055 0.4676311 0.0102940
0.0955855 0.4658659 0.0136720
0.1260669 0.4625990 0.0200971
0.1534985 0.4582803 0.0303648
0.1770164 0.4547894 0.0449610
0.1973210 0.4558988 0.0629583
0.2160697 0.4654147 0.0808467
0.2301632 0.4788319 0.0939309
0.2506357 0.4928475 0.1032437
0.3169903 0.5181829 0.1088466
0.4199932 0.5503023 0.1125041
0.4527909 0.5419483 0.1001639
0.4549724 0.4984269 0.0732098
0.4766258 0.4606948 0.0500390
0.5002862 0.4472558 0.0361948
0.5288170 0.4373023 0.0233986
0.5630102 0.4257979 0.0152710
0.5970026 0.4206356 0.0139175
0.6234663 0.4198223 0.0144653
0.6514151 0.4250833 0.0138128
0.6933793 0.4336616 0.0122504
0.7392505 0.4381231 0.0114678
0.7699468 0.4403645 0.0121075
0.7932394 0.4446436 0.0129923
0.8176593 0.4518886 0.0144937
0.8443598 0.4590651 0.0158487
0.8730813 0.4636884 0.0147663
0.9037166 0.4661661 0.0122328
0.9356166 0.4675798 0.0101572
0.9672555 0.4683325 0.0090587
0.9912028 0.4686373 0.0086716
0.0083706 0.4999355 0.0083698
0.0319788 0.4997744 0.0085778
0.0630619 0.4992561 0.0092335
0.0946419 0.4980060 0.0108413
0.1258056 0.4956473 0.0142198
0.1558983 0.4921910 0.0205621
0.1844473 0.4890336 0.0312551
0.2109217 0.4890520 0.0468348
0.2315966 0.4926041 0.0653369
0.2439782 0.4983479 0.0841464
0.2605622 0.5092760 0.1003850
0.3151768 0.5318366 0.1112312
0.3888105 0.5533558 0.1120246
0.4107860 0.5486154 0.1016761
0.4211507 0.5318179 0.0852206
0.4581800 0.5223890 0.0690057
0.4915523 0.5125081 0.0514508
0.5248216 0.4982278 0.0338463
0.5602617 0.4856898 0.0221896
0.5946681 0.4746319 0.0161228
0.6237088 0.4677310 0.0130961
0.6510767 0.4698443 0.0119334
0.6860397 0.4766690 0.0116221
0.7298812 0.4806015 0.0125852
0.7650743 0.4812335 0.0148754
0.7927075 0.4818834 0.0167805
0.8186272 0.4847825 0.0185337
0.8449762 0.4884856 0.0184653
0.8730280 0.4921561 0.0159224
0.9034256 0.4955114 0.0127773
0.9353429 0.4979362 0.0105130
0.9670147 0.4992533 0.0093703
0.9909676 0.4997613 0.0089584
0.0083160 0.5312177 0.0083229
0.0318283 0.5311366 0.0084016
0.0627156 0.5308758 0.0086559
0.0941479 0.5302251 0.0093298
0.1256070 0.5288966 0.0109632
0.1570451 0.5268494 0.0146488
0.1882761 0.5248715 0.0221136
0.2168120 0.5232576 0.0346747
0.2374242 0.5207330 0.0520324
0.2472148 0.5201156 0.0734037
0.2513950 0.5256490 0.0954363
0.2724096 0.5363934 0.1096030
0.3109154 0.5481901 0.1126871
0.3401100 0.5509341 0.1063036
0.3825419 0.5539680 0.0955964
0.4396252 0.5578896 0.0812330
0.4853809 0.5544497 0.0635336
0.5246246 0.5474184 0.0482651
0.5573865 0.5394441 0.0350593
0.5896567 0.5288453 0.0231404
0.6225904 0.5179204 0.0143873
0.6542462 0.5155163 0.0111426
0.6890795 0.5181566 0.0114521
0.7282960 0.5181751 0.0131471
0.7625823 0.5158100 0.0153341
0.7914819 0.5144123 0.0171181
0.8182086 0.5154073 0.0185494
0.8449394 0.5178689 0.0178032
0.8732289 0.5216861 0.0152459
0.9036511 0.5257263 0.0125294
0.9353964 0.5286701 0.0106610
0.9668696 0.5302361 0.0097133
0.9907473 0.5308154 0.0092525
0.0082939 0.5624866 0.0083011
0.0317663 0.5624552 0.0083272
0.0625761 0.5623524 0.0084137
0.0939267 0.5620768 0.0086813
0.1254385 0.5614862 0.0094745
0.1572702 0.5605510 0.0117444
0.1889654 0.5591875 0.0171390
0.2179851 0.5565187 0.0270189
0.2399683 0.5516970 0.0423167
0.2513433 0.5462856 0.0629828
0.2555485 0.5440922 0.0849577
0.2685469 0.5483844 0.1013775
0.2962155 0.5585403 0.1104277
0.3241708 0.5639669 0.1096805
0.3639053 0.5693576 0.0998456
0.4207461 0.5749633 0.0831406
0.4775913 0.5775893 0.0664746
0.5236729 0.5774575 0.0542693
0.5561940 0.5736492 0.0410102
0.5874228 0.5677788 0.0274700
0.6213602 0.5612112 0.0172587
0.6557054 0.5571240 0.0119718
0.6908511 0.5555892 0.0111524
0.7264253 0.5527300 0.0121481
0.7590877 0.5492690 0.0135087
0.7886196 0.5475949 0.0147198
0.8166212 0.5482090 0.0157451
0.8446016 0.5502877 0.0152313
0.8736731 0.5537174 0.0135539
0.9042222 0.5573328 0.0118261
0.9356884 0.5599192 0.0106061
0.9668704 0.5612958 0.0098993
0.9906567 0.5618495 0.0093966
0.0082876 0.5937454 0.0082913
0.0317472 0.5937352 0.0083006
0.0625292 0.5937016 0.0083312
0.0938401 0.5936064 0.0084463
0.1252969 0.5933633 0.0088698
0.1569682 0.5927889 0.0101941
0.1884301 0.5914187 0.0134875
0.2180734 0.5883076 0.0200900
0.2428816 0.5826359 0.0315426
0.2607991 0.5752478 0.0480817
0.2765380 0.5704306 0.0676164
0.2969154 0.5720184 0.0864052
0.3177637 0.5758361 0.0981327
0.3422685 0.5793239 0.1005793
0.3800703 0.5868242 0.0947568
0.4278120 0.5949776 0.0809466
0.4748509 0.5986096 0.0637808
0.5208642 0.5997368 0.0504291
0.5564845 0.5988069 0.0384295
0.5883968 0.5970023 0.0270382
0.6213850 0.5950403 0.0182624
0.6551670 0.5927492 0.0127540
0.6896645 0.5901732 0.0105827
0.7233722 0.5872266 0.0106030
0.7552679 0.5846205 0.0113181
0.7855103 0.5834059 0.0120207
0.8148810 0.5837484 0.0126503
0.8442228 0.5851365 0.0125058
0.8741444 0.5874274 0.0117794
0.9048663 0.5898044 0.0109384
0.9361113 0.5915272 0.0102907
0.9670704 0.5925061 0.0097641
0.9907672 0.5929904 0.0092998
0.0082862 0.6249986 0.0082876
0.0317430 0.6249956 0.0082910
0.0625149 0.6249853 0.0083033
0.0937956 0.6249498 0.0083548
0.1251539 0.6248239 0.0085580
0.1566019 0.6244166 0.0091905
0.1879229 0.6232803 0.0108426
0.2182850 0.6206181 0.0145553
0.2462677 0.6157652 0.0216149
0.2720568 0.6095867 0.0329935
0.2975475 0.6044456 0.0486689
0.3212387 0.6013959 0.0650974
0.3437083 0.6005274 0.0766153
0.3706525 0.6027315 0.0814367
0.4083760 0.6102675 0.0805495
0.4424483 0.6164086 0.0711501
0.4766869 0.6199604 0.0550206
0.5182267 0.6228432 0.0408620
0.5572225 0.6245850 0.0316139
0.5903910 0.6251547 0.0238325
0.6221954 0.6251423 0.0170762
0.6548014 0.6246303 0.0123857
0.6881402 0.6232646 0.0099848
0.7208312 0.6215255 0.0094669
0.7524393 0.6200683 0.0097217
0.7832280 0.6193801 0.0100769
0.8136043 0.6194941 0.0104327
0.8439484 0.6201510 0.0105308
0.8745175 0.6212432 0.0103347
0.9054260 0.6224213 0.0099968
0.9365753 0.6233343 0.0097391
0.9674119 0.6239400 0.0093852
0.9910163 0.6243146 0.0090526
0.0082860 0.6562496 0.0082864
0.0317420 0.6562487 0.0082875
0.0625093 0.6562451 0.0082921
0.0937680 0.6562291 0.0083117
0.1250594 0.6561635 0.0083888
0.1563872 0.6559319 0.0086423
0.1876694 0.6552413 0.0093718
0.2186148 0.6535894 0.0111597
0.2490816 0.6505719 0.0149205
0.2793450 0.6462650 0.0217788
0.3086289 0.6411073 0.0319265
0.3371533 0.6365806 0.0436416
0.3656431 0.6342871 0.0538953
0.3929651 0.6342231 0.0594048
0.4243836 0.6377122 0.0597140
0.4521589 0.6414425 0.0533678
0.4826361 0.6457074 0.0414433
0.5202968 0.6500828 0.0304472
0.5589128 0.6531162 0.0241477
0.5919051 0.6545555 0.0192302
0.6231183 0.6553208 0.0146647
0.6550367 0.6557270 0.0114507
0.6873057 0.6555560 0.0097096
0.7193522 0.6548570 0.0089897
0.7508768 0.6541660 0.0089033
0.7819874 0.6538132 0.0090557
0.8129134 0.6537779 0.0092322
0.8438117 0.6539685 0.0093424
0.8747658 0.6543465 0.0093182
0.9058287 0.6548074 0.0092306
0.9369817 0.6551946 0.0091408
0.9677602 0.6555215 0.0089511
0.9912778 0.6557578 0.0087935
0.0082859 0.6874999 0.0082860
0.0317417 0.6874996 0.0082864
0.0625067 0.6874983 0.0082877
0.0937556 0.6874920 0.0082937
0.1250190 0.6874642 0.0083183
0.1562967 0.6873593 0.0084074
0.1875744 0.6870367 0.0086857
0.2188584 0.6862494 0.0094349
0.2502575 0.6846765 0.0111947
0.2816577 0.6819931 0.0146319
0.3129616 0.6783085 0.0201076
0.3444152 0.6744776 0.0272918
0.3738892 0.6712242 0.0341585
0.4015276 0.6697679 0.0379432
0.4310962 0.6709697 0.0381440
0.4596066 0.6735271 0.0345397
0.4902227 0.6773804 0.0277243
0.5248662 0.6813535 0.0212100
0.5605637 0.6840739 0.0174487
0.5928161 0.6854509 0.0146806
0.6239970 0.6863249 0.0122428
0.6555623 0.6869238 0.0105752
0.6871769 0.6871747 0.0095331
0.7187419 0.6870765 0.0088757
0.7501930 0.6868150 0.0086175
0.7814545 0.6866313 0.0086238
0.8126141 0.6865617 0.0086813
0.8437555 0.6865802 0.0087235
0.8748981 0.6866797 0.0087383
0.9060643 0.6868165 0.0087348
0.9372573 0.6869494 0.0086956
0.9680150 0.6870965 0.0086193
0.9914809 0.6872069 0.0085748
0.0082859 0.7187500 0.0082859
0.0317416 0.7187499 0.0082860
0.0625059 0.7187495 0.0082863
0.0937514 0.7187474 0.0082879
0.1250053 0.7187378 0.0082948
0.1562650 0.7187001 0.0083218
0.1875418 0.7185804 0.0084142
0.2188792 0.7182642 0.0086905
0.2503206 0.7175463 0.0093849
0.2819176 0.7162006 0.0108349
0.3137816 0.7141486 0.0133874
0.3452103 0.7114899 0.0169172
0.3750122 0.7089041 0.0202608
0.4042844 0.7076838 0.0220921
0.4347530 0.7081636 0.0222646
0.4649686 0.7096529 0.0208048
0.4961954 0.7120669 0.0179201
0.5287263 0.7145832 0.0147886
0.5617080 0.7163341 0.0127522
0.5933986 0.7172501 0.0114906
0.6246528 0.7178311 0.0105778
0.6559813 0.7182373 0.0098570
0.6872962 0.7184820 0.0092134
0.7186306 0.7185802 0.0087442
0.7499706 0.7185441 0.0085394
0.7812454 0.7184795 0.0085011
0.8124771 0.7184427 0.0085000
0.8437077 0.7184260 0.0084961
0.8749309 0.7184428 0.0084952
0.9061602 0.7184744 0.0084833
0.9373940 0.7185157 0.0084559
0.9681558 0.7185674 0.0084308
0.9916094 0.7186037 0.0084211
0.0082859 0.7500000 0.0082859
0.0317416 0.7500000 0.0082859
0.0625056 0.7499999 0.0082860
0.0937503 0.7499993 0.0082863
0.1250013 0.7499966 0.0082880
0.1562551 0.7499856 0.0082952
