looks/recipe_portra400.cube
TITLE "Fuji recipe Portra 400 (16 RAFs)"
LUT_3D_SIZE 5
0.0175219 0.0176277 0.0147638
0.1784467 0.0202516 0.0178487
0.5392229 0.0535742 0.0508681
0.7369347 0.0475545 0.0453658
0.9916326 0.0083409 0.0083350
0.0242310 0.2252717 0.0133823
0.2438154 0.2240698 0.0370693
0.5812417 0.2279822 0.0515040
0.7543555 0.2730272 0.0448878
0.9899108 0.2497421 0.0100765
0.0083576 0.4999053 0.0083177
0.2789344 0.4819075 0.0144989
0.5186487 0.4913903 0.0438007
0.7476653 0.4710638 0.0313939
0.9789350 0.5020620 0.0310594
0.0082859 0.7500000 0.0082859
0.2502950 0.7495309 0.0083690
0.4989229 0.7146302 0.0175950
0.7495257 0.7495859 0.0088514
0.9914271 0.7492714 0.0091176
0.0082859 0.9917141 0.0082859
0.2500000 0.9917141 0.0082859
0.5000002 0.9917134 0.0082861
0.7500004 0.9917079 0.0082916
0.9917111 0.9917095 0.0082912
0.0218388 0.0632175 0.2478476
0.2521620 0.0393928 0.2418223
0.5120465 0.0450418 0.2672628
0.7498975 0.0153795 0.2475074
0.9916065 0.0084075 0.2499670
0.0178801 0.2364578 0.2733434
0.3072823 0.3231958 0.3118945
0.5353388 0.2688451 0.2667985
0.7761260 0.2708707 0.2645923
0.9406670 0.2737174 0.2593323
0.0087940 0.4990394 0.2499886
0.1499417 0.4748231 0.2406508
0.5561056 0.5317490 0.2709518
0.8105761 0.5186916 0.2683457
0.9554725 0.5378405 0.2649550
0.0082882 0.7499773 0.2499997
0.2427345 0.7338238 0.2492326
0.4344473 0.6741807 0.2620773
0.7149580 0.6835577 0.2806450
0.9888522 0.6799634 0.2986574
0.0082859 0.9917141 0.2500000
0.2500001 0.9917139 0.2500000
0.4999027 0.9909631 0.2502107
0.7503282 0.9852202 0.2509235
0.9752127 0.9660305 0.2579591
0.0082937 0.0100835 0.4996271
0.2502320 0.0107073 0.4992912
0.5035086 0.0139448 0.4986357
0.7499706 0.0098557 0.4999546
0.9917133 0.0082874 0.5000001
0.0127319 0.3277923 0.5110792
0.2509105 0.3274011 0.5188395
0.5471169 0.3434744 0.5308599
0.7876121 0.3442018 0.5301707
0.9874907 0.2553357 0.5005797
0.0114741 0.4916015 0.5238185
0.2728439 0.5064757 0.5134110
0.5934719 0.6088871 0.5872076
0.7602249 0.5345557 0.5175442
0.9164577 0.4969515 0.4862948
0.0082893 0.7499774 0.5000097
0.2504593 0.7458122 0.5029498
0.4914841 0.7063845 0.4937657
0.7664583 0.7416435 0.5398611
0.9531763 0.7357781 0.5307472
0.0082859 0.9917141 0.5000000
0.2500001 0.9917140 0.5000000
0.5005378 0.9898748 0.4997365
0.7375677 0.9028400 0.5259317
0.9987379 0.8239540 0.5076949
0.0082859 0.0082867 0.7499995
0.2500000 0.0082861 0.7499999
0.5000001 0.0082861 0.7499999
0.7500001 0.0082871 0.7499992
0.9917141 0.0082859 0.7500000
0.0085647 0.2581616 0.7418730
0.2496851 0.2547905 0.7470806
0.5003104 0.2521535 0.7489174
0.7523693 0.2574901 0.7459144
0.9911989 0.2510422 0.7496657
0.0163320 0.5345258 0.6716093
0.2349125 0.5412728 0.7039060
0.5235358 0.5737655 0.7149076
0.7766953 0.6005552 0.7217579
0.9281133 0.5786127 0.7310527
0.0090373 0.7467139 0.7486607
0.2752342 0.7376187 0.7400885
0.4835725 0.7296521 0.7171664
0.7684857 0.7891619 0.7504602
0.8845203 0.7231014 0.6944227
0.0082859 0.9917141 0.7500000
0.2525989 0.9897842 0.7494476
0.5012762 0.9866282 0.7484311
0.7450283 0.9080262 0.7189916
0.9381723 0.8406925 0.6730497
0.0082859 0.0082859 0.9917141
0.2500000 0.0082859 0.9917141
0.5000000 0.0082859 0.9917141
0.7500000 0.0082859 0.9917141
0.9917141 0.0082859 0.9917141
0.0082859 0.2500000 0.9917141
0.2500000 0.2500000 0.9917141
0.5000000 0.2500000 0.9917141
0.7500002 0.2500008 0.9917135
0.9917139 0.2500010 0.9917135
0.0086363 0.5009329 0.9890855
0.2487547 0.5013748 0.9893075
0.5001199 0.5003790 0.9912366
0.7501253 0.5005126 0.9910240
0.9906428 0.5018981 0.9892792
0.0089955 0.7488989 0.9886936
0.2022511 0.7218213 0.8699480
0.4957630 0.7595324 0.9220855
0.7545878 0.7842481 0.9386463
0.9503333 0.7650082 0.9116359
0.0082859 0.9917140 0.9917140
0.2500817 0.9916433 0.9916406
0.5015878 0.9888614 0.9886282
0.7819815 0.9138584 0.8869653
0.9107754 0.9305922 0.8674336
