looks/recipe_eterna_bleach.cube
TITLE "Fuji recipe Eterna Cinema (16 RAFs)"
LUT_3D_SIZE 33
0.0215853 0.0221050 0.0215470
0.0333355 0.0305825 0.0302390
0.0518323 0.0421653 0.0423524
0.0707754 0.0543393 0.0550272
0.0889705 0.0661355 0.0673684
0.1103053 0.0801640 0.0819532
0.1339583 0.0957159 0.0981561
0.1568564 0.1106124 0.1134923
0.1729203 0.1172860 0.1203933
0.1862585 0.1129537 0.1159428
0.2106851 0.1155896 0.1178745
0.2586098 0.1425886 0.1449980
0.3146073 0.1773276 0.1804301
0.3702970 0.2106405 0.2144369
0.4149632 0.2367545 0.2413738
0.4512731 0.2576893 0.2631247
0.4824701 0.2758205 0.2819049
0.5106223 0.2917928 0.2985066
0.5374326 0.3065612 0.3140044
0.5628654 0.3195610 0.3278194
0.5855606 0.3206836 0.3292679
0.6064954 0.2883440 0.2959000
0.6408845 0.2406287 0.2466851
0.6872716 0.2214106 0.2275242
0.7238349 0.2247814 0.2314218
0.7520310 0.2245901 0.2312820
0.7785202 0.1979355 0.2037991
0.8118619 0.1446525 0.1488681
0.8522215 0.0874419 0.0898880
0.8936742 0.0458307 0.0469886
0.9319865 0.0232995 0.0237602
0.9662422 0.0135413 0.0137015
0.9909822 0.0101664 0.0102232
0.0230962 0.0268744 0.0227555
0.0338555 0.0345282 0.0309599
0.0508092 0.0459297 0.0423891
0.0699976 0.0583075 0.0547938
0.0906537 0.0713294 0.0684022
0.1119690 0.0849247 0.0827092
0.1340415 0.0991578 0.0979406
0.1556722 0.1131635 0.1124643
0.1712785 0.1209351 0.1205286
0.1842718 0.1215890 0.1209838
0.2136464 0.1328434 0.1305567
0.2581900 0.1588812 0.1577632
0.3095240 0.1911273 0.1913919
0.3621036 0.2233835 0.2244436
0.4047054 0.2491553 0.2511457
0.4421441 0.2719530 0.2748075
0.4763956 0.2931248 0.2966837
0.5064411 0.3113423 0.3155610
0.5342389 0.3277873 0.3328077
0.5600435 0.3420897 0.3479756
0.5822935 0.3440792 0.3497402
0.6036707 0.3149913 0.3175954
0.6392694 0.2793022 0.2780862
0.6828231 0.2769009 0.2750433
0.7175850 0.2877560 0.2864526
0.7448605 0.2884037 0.2867501
0.7701925 0.2569737 0.2525250
0.8041045 0.1942141 0.1844482
0.8467776 0.1275981 0.1121924
0.8905455 0.0793539 0.0598767
0.9302841 0.0523323 0.0305885
0.9653856 0.0398239 0.0170331
0.9905316 0.0351576 0.0119772
0.0284131 0.0388490 0.0275539
0.0387858 0.0453160 0.0350097
0.0538133 0.0550571 0.0449631
0.0719420 0.0661916 0.0561491
0.0922364 0.0785096 0.0687168
0.1136845 0.0920980 0.0823923
0.1388336 0.1087331 0.0991827
0.1671159 0.1274369 0.1178499
0.1899124 0.1401745 0.1307815
0.2066539 0.1454914 0.1360894
0.2416103 0.1659649 0.1538093
0.2738290 0.1833310 0.1733952
0.3113123 0.2046033 0.1963463
0.3505345 0.2255172 0.2184013
0.3846432 0.2435911 0.2390679
0.4235303 0.2665603 0.2634717
0.4649735 0.2917799 0.2893045
0.4999838 0.3127055 0.3107774
0.5306960 0.3305807 0.3295405
0.5582160 0.3457216 0.3457554
0.5808713 0.3494400 0.3487693
0.6050063 0.3314092 0.3262320
0.6438313 0.3167571 0.3067705
0.6819320 0.3239196 0.3129724
0.7135880 0.3370973 0.3266525
0.7408748 0.3388903 0.3275441
0.7655767 0.3056317 0.2887816
0.7995678 0.2393055 0.2121285
0.8433055 0.1703598 0.1324153
0.8879810 0.1203167 0.0746492
0.9284537 0.0907524 0.0406114
0.9641439 0.0756251 0.0232418
0.9896222 0.0689579 0.0156235
0.0393838 0.0582676 0.0371299
0.0472082 0.0606266 0.0423427
0.0585599 0.0667087 0.0494422
0.0742034 0.0755574 0.0585885
0.0944930 0.0869103 0.0704580
0.1157846 0.0997839 0.0834410
0.1409349 0.1161104 0.0994340
0.1734201 0.1378525 0.1204703
0.2054465 0.1586569 0.1406119
0.2340025 0.1762629 0.1573406
0.2678538 0.1979287 0.1763186
0.2970013 0.2131156 0.1901554
0.3300089 0.2296038 0.2056159
0.3576704 0.2367361 0.2132351
0.3853739 0.2447967 0.2255233
0.4218172 0.2602088 0.2415998
0.4659454 0.2810365 0.2607883
0.5033211 0.2994404 0.2785006
0.5338932 0.3125030 0.2926705
0.5615550 0.3230931 0.3064558
0.5858023 0.3285375 0.3122791
0.6121176 0.3246958 0.3050470
0.6491035 0.3267109 0.3038284
0.6836673 0.3377078 0.3143415
0.7145255 0.3505874 0.3276649
0.7437532 0.3541254 0.3298886
0.7690531 0.3243273 0.2923910
0.8022113 0.2642900 0.2180491
0.8442563 0.2026001 0.1416286
0.8873572 0.1577791 0.0862338
0.9271470 0.1305641 0.0527311
0.9625134 0.1135894 0.0321182
0.9882618 0.1041707 0.0207917
0.0439756 0.0722053 0.0407994
0.0517646 0.0723704 0.0461747
0.0644986 0.0796658 0.0550724
0.0780981 0.0876140 0.0630000
0.0951341 0.0957360 0.0719927
0.1154739 0.1066113 0.0834270
0.1401167 0.1217231 0.0984190
0.1731468 0.1437240 0.1197369
0.2102372 0.1689184 0.1439633
0.2473337 0.1942280 0.1679708
0.2833271 0.2187194 0.1904181
0.3164681 0.2401291 0.2098131
0.3488657 0.2587930 0.2268698
0.3758828 0.2682419 0.2342737
0.4022227 0.2754442 0.2406077
0.4325727 0.2797117 0.2394303
0.4787738 0.2942532 0.2464183
0.5163377 0.3066369 0.2547360
0.5416853 0.3047714 0.2523229
0.5668468 0.2984596 0.2498681
0.5933233 0.2981659 0.2507270
0.6219438 0.3025261 0.2558394
0.6551604 0.3113367 0.2649324
0.6880189 0.3221408 0.2758602
0.7193325 0.3332517 0.2871946
0.7498655 0.3379088 0.2903815
0.7767812 0.3172926 0.2617741
0.8096209 0.2739817 0.2037152
0.8488278 0.2278072 0.1421014
0.8886866 0.1932570 0.0961991
0.9258993 0.1696334 0.0652394
0.9607031 0.1506764 0.0409301
0.9869443 0.1387046 0.0257004
0.0417272 0.0900525 0.0386803
0.0547545 0.0892040 0.0475003
0.0723710 0.0962275 0.0609985
0.0860535 0.1036957 0.0703657
0.0980755 0.1087560 0.0759077
0.1129701 0.1150594 0.0826592
0.1350399 0.1267481 0.0948612
0.1669876 0.1466693 0.1148863
0.2063268 0.1727620 0.1399510
0.2508862 0.2028258 0.1680603
0.2914018 0.2312404 0.1954752
0.3285347 0.2570617 0.2201307
0.3647257 0.2815799 0.2431893
0.3982502 0.3019823 0.2622523
0.4222203 0.3113298 0.2705931
0.4486150 0.3171020 0.2700752
0.4946235 0.3398966 0.2837079
0.5273359 0.3499961 0.2873071
0.5457897 0.3351161 0.2652533
0.5690857 0.3103749 0.2324357
0.5975865 0.2927864 0.2078763
0.6280506 0.2870423 0.2033985
0.6598373 0.2883834 0.2066800
0.6927810 0.2918259 0.2090272
0.7265950 0.2976778 0.2133713
0.7589387 0.3026549 0.2168871
0.7882167 0.2948951 0.2036800
0.8200126 0.2728791 0.1710881
0.8554272 0.2465460 0.1329056
0.8913020 0.2249771 0.1019074
0.9256871 0.2042195 0.0731789
0.9598789 0.1841322 0.0459423
0.9863513 0.1712006 0.0284644
0.0385647 0.1240003 0.0358113
0.0587314 0.1182582 0.0485055
0.0775192 0.1143687 0.0628362
0.0922549 0.1177757 0.0751541
0.1062060 0.1253405 0.0836528
0.1201934 0.1327183 0.0900734
0.1353364 0.1381927 0.0960911
0.1595852 0.1493328 0.1076940
0.1963558 0.1710699 0.1276821
0.2440547 0.2021452 0.1549119
0.2884444 0.2343014 0.1878793
0.3296886 0.2636828 0.2174449
0.3678759 0.2915954 0.2445220
0.4048912 0.3177924 0.2697898
0.4386279 0.3376162 0.2894469
0.4686373 0.3508809 0.3010755
0.5062662 0.3739029 0.3190857
0.5337062 0.3858569 0.3260235
0.5515138 0.3773746 0.3077003
0.5762041 0.3600067 0.2745373
0.6061524 0.3356384 0.2323389
0.6359286 0.3108997 0.1969686
0.6659052 0.2925597 0.1735433
0.6966419 0.2786261 0.1534599
0.7324618 0.2733881 0.1434067
0.7671702 0.2765014 0.1449428
0.7985536 0.2771847 0.1433781
0.8294355 0.2704332 0.1314551
0.8628830 0.2626683 0.1178442
0.8948632 0.2512252 0.1001458
0.9269076 0.2330914 0.0738299
0.9604126 0.2140811 0.0464723
0.9866285 0.2019167 0.0289647
0.0364484 0.1657846 0.0335229
0.0585973 0.1504088 0.0458051
0.0776367 0.1318313 0.0597496
0.0914254 0.1262250 0.0726629
0.1106310 0.1375603 0.0877913
0.1318594 0.1535531 0.1009535
0.1458798 0.1599911 0.1050415
0.1621502 0.1627181 0.1059941
0.1902708 0.1753766 0.1167028
0.2280101 0.1979914 0.1358936
0.2734396 0.2297002 0.1691829
0.3208285 0.2632198 0.2034705
0.3608398 0.2946438 0.2349587
0.3995032 0.3236801 0.2642097
0.4391035 0.3476134 0.2878547
0.4746721 0.3629939 0.3022608
0.5094298 0.3827432 0.3195660
0.5417868 0.4046292 0.3421345
0.5681902 0.4168371 0.3500567
0.5945271 0.4168420 0.3366703
0.6231156 0.4016380 0.2997912
0.6529199 0.3718174 0.2444859
0.6830483 0.3379636 0.1892205
0.7102476 0.3040288 0.1396958
0.7402560 0.2829579 0.1106628
0.7730538 0.2782659 0.1037869
0.8045578 0.2772654 0.1017935
0.8349057 0.2753574 0.0978981
0.8669901 0.2765366 0.0979212
0.8974027 0.2704944 0.0878984
0.9286831 0.2561606 0.0657729
0.9616655 0.2409384 0.0423042
0.9874157 0.2312960 0.0274168
0.0319892 0.2035759 0.0293408
0.0547021 0.1818355 0.0400186
0.0761929 0.1563848 0.0536838
0.0921698 0.1440860 0.0682892
0.1125332 0.1510085 0.0875868
0.1372817 0.1686540 0.1069455
0.1545677 0.1801280 0.1145230
0.1692671 0.1852478 0.1134969
0.1926145 0.1935229 0.1204081
0.2207225 0.2079400 0.1342672
0.2614151 0.2347626 0.1599198
0.3125939 0.2670840 0.1908070
0.3589076 0.3003392 0.2224718
0.3976934 0.3300368 0.2548380
0.4347790 0.3524788 0.2786945
0.4709963 0.3695791 0.2937915
0.5048609 0.3846230 0.3041870
0.5508425 0.4135361 0.3361882
0.5892098 0.4437346 0.3705361
0.6195263 0.4600309 0.3809186
0.6478329 0.4600198 0.3618496
0.6784210 0.4437250 0.3161635
0.7041352 0.4089117 0.2514577
0.7278665 0.3675298 0.1844594
0.7538677 0.3340158 0.1335746
0.7817696 0.3127309 0.1039731
0.8093254 0.2974430 0.0844097
0.8381075 0.2894557 0.0736301
0.8694315 0.2888707 0.0726735
0.8999608 0.2848191 0.0657945
0.9312462 0.2755823 0.0504211
0.9635685 0.2659364 0.0343492
0.9885538 0.2598366 0.0241920
0.0250984 0.2428782 0.0232094
0.0487709 0.2226679 0.0317787
0.0753722 0.1978657 0.0457573
0.0979305 0.1801218 0.0643511
0.1182936 0.1755195 0.0857400
0.1406765 0.1847477 0.1085876
0.1593817 0.1964833 0.1222860
0.1762768 0.2067243 0.1252621
0.2000354 0.2171389 0.1299346
0.2316092 0.2343099 0.1421399
0.2765665 0.2612625 0.1650986
0.3191608 0.2837682 0.1849318
0.3614048 0.3118332 0.2114110
0.3968137 0.3374454 0.2383917
0.4285542 0.3544097 0.2549689
0.4614362 0.3685111 0.2667942
0.5003109 0.3850273 0.2800437
0.5621390 0.4212021 0.3187359
0.6077636 0.4570755 0.3628281
0.6458154 0.4874189 0.3939340
0.6813784 0.5080791 0.4040645
0.7066506 0.5057353 0.3822565
0.7266299 0.4832551 0.3335230
0.7444580 0.4453958 0.2653084
0.7663735 0.4077099 0.2010593
0.7903606 0.3733204 0.1474362
0.8136135 0.3408951 0.1001651
0.8401408 0.3182405 0.0677866
0.8709459 0.3075071 0.0531023
0.9021969 0.3020158 0.0445912
0.9336886 0.2966079 0.0350920
0.9653849 0.2914126 0.0259146
0.9896555 0.2882586 0.0202873
0.0182679 0.2864752 0.0171865
0.0433052 0.2714786 0.0239532
0.0746371 0.2499760 0.0371928
0.1031986 0.2290592 0.0568666
0.1285527 0.2149597 0.0821995
0.1494686 0.2103602 0.1075185
0.1682349 0.2164145 0.1286682
0.1892653 0.2321236 0.1426697
0.2131869 0.2503690 0.1480921
0.2435889 0.2676404 0.1521920
0.2812188 0.2808422 0.1631122
0.3137121 0.2965472 0.1777143
0.3498955 0.3212758 0.2037181
0.3863316 0.3461957 0.2224284
0.4140292 0.3617362 0.2316418
0.4397494 0.3697466 0.2379097
0.4829186 0.3877305 0.2613360
0.5532136 0.4260988 0.2999838
0.6102963 0.4660969 0.3445506
0.6645032 0.5082796 0.3920232
0.7060786 0.5383390 0.4217218
0.7327958 0.5512671 0.4288803
0.7477805 0.5421690 0.4022821
0.7603354 0.5153048 0.3470380
0.7760053 0.4767908 0.2766339
0.7952831 0.4374089 0.2097828
0.8150594 0.3967474 0.1443087
0.8403137 0.3613545 0.0880992
0.8710430 0.3391150 0.0530422
0.9030720 0.3290762 0.0369338
0.9346558 0.3235191 0.0277939
0.9661450 0.3193674 0.0207583
0.9902303 0.3172577 0.0169133
0.0135672 0.3293664 0.0130422
0.0391820 0.3193828 0.0179690
0.0726130 0.3028782 0.0285196
0.1056643 0.2830198 0.0464520
0.1352642 0.2628761 0.0713156
0.1591282 0.2472246 0.0995376
0.1800727 0.2442641 0.1275072
0.2052587 0.2591416 0.1547659
0.2306013 0.2811839 0.1704209
0.2492097 0.2898723 0.1659255
0.2668810 0.2833343 0.1559376
0.2968587 0.2970788 0.1640102
0.3449120 0.3309466 0.1968413
0.3795854 0.3537726 0.2120706
0.4053387 0.3697934 0.2247780
0.4276107 0.3768155 0.2312436
0.4599031 0.3880193 0.2549004
0.5042272 0.4111939 0.2779480
0.5622551 0.4487919 0.3108157
0.6389585 0.4961941 0.3572078
0.7034297 0.5374170 0.3993303
0.7429437 0.5681978 0.4344088
0.7610665 0.5743226 0.4328081
0.7712615 0.5560996 0.3914352
0.7825366 0.5238659 0.3285998
0.7977124 0.4908224 0.2671196
0.8157738 0.4490058 0.1926611
0.8414435 0.4078573 0.1195414
0.8731337 0.3805924 0.0706979
0.9045002 0.3655921 0.0452037
0.9348211 0.3563582 0.0307475
0.9658225 0.3505027 0.0210223
0.9900361 0.3475826 0.0156274
0.0109149 0.3682008 0.0106644
0.0361327 0.3623272 0.0137406
0.0698740 0.3513009 0.0210385
0.1042938 0.3350670 0.0345400
0.1367563 0.3146060 0.0554561
0.1660867 0.2953776 0.0840067
0.1934957 0.2851612 0.1187507
0.2185987 0.2878812 0.1529033
0.2442901 0.3042312 0.1792103
0.2647562 0.3162114 0.1817881
0.2772253 0.3097923 0.1656935
0.3044224 0.3224551 0.1655804
0.3535076 0.3546790 0.1894017
0.3883846 0.3725224 0.1993250
0.4151435 0.3865267 0.2148301
0.4391783 0.3964494 0.2274852
0.4643542 0.4050665 0.2534998
0.4898720 0.4178053 0.2784897
0.5276308 0.4412041 0.3009323
0.5862863 0.4721982 0.3214536
0.6648145 0.5166181 0.3568347
0.7136399 0.5503974 0.3916857
0.7412545 0.5631384 0.3974904
0.7700670 0.5630026 0.3801744
0.7870156 0.5479953 0.3443976
0.8003762 0.5233625 0.2941200
0.8197418 0.4877887 0.2218439
0.8482938 0.4543516 0.1522778
0.8792592 0.4288064 0.1010398
0.9073483 0.4070052 0.0629378
0.9355481 0.3911462 0.0374595
0.9656910 0.3824522 0.0230027
0.9898027 0.3787653 0.0160760
0.0094775 0.4034198 0.0093645
0.0340751 0.4003870 0.0110494
0.0670368 0.3938349 0.0153639
0.1011360 0.3825589 0.0241000
0.1354961 0.3667583 0.0399568
0.1699222 0.3493935 0.0657386
0.2045196 0.3363070 0.1029230
0.2394201 0.3337095 0.1488425
0.2700289 0.3425561 0.1882154
0.3003213 0.3630112 0.2114180
0.3152307 0.3686968 0.2078176
0.3348963 0.3796588 0.2003850
0.3713928 0.4003761 0.1985641
0.4089670 0.4115251 0.1948302
0.4416536 0.4232226 0.2123154
0.4705239 0.4385603 0.2418263
0.4888090 0.4443323 0.2663034
0.5015407 0.4410367 0.2796799
0.5260372 0.4515744 0.3016839
0.5579690 0.4693510 0.3171605
0.6020817 0.4933024 0.3280872
0.6417701 0.5167577 0.3399933
0.6807443 0.5299853 0.3365603
0.7380659 0.5455859 0.3324727
0.7713889 0.5428876 0.3095747
0.7990393 0.5324122 0.2755221
0.8300730 0.5183571 0.2315654
0.8608142 0.5015867 0.1860344
0.8857292 0.4757137 0.1335783
0.9094035 0.4467216 0.0813844
0.9363083 0.4252631 0.0441959
0.9659678 0.4141349 0.0246400
0.9898059 0.4101251 0.0169158
0.0087769 0.4364535 0.0087290
0.0328456 0.4350499 0.0095418
0.0649152 0.4316261 0.0117896
0.0984580 0.4251390 0.0170667
0.1338222 0.4152667 0.0283981
0.1720681 0.4029432 0.0503564
0.2168264 0.3935349 0.0904917
0.2672794 0.3929273 0.1493780
0.3036178 0.3920195 0.2025991
0.3275227 0.3990289 0.2330657
0.3434552 0.4090717 0.2386912
0.3604773 0.4200116 0.2344729
0.3816349 0.4312692 0.2173995
0.4160847 0.4429285 0.1991163
0.4576476 0.4556350 0.2113737
0.4878815 0.4674537 0.2517017
0.5019568 0.4710431 0.2761677
0.5135647 0.4659953 0.2748398
0.5373176 0.4683004 0.2907727
0.5630555 0.4829971 0.3181965
0.5885134 0.4997140 0.3314643
0.6140437 0.5146320 0.3365032
0.6414730 0.5224081 0.3275317
0.6826289 0.5274491 0.3022308
0.7275078 0.5238129 0.2576193
0.7877234 0.5323750 0.2356695
0.8398051 0.5443926 0.2296177
0.8689848 0.5364054 0.2022899
0.8883880 0.5094294 0.1478373
0.9103091 0.4790950 0.0891972
0.9371364 0.4568587 0.0468137
0.9665897 0.4452841 0.0249839
0.9899929 0.4412794 0.0172520
0.0084759 0.4684015 0.0084577
0.0322386 0.4678257 0.0088372
0.0638086 0.4662800 0.0100367
0.0969034 0.4630574 0.0132922
0.1329823 0.4581515 0.0218338
0.1751716 0.4517584 0.0420054
0.2234590 0.4424766 0.0801701
0.2727309 0.4328731 0.1345052
0.3099059 0.4234442 0.1872732
0.3364992 0.4243349 0.2243050
0.3595593 0.4360434 0.2456525
0.3761452 0.4449058 0.2520410
0.3928709 0.4559232 0.2407803
0.4240530 0.4735734 0.2216758
0.4628828 0.4840707 0.2118617
0.4908453 0.4855848 0.2334469
0.5050899 0.4838165 0.2493126
0.5218672 0.4824350 0.2442358
0.5505503 0.4851417 0.2576484
0.5741009 0.4943308 0.2856801
0.5967957 0.5082615 0.3052877
0.6194689 0.5237563 0.3249900
0.6386312 0.5340603 0.3362185
0.6621348 0.5316119 0.3027342
0.7042453 0.5237948 0.2363744
0.7716505 0.5333247 0.1990843
0.8354120 0.5536001 0.2009159
0.8674672 0.5502471 0.1818572
0.8871603 0.5277689 0.1333677
0.9100215 0.5028821 0.0807177
0.9374893 0.4846856 0.0425551
0.9670712 0.4751741 0.0230482
0.9902986 0.4718615 0.0163291
0.0083596 0.4998885 0.0083534
0.0319693 0.4996663 0.0085321
0.0632645 0.4990545 0.0092054
0.0960501 0.4976390 0.0113480
0.1314929 0.4948952 0.0175366
0.1719653 0.4899045 0.0327327
0.2162788 0.4800510 0.0609488
0.2602000 0.4668399 0.1010641
0.3005069 0.4570020 0.1472095
0.3377551 0.4570333 0.1936931
0.3685786 0.4632535 0.2331329
0.3934770 0.4731134 0.2615275
0.4135856 0.4859732 0.2691358
0.4336059 0.4996100 0.2506910
0.4640155 0.5121266 0.2244893
0.4955440 0.5161030 0.2155430
0.5139577 0.5117992 0.2092425
0.5318277 0.5069453 0.1932696
0.5593929 0.5043485 0.1965581
0.5833918 0.5078002 0.2203474
0.6071835 0.5181906 0.2467404
0.6319153 0.5337485 0.2832825
0.6485366 0.5423825 0.3052301
0.6677641 0.5393535 0.2748703
0.7049570 0.5326983 0.2073497
0.7646164 0.5380750 0.1577484
0.8260878 0.5539755 0.1489008
0.8606833 0.5531537 0.1335209
0.8837428 0.5385897 0.0985970
0.9089330 0.5224305 0.0608682
0.9375409 0.5106862 0.0335453
0.9675625 0.5046972 0.0198170
0.9908388 0.5027143 0.0153677
0.0083173 0.5312120 0.0083155
0.0318480 0.5311226 0.0083997
0.0629121 0.5308641 0.0087490
0.0951478 0.5301932 0.0099786
0.1290054 0.5284264 0.0136306
0.1655730 0.5243408 0.0224799
0.2047550 0.5167978 0.0393262
0.2459440 0.5072396 0.0661620
0.2890265 0.4992729 0.1043511
0.3315330 0.4941347 0.1525082
0.3699028 0.4928523 0.2048865
0.4001921 0.4970851 0.2495699
0.4234482 0.5073818 0.2764240
0.4428622 0.5212557 0.2740985
0.4745542 0.5427078 0.2569281
0.5135981 0.5615335 0.2369602
0.5362906 0.5644080 0.2105676
0.5490116 0.5529384 0.1685203
0.5674306 0.5367118 0.1424512
0.5914941 0.5317147 0.1531614
0.6175091 0.5370564 0.1812614
0.6431513 0.5472921 0.2205775
0.6612896 0.5518670 0.2408755
0.6818117 0.5500207 0.2166960
0.7150052 0.5461489 0.1605510
0.7635262 0.5482343 0.1112393
0.8169345 0.5579400 0.0935199
0.8530359 0.5588654 0.0818711
0.8800140 0.5516554 0.0618094
0.9076951 0.5434220 0.0403491
0.9375427 0.5377010 0.0250732
0.9681590 0.5354311 0.0184097
0.9915199 0.5350306 0.0170599
0.0082984 0.5624865 0.0082978
0.0317873 0.5624522 0.0083336
0.0626877 0.5623376 0.0084867
0.0943983 0.5619935 0.0090486
0.1268909 0.5610062 0.0107626
0.1607080 0.5586238 0.0150116
0.1964970 0.5543836 0.0239198
0.2351958 0.5485613 0.0406467
0.2773181 0.5414224 0.0691058
0.3216910 0.5335729 0.1117996
0.3640237 0.5269753 0.1653479
0.4003520 0.5247848 0.2210173
0.4284610 0.5292197 0.2648333
0.4527053 0.5420529 0.2864236
0.4833845 0.5639352 0.2786385
0.5268888 0.5913213 0.2587280
0.5482275 0.5977882 0.2242029
0.5559309 0.5874068 0.1674093
0.5691696 0.5721813 0.1175553
0.5942098 0.5630562 0.1042391
0.6249930 0.5641011 0.1227753
0.6516498 0.5679018 0.1549916
0.6729552 0.5693356 0.1706761
0.6963355 0.5686809 0.1537840
0.7273589 0.5672107 0.1134466
0.7668835 0.5677289 0.0735914
0.8105228 0.5720590 0.0531986
0.8470738 0.5739912 0.0451030
0.8773068 0.5716877 0.0360311
0.9068907 0.5684671 0.0262798
0.9376317 0.5666871 0.0200899
0.9684696 0.5668502 0.0191188
0.9917827 0.5673430 0.0199063
0.0082898 0.5937456 0.0082896
0.0317576 0.5937341 0.0083020
0.0625731 0.5936908 0.0083577
0.0939940 0.5935411 0.0085693
0.1257285 0.5930938 0.0092358
0.1581163 0.5920303 0.0110345
0.1918814 0.5900254 0.0154456
0.2282548 0.5866179 0.0254119
0.2686103 0.5813293 0.0454711
0.3128668 0.5743039 0.0797862
0.3572209 0.5661055 0.1276105
0.3967915 0.5595431 0.1818037
0.4297319 0.5580770 0.2333612
0.4556901 0.5638732 0.2663330
0.4847476 0.5809388 0.2697539
0.5206171 0.6019783 0.2534469
0.5388940 0.6079313 0.2212647
0.5487655 0.6047354 0.1712466
0.5626019 0.5984295 0.1182571
0.5895571 0.5939902 0.0832805
0.6241934 0.5930751 0.0792230
0.6543595 0.5928575 0.0942962
0.6800583 0.5927065 0.1028878
0.7067028 0.5928166 0.0929828
0.7375041 0.5931695 0.0694443
0.7725399 0.5941532 0.0451215
0.8096328 0.5962774 0.0306379
0.8444454 0.5978659 0.0254680
0.8759009 0.5975237 0.0218443
0.9066518 0.5967643 0.0184561
0.9379088 0.5970218 0.0177641
0.9686316 0.5980046 0.0196610
0.9918171 0.5986405 0.0211960
0.0082869 0.6249988 0.0082869
0.0317463 0.6249954 0.0082906
0.0625268 0.6249808 0.0083083
0.0938288 0.6249260 0.0083781
0.1252504 0.6247586 0.0086128
0.1569950 0.6243466 0.0093422
0.1896043 0.6234288 0.0114912
0.2243783 0.6216238 0.0174866
0.2630679 0.6184089 0.0315346
0.3053883 0.6128541 0.0570509
0.3484605 0.6054049 0.0937739
0.3883363 0.5976069 0.1381373
0.4238209 0.5909548 0.1883634
0.4526145 0.5895350 0.2312789
0.4778350 0.5961505 0.2540362
0.5004832 0.6035845 0.2517432
0.5181006 0.6093293 0.2321352
0.5358164 0.6153872 0.1965647
0.5559531 0.6187516 0.1427424
0.5849279 0.6213465 0.0907698
0.6199592 0.6229253 0.0621283
0.6534784 0.6224466 0.0553852
0.6835966 0.6218989 0.0539158
0.7131349 0.6221573 0.0479604
0.7442653 0.6230310 0.0370806
0.7770994 0.6241931 0.0261583
0.8106318 0.6254570 0.0194046
0.8434759 0.6262703 0.0163793
0.8751993 0.6264092 0.0146609
0.9065909 0.6266253 0.0141103
0.9379913 0.6274642 0.0158090
0.9686360 0.6284125 0.0183695
0.9918095 0.6289225 0.0198508
0.0082862 0.6562498 0.0082862
0.0317429 0.6562488 0.0082872
0.0625115 0.6562443 0.0082924
0.0937733 0.6562268 0.0083137
0.1250868 0.6561731 0.0083962
0.1565692 0.6560246 0.0087085
0.1885854 0.6556141 0.0098113
0.2219905 0.6546081 0.0132145
0.2578801 0.6524062 0.0215691
0.2964638 0.6482385 0.0376319
0.3373531 0.6426065 0.0640179
0.3799183 0.6356539 0.1048414
0.4210043 0.6255099 0.1608926
0.4537996 0.6168977 0.2142593
0.4764477 0.6143171 0.2450693
0.4955750 0.6167411 0.2542050
0.5160105 0.6231157 0.2510031
0.5338964 0.6306672 0.2214348
0.5549967 0.6388089 0.1650534
0.5848424 0.6468902 0.1100115
0.6182970 0.6521026 0.0722642
0.6514810 0.6537246 0.0477932
0.6841742 0.6539771 0.0327406
0.7160956 0.6542886 0.0249384
0.7478164 0.6549357 0.0199536
0.7797226 0.6557304 0.0164938
0.8115991 0.6563325 0.0143005
0.8432627 0.6565748 0.0125954
0.8748414 0.6567107 0.0114486
0.9064681 0.6571294 0.0117217
0.9378783 0.6577982 0.0135255
0.9685343 0.6584176 0.0155311
0.9917830 0.6587414 0.0166094
0.0082860 0.6874999 0.0082860
0.0317419 0.6874996 0.0082863
0.0625072 0.6874984 0.0082878
0.0937569 0.6874934 0.0082942
0.1250316 0.6874771 0.0083238
0.1563886 0.6874218 0.0084579
0.1880163 0.6872322 0.0089769
0.2203189 0.6866681 0.0106071
0.2538995 0.6852707 0.0147924
0.2897741 0.6824159 0.0245378
0.3295355 0.6773173 0.0455947
0.3729332 0.6684284 0.0837773
0.4153846 0.6554227 0.1370974
0.4493853 0.6431432 0.1874968
0.4736938 0.6372251 0.2182069
0.4967962 0.6384202 0.2381009
0.5200685 0.6437864 0.2499168
0.5372771 0.6509752 0.2257660
0.5584012 0.6612901 0.1753721
0.5879037 0.6715902 0.1307289
0.6180682 0.6782494 0.0917994
0.6495242 0.6823264 0.0564988
0.6830034 0.6848441 0.0313737
0.7164368 0.6861988 0.0184508
0.7490023 0.6868807 0.0135289
0.7807773 0.6872970 0.0122010
0.8121378 0.6874933 0.0115391
0.8434243 0.6875420 0.0106405
0.8748324 0.6876320 0.0099439
0.9063641 0.6879190 0.0101958
0.9377208 0.6882775 0.0113036
0.9684184 0.6885864 0.0124737
0.9917539 0.6887484 0.0130976
0.0082859 0.7187500 0.0082859
0.0317417 0.7187499 0.0082861
0.0625061 0.7187495 0.0082865
0.0937522 0.7187482 0.0082885
0.1250111 0.7187429 0.0082988
0.1563018 0.7187209 0.0083487
0.1877002 0.7186366 0.0085508
0.2194081 0.7183695 0.0092531
0.2519207 0.7175825 0.0114654
0.2863274 0.7154682 0.0178512
0.3239861 0.7106447 0.0332393
0.3644597 0.7016190 0.0616949
0.4040911 0.6891902 0.1006881
0.4381666 0.6777425 0.1384817
0.4677662 0.6715539 0.1692156
0.4971001 0.6690576 0.2015381
0.5205382 0.6690864 0.2198386
0.5394544 0.6749822 0.2037796
0.5628447 0.6854174 0.1696912
0.5903037 0.6949643 0.1384054
0.6179553 0.7027707 0.1007810
0.6487132 0.7095748 0.0617259
0.6823515 0.7144744 0.0331411
0.7162265 0.7171282 0.0177441
0.7491025 0.7182278 0.0116940
0.7809923 0.7185965 0.0101851
0.8123456 0.7186875 0.0097982
0.8435995 0.7187175 0.0093941
0.8749201 0.7187769 0.0090762
0.9063029 0.7189091 0.0091799
0.9375998 0.7190555 0.0096876
0.9683327 0.7191770 0.0102306
0.9917326 0.7192407 0.0105203
0.0082859 0.7500000 0.0082859
0.0317416 0.7499999 0.0082859
0.0625057 0.7499999 0.0082861
0.0937507 0.7499995 0.0082867
0.1250035 0.7499978 0.0082899
0.1562665 0.7499899 0.0083060
