looks/recipe_classic_neg_signature.cube
TITLE "Fuji recipe Classic Neg Signature (16 RAFs)"
LUT_3D_SIZE 33
0.0275585 0.0337444 0.0274570
0.0459328 0.0395108 0.0296389
0.0730217 0.0382032 0.0244545
0.0956555 0.0319208 0.0161669
0.1164665 0.0264134 0.0099264
0.1397507 0.0253997 0.0073435
0.1603518 0.0263393 0.0052781
0.1738679 0.0267188 0.0038948
0.1818102 0.0251899 0.0033498
0.2081586 0.0288460 0.0032429
0.2641270 0.0394601 0.0030483
0.3331877 0.0519722 0.0027742
0.3800276 0.0605751 0.0025576
0.4168134 0.0672218 0.0024665
0.4484462 0.0722871 0.0024281
0.4712333 0.0734710 0.0023612
0.5016268 0.0765891 0.0023274
0.5457639 0.0859183 0.0024326
0.5828652 0.0939340 0.0024958
0.6132898 0.0999863 0.0025708
0.6417728 0.1049932 0.0026116
0.6705254 0.1092834 0.0026317
0.6954609 0.1098846 0.0027909
0.7118948 0.0989989 0.0034218
0.7340550 0.0798761 0.0043559
0.7649112 0.0623868 0.0051612
0.7974601 0.0467191 0.0061261
0.8314007 0.0325299 0.0069611
0.8664561 0.0225042 0.0074861
0.9008916 0.0160015 0.0078593
0.9344839 0.0118442 0.0080965
0.9668709 0.0096289 0.0082163
0.9911312 0.0087704 0.0082634
0.0222040 0.0426906 0.0263613
0.0423886 0.0529496 0.0326204
0.0692341 0.0576997 0.0320694
0.0943725 0.0540769 0.0240816
0.1173670 0.0470385 0.0158717
0.1408511 0.0426933 0.0113641
0.1626194 0.0411664 0.0084184
0.1804478 0.0411103 0.0063020
0.1972653 0.0416157 0.0049220
0.2220942 0.0428228 0.0039377
0.2627113 0.0467485 0.0031517
0.3194859 0.0563194 0.0026905
0.3700420 0.0644264 0.0023921
0.4114582 0.0709763 0.0022057
0.4462927 0.0766357 0.0021074
0.4734380 0.0803737 0.0020702
0.5030186 0.0855560 0.0021093
0.5447330 0.0949371 0.0021977
0.5817068 0.1029005 0.0022170
0.6132518 0.1092141 0.0022525
0.6423156 0.1144668 0.0022683
0.6710544 0.1189972 0.0022785
0.6968310 0.1207585 0.0024132
0.7160531 0.1147538 0.0029048
0.7377775 0.1027372 0.0036099
0.7638769 0.0878123 0.0043975
0.7945595 0.0737096 0.0055049
0.8278687 0.0605331 0.0064591
0.8627478 0.0493253 0.0071049
0.8981503 0.0413036 0.0076401
0.9329048 0.0361917 0.0080013
0.9660808 0.0335129 0.0081859
0.9906942 0.0324750 0.0082548
0.0171216 0.0621634 0.0287808
0.0346364 0.0731969 0.0328395
0.0606360 0.0805971 0.0353052
0.0898282 0.0802523 0.0318192
0.1161064 0.0749260 0.0241131
0.1403275 0.0700963 0.0170851
0.1664598 0.0682280 0.0123729
0.1933865 0.0688352 0.0090784
0.2194436 0.0708441 0.0069139
0.2457120 0.0698229 0.0053412
0.2752118 0.0657881 0.0039418
0.3176999 0.0691924 0.0031779
0.3613406 0.0744674 0.0027867
0.4014707 0.0807206 0.0024358
0.4345546 0.0847998 0.0022632
0.4656283 0.0876942 0.0023398
0.5011673 0.0952750 0.0025212
0.5402027 0.1035672 0.0025339
0.5762506 0.1100803 0.0024411
0.6101182 0.1157492 0.0023787
0.6408733 0.1207082 0.0023290
0.6699190 0.1250553 0.0023080
0.6985112 0.1282975 0.0023687
0.7237985 0.1279514 0.0026288
0.7431150 0.1219204 0.0031287
0.7659278 0.1124710 0.0038681
0.7939425 0.1034754 0.0049143
0.8240536 0.0922356 0.0058840
0.8583893 0.0809124 0.0066707
0.8950384 0.0726015 0.0074013
0.9309848 0.0674531 0.0079118
0.9648024 0.0647729 0.0081573
0.9897153 0.0636570 0.0082364
0.0173015 0.0900945 0.0326875
0.0288317 0.0952545 0.0323386
0.0496906 0.1013992 0.0349459
0.0792086 0.1037278 0.0367976
0.1092382 0.1006358 0.0326118
0.1375351 0.0956906 0.0247458
0.1680771 0.0923005 0.0174145
0.2012726 0.0916753 0.0117529
0.2348389 0.0942343 0.0080892
0.2673116 0.0972368 0.0060216
0.3004541 0.0982594 0.0046138
0.3344196 0.0998116 0.0038924
0.3656171 0.1018450 0.0035279
0.3960707 0.1066156 0.0029980
0.4238962 0.1078904 0.0028325
0.4617701 0.1073608 0.0030603
0.5038019 0.1118248 0.0032371
0.5444475 0.1181768 0.0031678
0.5773825 0.1213567 0.0030636
0.6056491 0.1217975 0.0030477
0.6365179 0.1250027 0.0029795
0.6654871 0.1281090 0.0029047
0.6967058 0.1307458 0.0028683
0.7266358 0.1327700 0.0030013
0.7492033 0.1320029 0.0034020
0.7731775 0.1293273 0.0040012
0.7961080 0.1245963 0.0047491
0.8226305 0.1165374 0.0056358
0.8564095 0.1081038 0.0065103
0.8932588 0.1019516 0.0073151
0.9291824 0.0983401 0.0078814
0.9628268 0.0963321 0.0081201
0.9879126 0.0953204 0.0081942
0.0205341 0.1146179 0.0361250
0.0311527 0.1187335 0.0361917
0.0469379 0.1255216 0.0386067
0.0689256 0.1269418 0.0395296
0.0965164 0.1255962 0.0388022
0.1277254 0.1209424 0.0336002
0.1642142 0.1153808 0.0254397
0.2052520 0.1133085 0.0176852
0.2473191 0.1150592 0.0118153
0.2833123 0.1182463 0.0080626
0.3196918 0.1229595 0.0059212
0.3579175 0.1278104 0.0046926
0.3941418 0.1320318 0.0039536
0.4166762 0.1337989 0.0032552
0.4434936 0.1368427 0.0030772
0.4873893 0.1437529 0.0033485
0.5226258 0.1473519 0.0036803
0.5640346 0.1534739 0.0037042
0.5889882 0.1513784 0.0037195
0.6029769 0.1413824 0.0039017
0.6321349 0.1403249 0.0039772
0.6573678 0.1382807 0.0038550
0.6892059 0.1375502 0.0037410
0.7246323 0.1396962 0.0038762
0.7530685 0.1415876 0.0042459
0.7778319 0.1418492 0.0045981
0.7994043 0.1400713 0.0050530
0.8251777 0.1366926 0.0058373
0.8575116 0.1329184 0.0066976
0.8927367 0.1299469 0.0073947
0.9270268 0.1282715 0.0078420
0.9600114 0.1272202 0.0080408
0.9853689 0.1264740 0.0081294
0.0280407 0.1497104 0.0421406
0.0402022 0.1531981 0.0456497
0.0507452 0.1542218 0.0466525
0.0628017 0.1490430 0.0416338
0.0841096 0.1480934 0.0411655
0.1137056 0.1474840 0.0408168
0.1512251 0.1438314 0.0365264
0.1971676 0.1409576 0.0289539
0.2495339 0.1407639 0.0206168
0.2912529 0.1380500 0.0128061
0.3298566 0.1424929 0.0094186
0.3701376 0.1490739 0.0073450
0.4122623 0.1544819 0.0054368
0.4473921 0.1579955 0.0041515
0.4835575 0.1627196 0.0034734
0.5177543 0.1693508 0.0033406
0.5437558 0.1750783 0.0035874
0.5829488 0.1846348 0.0037369
0.6024936 0.1834997 0.0039870
0.6171217 0.1750925 0.0044523
0.6436841 0.1720868 0.0049147
0.6594550 0.1633940 0.0049472
0.6832235 0.1581719 0.0049964
0.7211937 0.1569141 0.0051405
0.7536527 0.1571881 0.0053247
0.7798352 0.1575562 0.0054385
0.8038551 0.1576169 0.0056465
0.8297021 0.1577101 0.0062362
0.8598005 0.1573845 0.0069286
0.8930035 0.1569330 0.0075028
0.9251376 0.1568360 0.0077935
0.9572804 0.1567457 0.0079541
0.9829584 0.1565952 0.0080684
0.0301075 0.1765672 0.0384432
0.0424013 0.1742071 0.0432851
0.0500336 0.1681115 0.0422061
0.0556595 0.1622002 0.0361944
0.0738453 0.1677788 0.0404323
0.1024099 0.1758336 0.0465504
0.1380754 0.1771095 0.0480043
0.1810699 0.1733936 0.0431308
0.2341832 0.1703541 0.0337462
0.2826132 0.1586986 0.0206525
0.3257806 0.1628253 0.0158942
0.3682073 0.1701417 0.0124971
0.4103471 0.1741294 0.0090913
0.4578243 0.1782775 0.0062512
0.5128002 0.1850583 0.0045883
0.5533111 0.1905250 0.0038843
0.5771359 0.1949407 0.0036334
0.6073685 0.2033377 0.0036262
0.6224980 0.2050216 0.0041224
0.6417375 0.2042913 0.0051368
0.6643381 0.2051362 0.0057981
0.6751062 0.2005971 0.0060456
0.6919423 0.1941746 0.0062609
0.7242188 0.1863988 0.0063218
0.7544814 0.1810461 0.0063077
0.7813039 0.1798279 0.0063069
0.8075837 0.1801350 0.0063706
0.8333926 0.1811590 0.0066625
0.8623314 0.1824955 0.0071063
0.8939455 0.1834370 0.0075472
0.9244915 0.1842174 0.0077648
0.9561226 0.1851704 0.0079171
0.9819480 0.1859665 0.0080442
0.0245388 0.2001728 0.0295334
0.0385013 0.1920337 0.0315043
0.0483955 0.1803557 0.0296297
0.0530536 0.1748850 0.0289338
0.0641635 0.1825520 0.0356919
0.0883536 0.1981868 0.0472644
0.1206135 0.2090598 0.0548978
0.1595936 0.2062698 0.0525546
0.2128178 0.2007124 0.0438185
0.2712421 0.1879522 0.0324952
0.3206570 0.1898070 0.0271498
0.3634216 0.1891861 0.0187941
0.3961061 0.1918292 0.0143456
0.4480308 0.1944779 0.0093030
0.5258017 0.2027682 0.0057972
0.5923421 0.2146661 0.0048262
0.6205385 0.2175474 0.0042100
0.6449943 0.2227753 0.0039479
0.6555431 0.2244361 0.0042812
0.6659037 0.2231771 0.0052282
0.6790584 0.2230040 0.0060019
0.6888538 0.2239075 0.0064302
0.7085200 0.2263883 0.0068395
0.7358131 0.2241233 0.0071375
0.7602406 0.2164335 0.0072163
0.7856386 0.2133426 0.0072847
0.8118227 0.2122313 0.0072624
0.8377334 0.2110742 0.0072541
0.8662071 0.2107332 0.0074109
0.8962283 0.2111507 0.0076661
0.9260029 0.2122345 0.0078223
0.9573843 0.2140345 0.0079595
0.9829314 0.2156085 0.0080804
0.0179064 0.2308704 0.0218308
0.0366281 0.2221100 0.0243036
0.0535992 0.2111806 0.0290493
0.0609968 0.2031704 0.0335865
0.0640902 0.2005527 0.0344129
0.0767386 0.2107463 0.0411469
0.1014042 0.2303430 0.0529870
0.1313651 0.2438919 0.0579627
0.1805290 0.2436240 0.0552893
0.2563551 0.2355088 0.0527801
0.3143686 0.2325195 0.0465797
0.3531790 0.2181427 0.0299454
0.3832632 0.2093998 0.0196222
0.4387787 0.2093152 0.0120484
0.5105146 0.2177131 0.0081721
0.5775391 0.2306193 0.0073928
0.6237957 0.2342613 0.0058789
0.6640339 0.2388841 0.0046427
0.6854482 0.2433685 0.0044946
0.6964827 0.2441687 0.0051059
0.7042537 0.2418633 0.0060621
0.7169127 0.2458338 0.0066622
0.7417427 0.2569885 0.0071210
0.7601296 0.2617117 0.0077154
0.7776933 0.2612437 0.0083816
0.7988042 0.2601499 0.0087307
0.8200293 0.2560053 0.0085335
0.8433977 0.2495147 0.0081212
0.8704862 0.2440268 0.0079065
0.8994772 0.2420435 0.0079001
0.9292471 0.2427160 0.0079613
0.9603850 0.2446232 0.0080686
0.9852613 0.2463064 0.0081719
0.0155163 0.2678946 0.0176437
0.0396708 0.2630011 0.0270516
0.0639053 0.2542436 0.0403913
0.0755992 0.2425011 0.0467030
0.0761596 0.2290706 0.0383769
0.0807410 0.2285542 0.0385112
0.0947001 0.2445491 0.0496859
0.1172076 0.2658988 0.0603376
0.1588370 0.2754478 0.0638592
0.2364013 0.2714145 0.0638023
0.3038470 0.2605754 0.0530746
0.3409029 0.2511584 0.0384568
0.3726251 0.2380197 0.0274514
0.4264015 0.2389347 0.0196099
0.4669669 0.2450823 0.0155443
0.5104335 0.2478880 0.0135576
0.5791564 0.2512682 0.0097290
0.6352735 0.2541235 0.0067499
0.6745067 0.2595227 0.0058850
0.7158845 0.2664903 0.0061120
0.7432908 0.2696206 0.0065924
0.7612978 0.2738391 0.0070850
0.7752922 0.2813397 0.0075612
0.7867063 0.2891944 0.0084869
0.8025398 0.2961376 0.0097194
0.8159340 0.2967130 0.0100128
0.8284699 0.2920663 0.0095311
0.8472521 0.2856786 0.0088802
0.8730099 0.2796339 0.0084058
0.9022213 0.2761087 0.0081875
0.9326286 0.2756212 0.0081391
0.9635728 0.2768095 0.0081954
0.9877086 0.2780182 0.0082586
0.0145343 0.3041795 0.0161872
0.0393246 0.2991087 0.0247285
0.0667983 0.2902501 0.0369634
0.0857045 0.2795132 0.0441058
0.0956040 0.2687441 0.0411966
0.1016464 0.2647066 0.0447355
0.1072987 0.2696834 0.0532308
0.1214956 0.2877213 0.0652664
0.1465000 0.3056438 0.0721708
0.1987942 0.3078966 0.0705971
0.2731653 0.2951688 0.0600502
0.3255602 0.2893495 0.0489308
0.3669800 0.2853472 0.0404561
0.4034919 0.2868715 0.0330307
0.4324546 0.2855588 0.0250003
0.4684160 0.2743106 0.0184326
0.5246033 0.2705607 0.0128089
0.5664325 0.2712300 0.0103454
0.6168462 0.2781391 0.0095074
0.6883785 0.2881910 0.0085853
0.7381825 0.2916501 0.0078806
0.7748113 0.2936451 0.0079570
0.7956117 0.2981392 0.0083923
0.8076183 0.3056556 0.0093102
0.8231962 0.3148882 0.0106782
0.8301942 0.3175050 0.0108474
0.8350906 0.3161281 0.0101452
0.8493320 0.3141417 0.0093356
0.8737685 0.3120679 0.0087542
0.9034538 0.3101816 0.0084813
0.9347043 0.3092603 0.0083441
0.9657631 0.3096615 0.0083058
0.9895353 0.3102861 0.0082992
0.0122923 0.3381667 0.0134739
0.0364219 0.3334699 0.0182130
0.0660513 0.3264229 0.0260566
0.0935582 0.3202390 0.0349297
0.1166292 0.3156642 0.0439250
0.1292326 0.3103372 0.0542026
0.1328930 0.3073870 0.0609790
0.1376846 0.3165062 0.0693217
0.1488126 0.3360858 0.0780293
0.1738160 0.3485596 0.0801457
0.2215488 0.3462660 0.0753156
0.2827279 0.3412320 0.0676393
0.3516492 0.3347524 0.0547930
0.4025259 0.3261230 0.0418262
0.4337899 0.3217469 0.0327778
0.4631505 0.3142255 0.0258314
0.5057664 0.3020552 0.0182055
0.5382131 0.2913787 0.0137584
0.5790266 0.2963099 0.0124896
0.6272828 0.3051593 0.0107723
0.6769745 0.3084484 0.0094589
0.7415330 0.3090212 0.0092230
0.7948031 0.3117385 0.0093265
0.8201551 0.3183148 0.0101010
0.8334530 0.3255459 0.0111733
0.8361170 0.3298206 0.0111621
0.8377981 0.3338493 0.0103973
0.8500555 0.3379569 0.0095573
0.8737794 0.3406187 0.0089189
0.9035975 0.3415545 0.0086421
0.9352884 0.3418048 0.0085112
0.9667170 0.3422808 0.0084030
0.9905911 0.3425870 0.0083276
0.0101907 0.3717003 0.0107487
0.0341931 0.3688749 0.0131089
0.0656754 0.3646119 0.0177995
0.0974265 0.3598902 0.0255936
0.1253313 0.3540573 0.0369886
0.1467338 0.3502590 0.0514539
0.1622791 0.3547499 0.0661935
0.1684534 0.3625909 0.0760990
0.1727680 0.3741293 0.0835245
0.1837083 0.3871461 0.0883943
0.2079148 0.3941143 0.0874802
0.2550806 0.4023404 0.0862690
0.3326044 0.4012899 0.0754989
0.4207245 0.3740402 0.0538438
0.4620871 0.3611054 0.0438801
0.4823986 0.3607658 0.0379509
0.5087391 0.3512727 0.0295114
0.5368615 0.3261855 0.0200234
0.5754770 0.3157077 0.0138524
0.6022241 0.3161063 0.0115440
0.6297992 0.3220027 0.0110181
0.6874700 0.3275222 0.0110945
0.7691990 0.3286060 0.0101265
0.8117670 0.3329845 0.0102216
0.8269535 0.3385543 0.0109398
0.8313651 0.3444296 0.0108697
0.8354740 0.3530844 0.0103137
0.8492013 0.3622542 0.0097420
0.8734818 0.3686342 0.0091116
0.9035898 0.3720335 0.0087642
0.9355047 0.3734746 0.0086022
0.9670737 0.3741701 0.0084754
0.9910300 0.3744961 0.0083759
0.0090553 0.4047385 0.0092418
0.0330654 0.4033724 0.0103473
0.0650132 0.4007848 0.0129831
0.0975437 0.3968858 0.0182808
0.1289376 0.3926171 0.0279308
0.1608225 0.3954433 0.0449556
0.1928329 0.4129811 0.0693832
0.2094792 0.4240285 0.0871702
0.2127142 0.4249145 0.0917174
0.2141172 0.4274368 0.0941098
0.2281783 0.4360423 0.0956587
0.2637892 0.4508041 0.0986301
0.3269419 0.4487826 0.0883277
0.4207495 0.4171229 0.0638188
0.4691354 0.3934878 0.0487023
0.4941949 0.3894882 0.0402844
0.5119858 0.3854341 0.0353072
0.5349486 0.3681513 0.0269974
0.5755805 0.3440514 0.0157811
0.6005099 0.3341296 0.0119142
0.6195720 0.3399855 0.0119469
0.6626652 0.3496054 0.0123339
0.7369354 0.3542110 0.0110311
0.7874152 0.3585310 0.0103651
0.8099958 0.3626672 0.0105105
0.8205326 0.3686653 0.0104670
0.8303866 0.3785104 0.0102843
0.8475928 0.3891432 0.0100487
0.8731104 0.3972468 0.0095829
0.9035591 0.4024189 0.0093099
0.9355558 0.4048679 0.0090152
0.9671322 0.4057730 0.0087028
0.9910995 0.4060642 0.0084885
0.0085936 0.4369441 0.0086138
0.0324668 0.4363345 0.0091189
0.0641745 0.4349786 0.0105421
0.0976182 0.4336845 0.0143064
0.1334918 0.4344705 0.0232591
0.1700973 0.4383783 0.0399780
0.2034028 0.4478223 0.0635990
0.2228761 0.4523906 0.0826688
0.2274505 0.4495611 0.0885029
0.2270960 0.4517719 0.0926607
0.2359345 0.4632628 0.0971354
0.2675104 0.4777821 0.0980993
0.3260703 0.4865250 0.0922035
0.4105975 0.4781774 0.0795897
0.4550623 0.4464206 0.0601919
0.4865431 0.4275619 0.0466329
0.5083428 0.4141286 0.0383469
0.5309486 0.4011576 0.0288535
0.5695822 0.3821589 0.0172501
0.6006561 0.3704622 0.0131395
0.6233817 0.3723646 0.0134931
0.6530733 0.3803293 0.0135760
0.6986197 0.3875687 0.0124805
0.7528064 0.3938086 0.0111595
0.7893415 0.3970026 0.0105616
0.8089229 0.4013324 0.0105936
0.8255000 0.4091135 0.0107121
0.8467013 0.4185429 0.0107787
0.8734004 0.4269613 0.0108432
0.9035887 0.4328710 0.0107584
0.9351349 0.4356266 0.0099599
0.9667022 0.4367402 0.0091086
0.9908316 0.4371929 0.0086524
0.0084161 0.4685745 0.0083962
0.0321559 0.4683926 0.0086474
0.0637942 0.4680451 0.0095376
0.0973249 0.4678014 0.0122651
0.1330192 0.4682873 0.0190327
0.1687160 0.4687451 0.0314892
0.1997603 0.4690219 0.0486807
0.2195755 0.4675564 0.0653137
0.2273246 0.4658731 0.0769024
0.2325711 0.4709511 0.0866614
0.2449946 0.4828331 0.0954133
0.2814907 0.5012780 0.1003955
0.3434031 0.5205039 0.1008003
0.4106549 0.5280294 0.0948928
0.4378873 0.5106297 0.0799528
0.4678957 0.4954161 0.0683507
0.4963447 0.4696567 0.0520304
0.5221546 0.4506398 0.0357621
0.5577160 0.4379625 0.0230430
0.5975348 0.4220657 0.0158121
0.6281129 0.4168154 0.0151080
0.6530296 0.4198516 0.0141324
0.6814196 0.4264195 0.0128872
0.7234712 0.4342454 0.0117521
0.7682574 0.4374923 0.0110197
0.7988823 0.4397852 0.0113774
0.8224605 0.4441646 0.0119999
0.8471208 0.4509083 0.0128863
0.8742335 0.4573176 0.0133706
0.9033963 0.4620090 0.0124703
0.9344217 0.4651240 0.0108168
0.9661198 0.4670867 0.0094922
0.9904707 0.4680521 0.0088436
0.0083439 0.4999528 0.0083292
0.0319746 0.4999101 0.0084647
0.0633331 0.4997981 0.0089985
0.0960277 0.4994579 0.0106308
0.1297895 0.4986794 0.0145494
0.1634506 0.4970553 0.0218385
0.1936846 0.4940214 0.0324638
0.2167434 0.4899289 0.0453049
0.2330047 0.4878764 0.0596924
0.2483475 0.4915584 0.0758498
0.2741658 0.5051915 0.0915668
0.3127098 0.5264404 0.1036959
0.3573622 0.5451538 0.1100799
0.3906138 0.5486627 0.1046774
0.4084419 0.5408459 0.0928799
0.4521882 0.5403894 0.0851182
0.4856415 0.5294243 0.0715652
0.5137743 0.5157782 0.0531417
0.5523542 0.5022320 0.0362296
0.5952379 0.4803092 0.0224427
0.6298689 0.4675747 0.0165262
0.6569785 0.4658278 0.0144083
0.6837777 0.4700367 0.0134753
0.7175689 0.4766480 0.0130208
0.7577435 0.4795001 0.0127624
0.7935218 0.4796584 0.0135048
0.8220394 0.4799607 0.0146605
0.8479928 0.4822510 0.0158918
0.8745115 0.4857915 0.0156500
0.9029713 0.4900892 0.0137347
0.9338713 0.4943013 0.0114630
0.9657167 0.4973598 0.0098445
0.9901718 0.4988929 0.0091235
0.0083111 0.5312370 0.0083072
0.0318491 0.5312110 0.0083723
0.0628883 0.5311048 0.0086281
0.0948012 0.5307734 0.0094010
0.1271705 0.5299383 0.0112580
0.1593875 0.5280792 0.0148416
0.1900322 0.5246571 0.0207332
0.2176296 0.5201063 0.0299070
0.2421637 0.5164976 0.0437858
0.2720053 0.5213380 0.0638142
0.3115326 0.5388845 0.0878232
0.3268222 0.5490261 0.1041777
0.3208272 0.5479450 0.1097488
0.3402481 0.5476109 0.1055099
0.3756240 0.5495584 0.0959205
0.4397079 0.5591322 0.0877472
0.4841094 0.5603905 0.0770440
0.5168204 0.5550933 0.0615200
0.5560063 0.5488692 0.0477076
0.5925004 0.5349143 0.0331546
0.6271539 0.5193483 0.0205516
0.6582891 0.5128000 0.0150333
0.6880167 0.5134904 0.0136377
0.7202820 0.5166416 0.0135339
0.7551876 0.5170664 0.0134225
0.7908735 0.5141031 0.0140916
0.8210639 0.5116351 0.0158928
0.8475537 0.5116397 0.0177526
0.8740311 0.5142404 0.0171812
0.9025542 0.5190493 0.0147214
0.9336113 0.5241950 0.0120379
0.9655081 0.5279389 0.0102371
0.9898638 0.5297710 0.0096000
0.0082945 0.5624944 0.0082966
0.0317770 0.5624780 0.0083254
0.0626376 0.5624144 0.0084282
0.0941277 0.5622166 0.0087237
0.1257796 0.5616698 0.0094602
0.1574279 0.5603662 0.0110463
0.1887206 0.5578429 0.0142907
0.2186267 0.5538256 0.0208006
0.2483565 0.5505436 0.0329915
0.2789436 0.5525256 0.0526320
0.2959557 0.5557550 0.0764132
0.2959015 0.5551041 0.0962815
0.2933115 0.5527115 0.1052166
0.3207925 0.5571325 0.1031749
0.3627049 0.5634853 0.0944025
0.4261871 0.5725800 0.0843530
0.4801815 0.5773080 0.0747919
0.5207399 0.5778698 0.0628670
0.5589589 0.5776327 0.0528299
0.5899841 0.5724266 0.0397484
0.6217462 0.5635535 0.0255163
0.6554115 0.5568628 0.0163724
0.6881382 0.5542414 0.0128060
0.7212036 0.5534870 0.0120197
0.7554916 0.5514262 0.0119775
0.7890115 0.5472446 0.0132948
0.8191220 0.5434489 0.0157898
0.8466772 0.5421400 0.0173166
0.8739305 0.5444216 0.0165514
0.9028702 0.5494975 0.0142592
0.9339814 0.5549605 0.0118536
0.9655960 0.5588214 0.0104278
0.9895553 0.5605589 0.0101471
0.0082881 0.5937474 0.0082905
0.0317499 0.5937397 0.0083020
0.0625376 0.5937109 0.0083403
0.0938513 0.5936184 0.0084408
0.1252445 0.5933444 0.0087017
0.1567241 0.5926329 0.0094137
0.1881094 0.5910394 0.0113805
0.2185204 0.5879169 0.0161359
0.2478742 0.5838374 0.0256441
0.2736408 0.5799313 0.0416608
0.2852666 0.5732977 0.0625602
0.2887032 0.5668318 0.0824271
0.3001320 0.5656043 0.0929973
0.3338292 0.5722186 0.0933747
0.3804971 0.5818976 0.0898341
0.4376138 0.5921663 0.0854206
0.4794079 0.5969082 0.0765433
0.5179119 0.5989758 0.0636514
0.5584617 0.6004747 0.0530298
0.5894746 0.5991691 0.0403076
0.6195958 0.5963702 0.0269724
0.6528683 0.5936808 0.0175467
0.6864015 0.5916435 0.0127357
0.7200255 0.5891916 0.0107496
0.7540164 0.5860702 0.0106438
0.7865269 0.5819736 0.0121883
0.8169824 0.5780331 0.0141059
0.8457812 0.5763687 0.0149315
0.8742151 0.5781898 0.0142637
0.9038009 0.5825536 0.0126606
0.9348532 0.5871853 0.0111665
0.9659424 0.5902155 0.0104857
0.9894704 0.5914011 0.0104279
0.0082862 0.6249989 0.0082876
0.0317430 0.6249961 0.0082914
0.0625110 0.6249851 0.0083045
0.0937706 0.6249480 0.0083406
0.1250752 0.6248302 0.0084475
0.1564518 0.6244619 0.0088105
0.1877970 0.6234497 0.0099629
0.2187124 0.6212140 0.0129561
0.2483767 0.6171821 0.0193295
0.2742177 0.6107258 0.0307247
0.2924721 0.6016832 0.0465288
0.3064374 0.5934882 0.0621625
0.3269969 0.5909545 0.0720893
0.3621244 0.5953146 0.0762566
0.4111740 0.6042511 0.0807124
0.4561535 0.6118711 0.0836156
0.4837704 0.6156462 0.0758287
0.5152309 0.6191303 0.0606747
0.5559561 0.6226183 0.0480205
0.5893731 0.6241303 0.0361684
0.6200817 0.6246111 0.0248477
0.6527901 0.6248685 0.0170013
0.6858940 0.6246243 0.0126216
0.7189156 0.6231537 0.0102981
0.7520348 0.6205638 0.0098545
0.7841724 0.6173880 0.0107243
0.8150536 0.6144946 0.0117288
0.8449194 0.6132877 0.0121397
0.8745436 0.6145016 0.0117558
0.9048026 0.6174167 0.0109574
0.9357846 0.6203625 0.0104517
0.9664408 0.6220105 0.0103297
0.9897478 0.6225845 0.0102723
0.0082859 0.6562496 0.0082864
0.0317416 0.6562487 0.0082876
0.0625063 0.6562451 0.0082916
0.0937557 0.6562315 0.0083044
0.1250284 0.6561794 0.0083512
0.1563386 0.6559880 0.0085266
0.1876796 0.6554113 0.0090972
0.2189345 0.6539954 0.0106692
0.2494573 0.6509448 0.0143051
0.2775700 0.6453754 0.0210621
0.3023573 0.6377786 0.0307050
0.3269576 0.6309335 0.0413241
0.3553539 0.6274316 0.0504947
0.3910775 0.6276422 0.0583937
0.4352445 0.6304528 0.0682404
0.4662696 0.6322325 0.0736240
0.4874703 0.6353956 0.0669936
0.5151880 0.6412550 0.0520920
0.5527018 0.6473284 0.0383846
0.5889693 0.6513188 0.0284899
0.6215680 0.6537067 0.0205733
0.6539785 0.6551866 0.0152164
0.6863131 0.6558177 0.0120359
0.7184695 0.6554829 0.0100660
0.7507833 0.6540794 0.0092803
0.7825738 0.6522603 0.0094684
0.8136808 0.6506820 0.0098931
0.8442896 0.6500352 0.0100827
0.8747789 0.6506628 0.0099346
0.9055232 0.6521069 0.0097124
0.9365004 0.6534019 0.0097508
0.9670203 0.6539962 0.0098052
0.9903058 0.6542280 0.0097376
0.0082859 0.6874999 0.0082860
0.0317415 0.6874996 0.0082864
0.0625057 0.6874985 0.0082876
0.0937524 0.6874935 0.0082916
0.1250121 0.6874713 0.0083085
0.1562904 0.6873850 0.0083777
0.1876042 0.6871076 0.0086179
0.2189053 0.6863316 0.0093283
0.2498660 0.6844947 0.0110404
0.2799692 0.6811006 0.0143037
0.3095059 0.6764081 0.0193261
0.3393500 0.6714113 0.0257460
0.3713923 0.6674541 0.0327789
0.4092259 0.6651188 0.0410298
0.4441057 0.6620337 0.0506715
0.4689084 0.6602339 0.0552291
0.4911070 0.6631187 0.0504242
0.5187925 0.6697617 0.0392453
0.5533761 0.6767002 0.0282608
0.5897250 0.6816985 0.0208519
0.6232017 0.6846449 0.0161121
0.6552298 0.6862084 0.0131160
0.6868417 0.6869110 0.0110772
0.7184217 0.6870663 0.0096759
0.7501439 0.6866398 0.0089256
0.7816921 0.6858599 0.0087933
0.8129077 0.6851816 0.0089306
0.8439021 0.6849059 0.0090255
0.8748500 0.6851349 0.0090183
0.9058780 0.6856048 0.0090345
0.9369555 0.6859151 0.0091379
0.9675500 0.6860498 0.0091743
0.9908997 0.6861536 0.0091275
0.0082859 0.7187500 0.0082859
0.0317415 0.7187499 0.0082860
0.0625056 0.7187496 0.0082863
0.0937508 0.7187479 0.0082875
0.1250043 0.7187400 0.0082927
0.1562664 0.7187077 0.0083158
0.1875452 0.7185916 0.0084024
0.2188232 0.7182401 0.0086691
0.2500278 0.7173921 0.0093280
0.2811718 0.7157909 0.0106662
0.3123547 0.7133169 0.0129585
0.3432621 0.7100910 0.0161930
0.3757224 0.7068006 0.0203913
0.4117163 0.7034562 0.0263194
0.4428746 0.6991119 0.0326423
0.4690171 0.6969728 0.0354185
0.4948561 0.6992115 0.0326435
0.5238863 0.7045028 0.0261449
0.5566578 0.7100132 0.0196189
0.5908267 0.7140673 0.0151149
0.6239599 0.7164938 0.0125271
0.6558412 0.7176561 0.0110987
0.6871941 0.7181765 0.0100331
0.7185268 0.7184309 0.0092182
0.7499326 0.7184328 0.0087231
0.7813079 0.7181951 0.0085745
0.8125088 0.7179641 0.0086677
0.8436077 0.7178438 0.0087807
0.8747088 0.7178746 0.0088278
0.9058850 0.7179585 0.0088287
0.9371253 0.7179639 0.0087930
0.9678731 0.7179922 0.0087420
0.9913188 0.7180428 0.0086896
0.0082859 0.7500000 0.0082859
0.0317415 0.7500000 0.0082859
0.0625056 0.7499999 0.0082860
0.0937502 0.7499995 0.0082862
0.1250013 0.7499971 0.0082877
