looks/recipe_pacific_blues.cube
TITLE "Fuji recipe Pacific Blues (16 RAFs)"
LUT_3D_SIZE 5
0.0244586 0.0305062 0.0253606
0.1596842 0.0211414 0.0025610
0.4838236 0.0771647 0.0022814
0.7230629 0.0587047 0.0052809
0.9916268 0.0083410 0.0082837
0.0147184 0.2239881 0.0185554
0.1874060 0.2183425 0.0549976
0.5933035 0.2269620 0.0052438
0.7653138 0.2599856 0.0088494
0.9898213 0.2490551 0.0082922
0.0083706 0.4999355 0.0083698
0.2315966 0.4926041 0.0653369
0.4915523 0.5125081 0.0514508
0.7650743 0.4812335 0.0148754
0.9909676 0.4997613 0.0089584
0.0082859 0.7500000 0.0082859
0.2501718 0.7495664 0.0086404
0.4990655 0.7466052 0.0123579
0.7499410 0.7498846 0.0084932
0.9916735 0.7499393 0.0083387
0.0082859 0.9917141 0.0082859
0.2500000 0.9917141 0.0082859
0.5000000 0.9917141 0.0082859
0.7499999 0.9917135 0.0082862
0.9917138 0.9917137 0.0082862
0.0433165 0.0781620 0.2549283
0.2512397 0.0397252 0.2298727
0.5158154 0.0370862 0.2379584
0.7511938 0.0162174 0.2363667
0.9914759 0.0084849 0.2496845
0.0181126 0.2309166 0.2910926
0.3158803 0.3430838 0.3406155
0.5530207 0.2543418 0.1864509
0.8065875 0.2152188 0.1061092
0.9263350 0.2286271 0.1624980
0.0077812 0.4972624 0.2524188
0.0328026 0.4826864 0.3338485
0.5788339 0.5614896 0.2881309
0.8192179 0.4815522 0.2023344
0.9487667 0.4944238 0.2406259
0.0082855 0.7499954 0.2500024
0.2423649 0.7440671 0.2539072
0.4003062 0.6974792 0.3097950
0.6947783 0.6453795 0.2667339
0.9020404 0.6534853 0.2663214
0.0082859 0.9917141 0.2500000
0.2500000 0.9917141 0.2500000
0.4999738 0.9916537 0.2500332
0.7498466 0.9906723 0.2501445
0.9898540 0.9891350 0.2504399
0.0083780 0.0111423 0.4992426
0.2503683 0.0131486 0.4976901
0.5048296 0.0134509 0.4933318
0.7509084 0.0105239 0.4977448
0.9917126 0.0082912 0.4999985
0.0214766 0.3001034 0.5377164
0.2852915 0.3229240 0.5209060
0.6411123 0.3370374 0.4707927
0.8703996 0.3084861 0.4074154
0.9870401 0.2545722 0.4897372
0.0115725 0.4953116 0.5338371
0.2728729 0.5376421 0.5983380
0.6284407 0.6077042 0.5981621
0.7614084 0.5095914 0.4548599
0.8828118 0.4689363 0.4197169
0.0082865 0.7499972 0.5000023
0.2559320 0.7481018 0.5016598
0.4713122 0.7052037 0.5116517
0.6976546 0.6657100 0.5162802
0.8090211 0.6316770 0.4664090
0.0082859 0.9917141 0.5000000
0.2500001 0.9917141 0.5000000
0.4999969 0.9914523 0.4999956
0.7365368 0.9479519 0.5056529
0.8255496 0.7070032 0.4567326
0.0082860 0.0082885 0.7499989
0.2499999 0.0082865 0.7499995
0.5000001 0.0082861 0.7499998
0.7500005 0.0082871 0.7499987
0.9917141 0.0082859 0.7500000
0.0110277 0.2665495 0.7422833
0.2526771 0.2609920 0.7460554
0.5038130 0.2551854 0.7473221
0.7532775 0.2597196 0.7396647
0.9906487 0.2514981 0.7486039
0.0263362 0.5456057 0.7768650
0.2875647 0.5633448 0.7440342
0.5430698 0.5530699 0.7011386
0.7605025 0.5581367 0.6340927
0.8783252 0.5313197 0.6471941
0.0087940 0.7493007 0.7501332
0.3435450 0.7230413 0.7251564
0.5020078 0.6829922 0.7071525
0.7213398 0.6977501 0.6771355
0.7762307 0.6335385 0.5905977
0.0082859 0.9917141 0.7500000
0.2500168 0.9917003 0.7499954
0.5001507 0.9908528 0.7497963
0.7383284 0.9497448 0.7319282
0.7916861 0.7036758 0.5832301
0.0082859 0.0082859 0.9917141
0.2500000 0.0082859 0.9917141
0.5000000 0.0082859 0.9917141
0.7500000 0.0082859 0.9917141
0.9917141 0.0082859 0.9917141
0.0082860 0.2500011 0.9917133
0.2500000 0.2500002 0.9917139
0.5000000 0.2500000 0.9917141
0.7500001 0.2500007 0.9917132
0.9917136 0.2500008 0.9917130
0.0128475 0.5027882 0.9855717
0.2520036 0.5061160 0.9801721
0.5001920 0.5004020 0.9907943
0.7500247 0.5002435 0.9907733
0.9901186 0.5006569 0.9886159
0.0105857 0.7485617 0.9893943
0.2692008 0.7267285 0.9434437
0.5304015 0.7306776 0.9095716
0.7426267 0.7425377 0.8711956
0.9102258 0.7174597 0.8694091
0.0082859 0.9917141 0.9917141
0.2500001 0.9917137 0.9917138
0.5002285 0.9913095 0.9913196
0.7419524 0.8930307 0.8876738
0.7591919 0.7456943 0.7153763
