looks/recipe_cinestill800t.cube
TITLE "Fuji recipe CineStill 800T (16 RAFs)"
LUT_3D_SIZE 33
0.0890616 0.1101246 0.1040860
0.1319928 0.1131921 0.1099411
0.1967834 0.1099237 0.1134213
0.2481238 0.1067861 0.1151800
0.2886311 0.1070387 0.1179992
0.3198664 0.1056067 0.1191547
0.3317893 0.1017950 0.1134748
0.3446022 0.1056626 0.1126315
0.3835334 0.1115227 0.1219419
0.4475247 0.1172366 0.1330042
0.4877051 0.1222102 0.1405290
0.5052494 0.1223503 0.1417462
0.5321954 0.1283539 0.1495139
0.5592607 0.1349405 0.1582178
0.5831366 0.1395165 0.1653930
0.6055731 0.1428640 0.1716245
0.6215546 0.1415933 0.1714295
0.6230240 0.1274317 0.1543040
0.6270916 0.1077784 0.1301466
0.6471412 0.0978748 0.1183087
0.6635353 0.0857495 0.1035283
0.6769042 0.0650684 0.0779467
0.6959091 0.0442296 0.0520876
0.7211596 0.0286028 0.0328797
0.7500710 0.0180184 0.0200111
0.7808517 0.0122962 0.0130608
0.8122160 0.0098484 0.0101048
0.8436030 0.0088453 0.0089269
0.8749395 0.0084527 0.0084766
0.9062313 0.0083260 0.0083318
0.9374900 0.0082936 0.0082948
0.9682577 0.0082871 0.0082873
0.9917140 0.0082861 0.0082861
0.0764937 0.1237048 0.0879202
0.1126258 0.1271570 0.0968973
0.1683501 0.1282786 0.0997021
0.2197954 0.1256288 0.1009776
0.2624453 0.1236020 0.1051152
0.2984325 0.1208117 0.1094668
0.3260755 0.1201234 0.1093142
0.3535344 0.1291564 0.1134015
0.3842423 0.1305731 0.1238325
0.4304437 0.1323733 0.1346615
0.4746946 0.1342127 0.1452513
0.5071587 0.1358075 0.1518298
0.5370477 0.1412342 0.1598008
0.5640811 0.1469093 0.1675251
0.5879673 0.1507666 0.1738074
0.6102199 0.1527489 0.1785035
0.6262392 0.1517886 0.1781626
0.6291311 0.1412834 0.1634379
0.6369851 0.1294027 0.1462535
0.6592865 0.1271206 0.1420845
0.6729679 0.1164816 0.1267720
0.6820163 0.0940971 0.0951767
0.6980268 0.0714393 0.0630580
0.7218488 0.0546643 0.0394721
0.7502420 0.0436844 0.0242213
0.7807814 0.0375180 0.0157951
0.8120452 0.0342820 0.0115325
0.8434792 0.0326803 0.0094806
0.8748866 0.0320226 0.0086433
0.9062149 0.0318092 0.0083719
0.9374861 0.0317546 0.0083025
0.9682570 0.0317436 0.0082885
0.9917139 0.0317418 0.0082862
0.0641636 0.1397344 0.0737045
0.0921741 0.1464897 0.0765592
0.1409222 0.1501959 0.0805883
0.1912779 0.1487796 0.0844341
0.2347129 0.1470350 0.0882661
0.2760769 0.1466282 0.0931066
0.3176416 0.1496917 0.0987199
0.3556091 0.1557826 0.1077645
0.3827631 0.1557225 0.1141338
0.4173069 0.1549258 0.1232574
0.4538742 0.1497058 0.1393019
0.4877665 0.1475590 0.1514081
0.5207981 0.1509735 0.1597513
0.5510525 0.1550006 0.1657004
0.5752383 0.1567307 0.1689724
0.5965114 0.1560068 0.1696048
0.6153567 0.1558991 0.1692579
0.6280227 0.1518337 0.1617946
0.6462138 0.1505261 0.1575935
0.6681428 0.1519761 0.1573402
0.6786134 0.1425270 0.1405682
0.6854194 0.1224722 0.1065982
0.6998310 0.1020117 0.0718228
0.7227413 0.0869596 0.0464010
0.7506500 0.0774506 0.0305617
0.7806654 0.0708147 0.0203304
0.8117516 0.0663379 0.0138056
0.8432853 0.0639339 0.0103416
0.8748047 0.0629336 0.0089019
0.9061895 0.0626088 0.0084344
0.9374801 0.0625257 0.0083148
0.9682558 0.0625088 0.0082905
0.9917136 0.0625060 0.0082866
0.0562424 0.1549541 0.0622635
0.0764678 0.1655603 0.0593968
0.1154911 0.1688626 0.0639871
0.1675079 0.1678681 0.0722101
0.2160530 0.1679610 0.0784261
0.2610216 0.1688693 0.0828544
0.3075908 0.1724047 0.0877901
0.3494390 0.1774755 0.0949038
0.3831403 0.1805765 0.1016685
0.4135008 0.1792264 0.1093126
0.4368561 0.1705529 0.1184136
0.4682958 0.1652522 0.1305780
0.5000349 0.1661051 0.1388701
0.5262071 0.1660191 0.1432668
0.5471349 0.1637022 0.1453292
0.5683387 0.1618184 0.1493679
0.5917104 0.1625066 0.1516600
0.6135424 0.1592467 0.1462131
0.6386752 0.1597337 0.1451425
0.6618051 0.1615148 0.1452713
0.6745359 0.1559173 0.1318976
0.6846421 0.1440482 0.1054296
0.7006087 0.1301965 0.0758544
0.7237704 0.1189121 0.0527156
0.7510818 0.1108332 0.0371559
0.7805036 0.1037118 0.0248265
0.8114647 0.0983847 0.0159649
0.8431038 0.0954812 0.0111534
0.8747280 0.0942720 0.0091497
0.9061649 0.0938788 0.0084982
0.9374737 0.0937766 0.0083293
0.9682543 0.0937547 0.0082935
0.9917133 0.0937508 0.0082872
0.0542999 0.1809913 0.0489263
0.0683674 0.1886214 0.0473996
0.0963547 0.1895275 0.0514437
0.1417806 0.1865854 0.0597622
0.1948117 0.1866298 0.0685003
0.2460511 0.1885866 0.0753286
0.2970675 0.1916321 0.0820638
0.3431782 0.1972177 0.0879548
0.3820585 0.2029215 0.0931705
0.4126435 0.2051567 0.0981434
0.4352692 0.2035466 0.1007249
0.4652632 0.2049220 0.1054361
0.4871048 0.2051564 0.1080545
0.4991996 0.1983728 0.1081349
0.5155693 0.1889971 0.1076142
0.5423085 0.1807106 0.1176743
0.5687431 0.1757182 0.1241534
0.5919043 0.1703528 0.1223604
0.6198059 0.1694664 0.1202903
0.6465982 0.1710097 0.1204190
0.6655838 0.1697379 0.1141233
0.6813598 0.1652875 0.0987776
0.7000129 0.1566846 0.0761808
0.7244857 0.1489685 0.0569386
0.7514825 0.1418422 0.0413920
0.7804449 0.1347912 0.0273890
0.8113315 0.1295719 0.0171883
0.8430178 0.1267393 0.0116561
0.8746871 0.1255487 0.0093387
0.9061474 0.1251472 0.0085637
0.9374671 0.1250346 0.0083494
0.9682523 0.1250071 0.0082986
0.9917127 0.1250014 0.0082883
0.0557237 0.2062086 0.0362511
0.0673823 0.2112450 0.0387800
0.0883952 0.2118230 0.0430254
0.1208253 0.2098329 0.0471893
0.1678650 0.2082727 0.0545611
0.2242800 0.2093053 0.0642348
0.2811246 0.2114682 0.0752098
0.3340384 0.2168143 0.0835734
0.3786117 0.2236277 0.0883720
0.4160860 0.2295167 0.0930251
0.4477091 0.2340742 0.0979339
0.4775117 0.2367117 0.1014699
0.4950489 0.2348659 0.0998947
0.5030779 0.2297816 0.0937006
0.5156616 0.2256782 0.0869778
0.5308923 0.2169259 0.0851379
0.5495734 0.2037228 0.0857894
0.5743491 0.1936510 0.0912867
0.6038408 0.1902198 0.0955609
0.6333556 0.1889251 0.0988220
0.6575389 0.1878135 0.0972750
0.6774930 0.1849503 0.0869095
0.6987605 0.1798171 0.0699983
0.7245506 0.1758239 0.0559601
0.7516796 0.1704803 0.0418007
0.7805455 0.1645475 0.0277131
0.8113959 0.1602212 0.0174891
0.8430427 0.1578641 0.0119365
0.8746789 0.1568155 0.0095249
0.9061326 0.1564194 0.0086468
0.9374589 0.1562937 0.0083763
0.9682494 0.1562598 0.0083056
0.9917119 0.1562521 0.0082900
0.0539691 0.2193150 0.0310968
0.0684425 0.2248480 0.0357794
0.0865728 0.2283700 0.0391640
0.1102347 0.2319856 0.0398066
0.1478835 0.2319550 0.0436410
0.1992721 0.2287801 0.0532324
0.2564258 0.2287767 0.0654191
0.3173650 0.2321387 0.0766305
0.3687806 0.2408366 0.0845013
0.4105431 0.2503149 0.0898707
0.4471219 0.2587928 0.0958272
0.4832608 0.2629877 0.1014797
0.5116009 0.2604846 0.1020975
0.5282867 0.2576801 0.0977150
0.5382027 0.2594816 0.0935424
0.5441661 0.2561548 0.0854960
0.5532365 0.2456711 0.0753394
0.5705744 0.2352967 0.0707094
0.5939225 0.2248123 0.0710039
0.6213732 0.2134879 0.0728467
0.6481671 0.2068542 0.0727486
0.6722412 0.2040580 0.0667396
0.6970595 0.2022639 0.0574439
0.7239930 0.2007957 0.0490194
0.7515624 0.1974359 0.0376788
0.7807420 0.1934695 0.0256384
0.8116131 0.1905657 0.0168791
0.8431339 0.1888713 0.0119456
0.8746860 0.1880235 0.0096266
0.9061221 0.1876697 0.0087061
0.9374518 0.1875475 0.0083996
0.9682466 0.1875115 0.0083126
0.9917110 0.1875027 0.0082920
0.0517858 0.2372386 0.0306150
0.0693947 0.2399941 0.0346762
0.0841086 0.2425501 0.0355241
0.1018666 0.2500882 0.0351028
0.1339863 0.2552328 0.0375711
0.1761599 0.2516702 0.0452139
0.2285515 0.2486770 0.0550622
0.2934961 0.2489258 0.0679569
0.3503029 0.2573361 0.0790509
0.3916697 0.2702806 0.0848698
0.4315211 0.2827111 0.0901407
0.4764833 0.2884137 0.0965757
0.5158987 0.2881249 0.1015982
0.5437497 0.2834151 0.1038875
0.5600935 0.2846957 0.1038972
0.5678751 0.2851100 0.0975968
0.5769935 0.2854958 0.0886064
0.5850934 0.2809111 0.0770699
0.5965535 0.2689611 0.0643975
0.6153239 0.2514194 0.0537226
0.6402385 0.2363596 0.0489449
0.6669106 0.2300244 0.0453653
0.6947130 0.2274987 0.0421652
0.7227961 0.2260667 0.0376014
0.7512628 0.2242710 0.0298452
0.7810358 0.2223398 0.0215853
0.8119145 0.2207940 0.0153407
0.8432660 0.2197383 0.0115049
0.8747218 0.2191543 0.0095431
0.9061262 0.2188926 0.0087095
0.9374496 0.2187934 0.0084097
0.9682450 0.2187614 0.0083173
0.9917103 0.2187530 0.0082937
0.0499058 0.2645516 0.0318527
0.0671559 0.2638578 0.0334047
0.0796388 0.2606463 0.0304573
0.0930759 0.2648369 0.0297945
0.1198832 0.2766190 0.0325597
0.1520873 0.2846349 0.0366226
0.1922146 0.2823443 0.0432458
0.2588011 0.2786683 0.0590499
0.3250878 0.2865099 0.0748404
0.3702062 0.2965469 0.0823928
0.4146169 0.3035342 0.0858211
0.4631744 0.3056768 0.0901398
0.5100040 0.3061427 0.0966093
0.5498887 0.3057511 0.1038972
0.5769565 0.3089502 0.1074646
0.5910272 0.3095187 0.1038264
0.6019228 0.3190158 0.1022139
0.6080252 0.3242604 0.0947740
0.6130036 0.3151465 0.0772867
0.6236474 0.2986022 0.0578047
0.6411197 0.2810386 0.0428597
0.6644731 0.2678269 0.0332557
0.6921544 0.2584973 0.0291571
0.7212464 0.2543027 0.0259310
0.7509140 0.2527342 0.0216212
0.7812613 0.2518430 0.0170728
0.8121641 0.2511232 0.0132721
0.8434131 0.2505810 0.0107110
0.8747857 0.2502595 0.0093037
0.9061458 0.2500999 0.0086562
0.9374536 0.2500333 0.0084027
0.9682453 0.2500096 0.0083179
0.9917101 0.2500026 0.0082943
0.0393074 0.2835053 0.0246757
0.0579324 0.2785115 0.0243236
0.0757596 0.2737288 0.0241151
0.0900816 0.2770798 0.0257087
0.1100326 0.2913056 0.0282325
0.1366567 0.3070804 0.0305984
0.1700424 0.3100805 0.0353635
0.2287142 0.3072677 0.0488308
0.2945229 0.3196757 0.0666314
0.3440595 0.3314035 0.0806083
0.3942206 0.3265918 0.0832486
0.4468184 0.3236542 0.0860317
0.5033581 0.3262881 0.0943526
0.5572761 0.3375074 0.1058002
0.5899244 0.3431046 0.1121557
0.6060693 0.3404885 0.1107677
0.6226774 0.3530389 0.1158678
0.6316822 0.3608966 0.1126439
0.6369690 0.3577441 0.0983549
0.6419238 0.3455555 0.0781312
0.6513243 0.3285130 0.0568282
0.6676306 0.3100547 0.0380569
0.6916260 0.2956828 0.0259912
0.7203124 0.2878003 0.0197050
0.7505317 0.2840451 0.0161241
0.7812456 0.2824991 0.0133798
0.8122940 0.2818562 0.0112680
0.8435399 0.2815433 0.0098485
0.8748560 0.2813864 0.0089994
0.9061741 0.2813078 0.0085666
0.9374624 0.2812714 0.0083814
0.9682474 0.2812566 0.0083135
0.9917105 0.2812518 0.0082934
0.0267934 0.3044249 0.0155984
0.0494143 0.2990099 0.0169505
0.0750558 0.2958402 0.0200774
0.0960066 0.2999804 0.0237055
0.1128624 0.3092724 0.0261582
0.1343915 0.3266193 0.0284224
0.1616426 0.3399741 0.0313711
0.2039410 0.3369380 0.0377868
0.2666127 0.3358059 0.0520080
0.3228083 0.3486950 0.0703379
0.3729917 0.3528565 0.0801330
0.4271021 0.3562979 0.0864632
0.4880049 0.3561955 0.0939790
0.5430421 0.3633458 0.1014713
0.5842780 0.3696797 0.1103682
0.6115394 0.3734886 0.1155419
0.6363291 0.3827700 0.1228427
0.6528949 0.3905141 0.1244436
0.6597681 0.3919994 0.1171577
0.6624377 0.3862010 0.1013484
0.6643953 0.3695070 0.0768957
0.6742752 0.3499004 0.0520992
0.6946478 0.3350934 0.0339301
0.7210988 0.3249947 0.0224110
0.7503049 0.3182430 0.0154352
0.7809951 0.3146483 0.0116260
0.8122675 0.3131725 0.0099127
0.8436057 0.3126900 0.0091533
0.8749124 0.3125643 0.0087182
0.9062021 0.3125274 0.0084701
0.9374728 0.3125107 0.0083522
0.9682506 0.3125033 0.0083056
0.9917116 0.3125009 0.0082913
0.0195198 0.3353787 0.0119693
0.0452251 0.3317768 0.0143147
0.0772784 0.3299542 0.0186135
0.1050900 0.3327461 0.0229897
0.1228679 0.3351986 0.0254857
0.1374437 0.3444270 0.0277319
0.1584720 0.3603506 0.0299327
0.1899808 0.3634356 0.0323980
0.2436527 0.3575264 0.0408910
0.3001792 0.3658718 0.0578159
0.3503405 0.3786571 0.0729755
0.4011098 0.3880795 0.0808914
0.4596570 0.3888358 0.0864105
0.5087356 0.3931008 0.0909568
0.5597868 0.3953007 0.1023384
0.6027280 0.3981733 0.1127184
0.6343808 0.4018414 0.1192764
0.6589982 0.4086112 0.1266851
0.6743220 0.4162719 0.1284830
0.6758036 0.4130096 0.1158469
0.6745675 0.4000961 0.0921177
0.6836192 0.3872604 0.0688174
0.7009956 0.3749492 0.0483817
0.7232763 0.3622312 0.0310331
0.7503852 0.3524014 0.0188733
0.7807233 0.3469736 0.0123269
0.8121364 0.3447044 0.0096610
0.8435999 0.3439713 0.0088043
0.8749411 0.3437940 0.0085198
0.9062227 0.3437609 0.0083887
0.9374821 0.3437535 0.0083239
0.9682539 0.3437510 0.0082973
0.9917126 0.3437503 0.0082890
0.0163170 0.3705437 0.0112340
0.0432395 0.3675941 0.0129028
0.0778216 0.3632176 0.0162246
0.1080022 0.3588029 0.0198098
0.1283332 0.3553626 0.0231689
0.1445015 0.3608313 0.0266905
0.1652224 0.3793259 0.0301859
0.1895083 0.3956650 0.0324138
0.2208768 0.3972827 0.0345760
0.2659578 0.3973085 0.0430011
0.3245677 0.3994168 0.0583221
0.3846250 0.4034745 0.0695511
0.4446724 0.4053936 0.0767525
0.4872879 0.4139663 0.0819616
0.5305545 0.4206389 0.0906954
0.5758950 0.4178273 0.0997832
0.6096606 0.4129341 0.1063744
0.6435460 0.4126514 0.1196414
0.6721219 0.4259092 0.1274630
0.6794722 0.4289625 0.1188808
0.6835521 0.4252914 0.1019690
0.6951170 0.4213398 0.0850610
0.7078119 0.4100858 0.0629664
0.7253498 0.3955789 0.0398485
0.7505526 0.3845746 0.0229427
0.7805122 0.3785743 0.0137647
0.8119947 0.3760710 0.0099570
0.8435568 0.3752559 0.0087381
0.8749431 0.3750477 0.0084218
0.9062327 0.3750071 0.0083357
0.9374882 0.3750010 0.0083037
0.9682563 0.3750002 0.0082912
0.9917134 0.3750001 0.0082873
0.0134278 0.4034216 0.0099563
0.0400713 0.4002697 0.0110554
0.0746460 0.3942142 0.0131407
0.1063879 0.3867578 0.0161144
0.1340218 0.3837234 0.0203742
0.1597500 0.3914231 0.0258555
0.1800703 0.4064120 0.0307828
0.1987237 0.4265236 0.0341256
0.2163583 0.4357263 0.0341690
0.2449360 0.4372634 0.0346410
0.2976655 0.4312599 0.0417175
0.3729913 0.4262466 0.0565118
0.4365586 0.4270821 0.0684210
0.4740746 0.4329202 0.0757494
0.5103606 0.4397608 0.0808792
0.5410585 0.4415178 0.0829831
0.5686601 0.4339470 0.0874131
0.6163999 0.4228406 0.1034698
0.6588635 0.4333226 0.1153275
0.6790669 0.4436973 0.1156400
0.6942732 0.4498716 0.1100622
0.7044876 0.4480518 0.0964465
0.7120953 0.4370905 0.0717501
0.7267611 0.4241370 0.0449901
0.7508089 0.4145701 0.0253510
0.7804562 0.4093726 0.0146832
0.8119208 0.4072066 0.0102424
0.8435186 0.4064969 0.0087927
0.8749313 0.4063067 0.0084089
0.9062324 0.4062628 0.0083183
0.9374897 0.4062530 0.0082954
0.9682571 0.4062507 0.0082886
0.9917137 0.4062502 0.0082866
0.0110821 0.4353918 0.0089773
0.0368726 0.4328835 0.0096436
0.0712360 0.4284471 0.0110900
0.1063981 0.4239984 0.0138257
0.1426604 0.4247879 0.0187783
0.1767897 0.4343668 0.0257676
0.1987780 0.4440863 0.0320385
0.2116970 0.4545284 0.0358308
0.2238628 0.4634230 0.0364954
0.2426646 0.4681210 0.0352794
0.2850034 0.4658175 0.0373096
0.3590173 0.4593074 0.0498888
0.4191812 0.4612016 0.0646649
0.4527492 0.4621168 0.0724552
0.4896860 0.4570650 0.0731281
0.5208565 0.4567493 0.0719863
0.5456099 0.4540741 0.0748921
0.5884374 0.4449781 0.0843192
0.6383061 0.4502345 0.0963618
0.6735974 0.4611635 0.1063273
0.6975412 0.4695584 0.1104081
0.7075882 0.4681411 0.0989639
0.7137495 0.4597083 0.0735479
0.7276598 0.4503653 0.0460674
0.7512035 0.4435177 0.0259299
0.7805642 0.4398063 0.0150127
0.8119111 0.4382566 0.0104501
0.8434867 0.4377331 0.0089131
0.8749096 0.4375803 0.0084689
0.9062212 0.4375312 0.0083437
0.9374844 0.4375111 0.0083045
0.9682550 0.4375032 0.0082913
0.9917130 0.4375009 0.0082874
0.0097443 0.4675789 0.0085720
0.0350695 0.4663823 0.0090238
0.0699945 0.4646145 0.0102561
0.1077963 0.4631551 0.0128578
0.1468723 0.4633648 0.0178118
0.1812768 0.4656941 0.0248122
0.2030829 0.4674562 0.0313039
0.2157553 0.4710403 0.0352562
0.2305948 0.4797513 0.0371901
0.2476002 0.4867492 0.0372152
0.2736490 0.4861369 0.0360701
0.3288638 0.4805737 0.0412854
0.3975392 0.4810036 0.0560068
0.4334917 0.4811203 0.0637220
0.4638048 0.4762312 0.0623073
0.5049255 0.4732639 0.0618604
0.5335639 0.4748466 0.0651320
0.5647168 0.4732331 0.0674959
0.6148061 0.4746198 0.0759025
0.6617893 0.4803879 0.0900761
0.6897567 0.4844000 0.0974491
0.7018572 0.4834151 0.0881157
0.7109326 0.4793626 0.0658260
0.7268228 0.4749428 0.0417458
0.7511455 0.4717325 0.0241765
0.7806177 0.4700180 0.0146728
0.8119074 0.4692832 0.0106184
0.8434455 0.4690292 0.0091782
0.8748616 0.4689146 0.0086670
0.9061831 0.4688300 0.0084460
0.9374639 0.4687800 0.0083443
0.9682472 0.4687590 0.0083034
0.9917105 0.4687524 0.0082906
0.0091404 0.4995455 0.0084341
0.0340772 0.4990762 0.0087680
0.0686022 0.4981170 0.0098039
0.1062393 0.4962920 0.0122006
0.1444274 0.4931687 0.0166580
0.1774098 0.4888895 0.0228246
0.2004843 0.4853631 0.0289537
0.2178091 0.4869181 0.0338166
0.2356847 0.4941164 0.0372907
0.2511792 0.4992471 0.0382577
0.2687150 0.5022079 0.0366865
0.3105695 0.5039746 0.0375262
0.3776934 0.5060454 0.0452438
0.4163409 0.5051242 0.0485627
0.4469158 0.5012105 0.0468733
0.4916212 0.4962728 0.0479497
0.5227498 0.4966053 0.0499184
0.5486804 0.4976623 0.0487784
0.5903247 0.4987687 0.0525103
0.6399454 0.5004873 0.0654092
0.6717378 0.5012526 0.0723028
0.6890923 0.5012055 0.0657574
0.7043774 0.5009066 0.0498960
0.7245553 0.5006235 0.0328963
0.7508129 0.5005612 0.0206733
0.7808141 0.5006534 0.0140884
0.8119959 0.5006126 0.0111988
0.8433736 0.5005288 0.0099485
0.8747308 0.5003471 0.0091982
0.9060815 0.5001653 0.0087050
0.9374132 0.5000618 0.0084420
0.9682285 0.5000185 0.0083327
0.9917043 0.5000051 0.0082986
0.0088094 0.5310608 0.0083762
0.0333007 0.5306926 0.0086058
0.0667323 0.5295557 0.0093454
0.1026279 0.5268314 0.0111239
0.1390295 0.5218571 0.0144313
0.1723361 0.5152315 0.0191895
0.2008694 0.5102348 0.0250432
0.2256350 0.5103476 0.0316282
0.2431481 0.5125964 0.0368357
0.2561363 0.5168229 0.0398054
0.2699371 0.5243953 0.0403263
0.3011399 0.5343125 0.0395771
0.3552192 0.5468549 0.0397427
0.3937356 0.5473521 0.0360946
0.4299145 0.5395858 0.0319329
0.4748324 0.5290897 0.0318750
0.5092902 0.5255448 0.0322310
0.5390646 0.5253696 0.0312949
0.5756952 0.5262224 0.0330108
0.6193530 0.5262253 0.0410555
0.6519759 0.5259418 0.0453960
0.6752753 0.5265089 0.0417239
0.6973198 0.5278646 0.0329094
0.7222545 0.5295148 0.0238282
0.7508282 0.5311268 0.0177296
0.7813565 0.5322319 0.0147337
0.8121793 0.5324073 0.0131364
0.8431780 0.5321426 0.0116573
0.8744527 0.5317832 0.0102278
0.9058889 0.5314987 0.0091873
0.9373195 0.5313428 0.0086221
0.9681938 0.5312779 0.0083868
0.9916930 0.5312576 0.0083135
0.0085746 0.5623768 0.0083360
0.0326333 0.5620565 0.0084698
0.0649718 0.5610335 0.0089025
0.0991248 0.5585899 0.0099755
0.1342785 0.5541294 0.0121204
0.1694175 0.5480354 0.0157896
0.2036425 0.5425933 0.0216223
0.2332993 0.5396286 0.0294419
0.2520322 0.5371637 0.0366884
0.2625711 0.5379409 0.0416537
0.2730288 0.5427132 0.0439868
0.2983498 0.5537055 0.0430021
0.3420755 0.5689505 0.0402334
0.3800987 0.5732657 0.0336293
0.4176688 0.5705179 0.0267608
0.4563326 0.5651713 0.0219629
0.4931946 0.5616446 0.0192866
0.5307577 0.5590001 0.0189727
0.5678185 0.5583858 0.0202933
0.6055218 0.5576953 0.0239234
0.6375449 0.5572435 0.0258797
0.6651785 0.5577615 0.0242988
0.6923460 0.5591309 0.0209070
0.7211250 0.5610356 0.0182899
0.7514517 0.5628837 0.0176222
0.7818943 0.5637457 0.0175184
0.8121603 0.5637432 0.0163753
0.8428149 0.5634038 0.0140952
0.8740577 0.5630237 0.0116438
0.9056255 0.5627433 0.0098451
0.9371917 0.5625909 0.0088678
0.9681464 0.5625277 0.0084614
0.9916772 0.5625080 0.0083348
0.0084207 0.5936742 0.0083093
0.0321712 0.5934713 0.0083736
0.0637769 0.5928177 0.0085944
0.0969309 0.5912211 0.0092240
0.1315874 0.5879917 0.0107123
0.1675023 0.5826036 0.0136791
0.2034028 0.5754157 0.0189289
0.2344597 0.5668539 0.0263960
0.2557488 0.5587406 0.0343594
0.2682831 0.5549998 0.0410093
0.2776325 0.5559164 0.0444683
0.2957105 0.5630450 0.0433924
0.3296699 0.5759934 0.0402078
0.3688472 0.5862784 0.0339720
0.4097836 0.5921825 0.0267965
0.4473433 0.5937026 0.0200248
0.4848214 0.5934517 0.0153007
0.5242414 0.5926897 0.0134046
0.5621952 0.5920018 0.0135603
0.5974597 0.5912140 0.0147504
0.6296081 0.5908501 0.0156063
0.6598744 0.5910897 0.0153299
0.6901690 0.5918932 0.0153040
0.7212800 0.5931034 0.0171015
0.7521851 0.5939374 0.0196508
0.7822363 0.5941812 0.0208143
0.8120440 0.5941532 0.0194994
0.8424537 0.5940407 0.0163563
0.8736909 0.5939181 0.0129515
0.9053821 0.5938287 0.0104537
0.9370730 0.5937809 0.0090985
0.9681010 0.5937615 0.0085358
0.9916607 0.5937549 0.0083593
0.0083408 0.6249637 0.0082953
0.0319390 0.6248620 0.0083251
0.0631684 0.6245016 0.0084400
0.0956003 0.6234947 0.0088019
0.1292794 0.6211596 0.0097570
0.1643313 0.6165019 0.0118772
0.1995524 0.6085529 0.0158613
0.2314017 0.5973393 0.0219373
0.2561359 0.5850993 0.0295525
0.2718887 0.5754175 0.0373816
0.2806021 0.5713346 0.0424625
0.2938185 0.5747495 0.0426138
0.3215072 0.5864291 0.0398332
0.3583622 0.5995565 0.0342816
0.3987220 0.6091874 0.0277392
0.4386973 0.6155996 0.0211557
0.4790860 0.6200662 0.0157557
0.5196245 0.6231173 0.0125293
0.5575763 0.6243688 0.0112177
0.5926039 0.6242905 0.0109227
0.6259825 0.6239511 0.0114142
0.6579488 0.6239581 0.0121203
0.6897817 0.6240542 0.0139033
0.7215904 0.6240825 0.0173432
0.7524894 0.6239296 0.0208042
0.7823581 0.6238264 0.0222476
0.8119916 0.6239491 0.0207977
0.8423035 0.6242438 0.0172917
0.8735390 0.6245640 0.0134955
0.9052801 0.6248015 0.0107172
0.9370196 0.6249325 0.0092150
0.9680759 0.6249850 0.0085861
0.9916481 0.6249986 0.0083816
0.0083080 0.6562349 0.0082896
0.0318295 0.6561863 0.0083030
0.0628232 0.6559960 0.0083582
0.0946882 0.6554039 0.0085412
0.1273322 0.6538627 0.0090674
0.1610133 0.6503832 0.0103666
0.1951814 0.6437889 0.0130743
0.2277160 0.6331902 0.0177950
0.2546212 0.6185520 0.0246008
0.2720500 0.6037929 0.0329629
0.2800806 0.5942373 0.0409375
0.2880638 0.5917711 0.0439046
0.3098859 0.5992357 0.0412284
0.3473834 0.6112489 0.0357230
0.3886361 0.6225169 0.0303590
0.4287025 0.6334565 0.0240451
0.4714873 0.6436482 0.0179763
0.5146355 0.6507855 0.0137948
0.5540386 0.6543843 0.0113551
0.5900781 0.6555797 0.0100434
0.6243337 0.6557463 0.0099196
0.6572443 0.6556483 0.0108191
0.6895226 0.6552489 0.0130295
0.7213241 0.6545938 0.0163607
0.7522357 0.6539618 0.0194986
0.7822433 0.6536974 0.0207977
0.8120444 0.6539626 0.0194992
0.8424537 0.6546051 0.0163620
0.8736895 0.6553051 0.0129784
0.9053736 0.6558230 0.0105182
0.9370536 0.6561014 0.0091818
0.9680781 0.6562098 0.0085984
0.9916419 0.6562405 0.0083962
0.0082941 0.6874940 0.0082873
0.0317752 0.6874725 0.0082924
0.0626328 0.6873844 0.0083147
0.0941614 0.6870867 0.0083972
0.1261287 0.6862082 0.0086662
0.1588094 0.6839898 0.0094383
0.1921219 0.6792083 0.0112923
0.2247247 0.6701038 0.0149339
0.2532106 0.6552257 0.0209536
0.2731563 0.6364191 0.0291238
0.2835351 0.6199278 0.0372086
0.2925494 0.6124246 0.0412277
0.3149845 0.6164665 0.0405544
0.3516206 0.6257052 0.0375336
0.3851956 0.6362060 0.0334474
0.4209896 0.6499259 0.0276080
0.4634573 0.6649951 0.0212606
0.5080618 0.6760709 0.0159113
0.5500394 0.6824830 0.0121410
0.5882922 0.6856627 0.0100250
0.6233545 0.6868119 0.0093228
0.6566809 0.6869026 0.0099261
0.6889451 0.6864048 0.0116521
0.7206047 0.6856176 0.0140949
0.7516093 0.6848851 0.0163563
0.7819650 0.6845822 0.0172917
0.8121726 0.6848863 0.0163620
0.8428175 0.6856242 0.0141283
0.8740516 0.6864279 0.0117460
0.9055993 0.6870133 0.0100148
0.9371469 0.6873195 0.0090325
0.9681026 0.6874429 0.0085695
0.9916422 0.6874835 0.0084019
0.0082884 0.7187479 0.0082863
0.0317524 0.7187400 0.0082880
0.0625518 0.7187048 0.0082965
0.0939226 0.7185671 0.0083342
0.1255430 0.7180891 0.0084769
0.1576401 0.7166773 0.0089315
0.1903213 0.7131267 0.0101360
0.2228701 0.7053486 0.0127846
0.2527005 0.6912320 0.0175886
0.2759234 0.6718711 0.0242339
0.2916440 0.6531760 0.0308338
0.3061103 0.6421621 0.0355743
0.3280676 0.6407373 0.0382606
0.3564478 0.6447554 0.0385730
0.3825892 0.6522478 0.0363448
0.4139724 0.6648714 0.0318686
0.4539221 0.6819446 0.0250840
0.4998470 0.6979831 0.0180844
0.5454376 0.7091492 0.0129397
0.5864610 0.7151800 0.0101400
0.6226354 0.7176051 0.0090635
0.6561410 0.7181722 0.0092230
0.6882862 0.7178755 0.0102203
0.7198198 0.7172588 0.0116434
0.7509304 0.7166786 0.0129518
0.7816638 0.7164391 0.0134957
0.8123127 0.7166818 0.0129784
0.8432118 0.7172678 0.0117460
0.8744388 0.7178952 0.0104384
0.9058408 0.7183411 0.0094423
0.9372560 0.7185810 0.0088243
0.9681385 0.7186894 0.0085137
0.9916483 0.7187287 0.0083978
0.0082866 0.7499994 0.0082860
0.0317450 0.7499968 0.0082866
0.0625228 0.7499827 0.0082900
0.0938244 0.7499170 0.0083076
0.1252706 0.7496514 0.0083823
0.1570447 0.7487242 0.0086464
