looks/recipe_kodachrome2.cube
TITLE "Fuji recipe Kodachrome II (16 RAFs)"
LUT_3D_SIZE 5
0.0178734 0.0175288 0.0157086
0.1808405 0.0468287 0.0457501
0.5261796 0.1209269 0.1214032
0.7292646 0.0865313 0.0872709
0.9916351 0.0083937 0.0083903
0.0271742 0.2240504 0.0185031
0.2291869 0.2246080 0.0700439
0.5955832 0.2902981 0.1411933
0.7635003 0.2985534 0.0802383
0.9901186 0.2509758 0.0115357
0.0083220 0.4999679 0.0083119
0.2815975 0.4799750 0.0413976
0.5102949 0.5117449 0.0726652
0.7712908 0.4991267 0.0572515
0.9880597 0.5045277 0.0243241
0.0082859 0.7500000 0.0082859
0.2501310 0.7498483 0.0083793
0.5051490 0.7311597 0.0276906
0.7498443 0.7498277 0.0086563
0.9916808 0.7499520 0.0084173
0.0082859 0.9917141 0.0082859
0.2500000 0.9917141 0.0082859
0.5000000 0.9917139 0.0082860
0.7499999 0.9917121 0.0082882
0.9917105 0.9917091 0.0082928
0.0592166 0.0939415 0.2567069
0.2473141 0.0485534 0.2441137
0.5105616 0.0585020 0.2752463
0.7509540 0.0257631 0.2545648
0.9915030 0.0087262 0.2500978
0.0467417 0.2354700 0.2651396
0.3159007 0.3224114 0.3112762
0.5359582 0.3247450 0.3232650
0.7824129 0.3690239 0.3696605
0.9415210 0.3158347 0.3098958
0.0104416 0.4991423 0.2509329
0.1983248 0.4790803 0.2864659
0.5646712 0.5381421 0.3125795
0.8164940 0.5637426 0.3509163
0.9508675 0.5615360 0.3164694
0.0082954 0.7499791 0.2500053
0.2505427 0.7395103 0.2542633
0.4659172 0.6629033 0.3272313
0.7037195 0.6697432 0.3420444
0.9553424 0.7239460 0.3078220
0.0082859 0.9917141 0.2500000
0.2500001 0.9917139 0.2500001
0.4999917 0.9909398 0.2503509
0.7497795 0.9882524 0.2516505
0.9708595 0.9624206 0.2665416
0.0087455 0.0101407 0.4994329
0.2502643 0.0117005 0.4987887
0.5026904 0.0170113 0.4992686
0.7498270 0.0113465 0.5002007
0.9917119 0.0082930 0.5000020
0.0687613 0.3345839 0.5020455
0.2823625 0.3360332 0.4886343
0.5492622 0.3786511 0.5394995
0.8050033 0.4391406 0.5967983
0.9865373 0.2631832 0.5024168
0.0348813 0.4998099 0.5234369
0.2963481 0.5006861 0.5127485
0.6039384 0.6041289 0.5926896
0.7715362 0.5815111 0.5517201
0.9159900 0.5437983 0.5484287
0.0082921 0.7499911 0.5000069
0.2512696 0.7473024 0.5014717
0.5256163 0.7041313 0.5117643
0.7341202 0.7028563 0.5296409
0.9157682 0.7203699 0.5378573
0.0082859 0.9917141 0.5000000
0.2500001 0.9917141 0.5000000
0.5001941 0.9911088 0.5000120
0.7408239 0.9401102 0.5169312
0.9524782 0.8688581 0.5184762
0.0082861 0.0082868 0.7499995
0.2500001 0.0082871 0.7499993
0.5000001 0.0082863 0.7499998
0.7500002 0.0082877 0.7499995
0.9917141 0.0082859 0.7500000
0.0128764 0.2601302 0.7419196
0.2512698 0.2554462 0.7464653
0.5010815 0.2534128 0.7483014
0.7526973 0.2667980 0.7459640
0.9907324 0.2521639 0.7496568
0.1024163 0.5683157 0.7003565
0.2903600 0.5915589 0.7136658
0.5252663 0.5604699 0.6934102
0.7614915 0.6150300 0.7177567
0.9081553 0.5901758 0.7348028
0.0105976 0.7485484 0.7497791
0.3345615 0.7237130 0.7254249
0.5148137 0.6995751 0.6990637
0.7490541 0.7471249 0.7282164
0.8629112 0.7215889 0.6794935
0.0082859 0.9917141 0.7500000
0.2501805 0.9915625 0.7499548
0.5007816 0.9890009 0.7492317
0.7423064 0.9314526 0.7321896
0.9063905 0.7960009 0.6387838
0.0082859 0.0082859 0.9917141
0.2500000 0.0082859 0.9917141
0.5000000 0.0082859 0.9917141
0.7500000 0.0082859 0.9917141
0.9917141 0.0082859 0.9917141
0.0082860 0.2500002 0.9917139
0.2500000 0.2500002 0.9917139
0.5000000 0.2500000 0.9917141
0.7500007 0.2500035 0.9917116
0.9917126 0.2500045 0.9917114
0.0107717 0.5021792 0.9879836
0.2500871 0.5036226 0.9869360
0.5002477 0.5010393 0.9898712
0.7500563 0.5010756 0.9900321
0.9879041 0.5048694 0.9852129
0.0131113 0.7486145 0.9863896
0.2731769 0.7290204 0.8833723
0.5320511 0.7435189 0.8680186
0.7425646 0.7648138 0.8942963
0.8960800 0.7458586 0.8546370
0.0082859 0.9917141 0.9917141
0.2500052 0.9916900 0.9916951
0.5007746 0.9902636 0.9902946
0.7482823 0.8564240 0.8548452
0.8514287 0.8457708 0.8193696
