looks/recipe_kodak_gold200.cube
TITLE "Fuji recipe Kodak Gold 200 (16 RAFs)"
LUT_3D_SIZE 5
0.0204641 0.0200845 0.0175156
0.1994818 0.0114384 0.0095441
0.5388830 0.0228463 0.0217070
0.7410690 0.0248963 0.0245071
0.9916424 0.0083296 0.0083213
0.0249287 0.2284999 0.0150074
0.2417555 0.2339814 0.0207308
0.6060160 0.2188522 0.0227738
0.7813714 0.2681153 0.0228453
0.9902918 0.2491985 0.0096030
0.0083108 0.4999775 0.0083392
0.2873368 0.4910553 0.0106410
0.5317513 0.5408075 0.0278277
0.7640556 0.4879139 0.0247085
0.9737320 0.4917456 0.0239553
0.0082859 0.7500000 0.0082859
0.2501598 0.7498228 0.0082943
0.5046411 0.7350750 0.0107025
0.7497772 0.7496389 0.0087028
0.9911658 0.7490352 0.0090235
0.0082859 0.9917141 0.0082859
0.2500000 0.9917141 0.0082859
0.5000000 0.9917141 0.0082859
0.7499996 0.9917110 0.0082874
0.9917136 0.9917135 0.0082862
0.0328635 0.0810992 0.2601022
0.2540160 0.0435498 0.2492089
0.5189103 0.0426133 0.2721464
0.7528947 0.0163457 0.2471248
0.9915355 0.0084892 0.2498607
0.0085857 0.2395241 0.2821421
0.3349255 0.3502705 0.3440007
0.5727950 0.2712925 0.2695253
0.8169585 0.2565435 0.2522765
0.9433761 0.2603254 0.2408843
0.0080274 0.4972650 0.2506875
0.1039722 0.5007781 0.2393371
0.5895920 0.5582880 0.2765513
0.8015825 0.4937668 0.2578833
0.9141195 0.5063524 0.2527990
0.0082861 0.7499954 0.2500000
0.2479489 0.7463612 0.2496085
0.4589478 0.6895782 0.2553556
0.6945706 0.6248271 0.2394196
0.8689496 0.6062399 0.2642225
0.0082859 0.9917141 0.2500000
0.2500000 0.9917141 0.2500000
0.4999978 0.9916744 0.2500096
0.7498828 0.9905162 0.2499600
0.9803768 0.9688352 0.2567051
0.0082642 0.0102170 0.4997796
0.2502022 0.0105670 0.4991516
0.5015764 0.0106543 0.4991724
0.7503920 0.0102372 0.5000023
0.9917136 0.0082873 0.5000002
0.0055136 0.3323938 0.5254683
0.2531816 0.3354837 0.5431795
0.5737237 0.3328049 0.5388088
0.8377157 0.3435990 0.5417354
0.9879164 0.2543951 0.4965676
0.0077836 0.4991884 0.5283968
0.1947106 0.5351421 0.5555744
0.5884485 0.5952328 0.5829439
0.7401434 0.5124505 0.4963570
0.9252126 0.4882173 0.4765517
0.0082862 0.7499937 0.5000051
0.2548426 0.7476643 0.5014306
0.5010971 0.6992754 0.4810777
0.6830652 0.6557548 0.4920277
0.8183960 0.6152531 0.4604849
0.0082859 0.9917141 0.5000000
0.2500003 0.9917138 0.5000001
0.5000300 0.9915214 0.4999712
0.7407438 0.9617032 0.4987907
0.8140827 0.6776812 0.4405412
0.0082859 0.0082867 0.7499996
0.2500000 0.0082861 0.7499999
0.5000001 0.0082861 0.7499999
0.7500001 0.0082861 0.7499999
0.9917141 0.0082859 0.7500000
0.0081993 0.2551960 0.7451053
0.2493154 0.2535420 0.7478910
0.5005983 0.2510679 0.7494557
0.7508333 0.2554204 0.7466290
0.9912784 0.2505906 0.7496694
0.0082631 0.5485595 0.7087231
0.1816577 0.5624949 0.7190109
0.5217357 0.5496922 0.7028373
0.7329816 0.5449587 0.6773178
0.9214473 0.5159183 0.7068635
0.0084315 0.7492180 0.7498516
0.3020277 0.7272480 0.7279021
0.4540421 0.6779872 0.6749677
0.6874416 0.6876462 0.6605732
0.7832388 0.6358972 0.6071479
0.0082859 0.9917141 0.7500000
0.2500103 0.9917035 0.7499960
0.5000100 0.9913471 0.7498353
0.7014998 0.9052400 0.6927442
0.7942132 0.6912432 0.5730864
0.0082859 0.0082859 0.9917141
0.2500000 0.0082859 0.9917141
0.5000000 0.0082859 0.9917141
0.7500000 0.0082859 0.9917141
0.9917141 0.0082859 0.9917141
0.0082859 0.2500001 0.9917140
0.2500000 0.2500000 0.9917141
0.5000000 0.2500000 0.9917141
0.7500000 0.2500001 0.9917140
0.9917141 0.2500001 0.9917140
0.0083463 0.5005622 0.9905871
0.2469722 0.5024341 0.9872023
0.4999365 0.5001515 0.9913936
0.7499663 0.5000609 0.9915103
0.9915510 0.5000561 0.9914576
0.0083046 0.7499232 0.9915163
0.2420754 0.7443640 0.9760976
0.5314920 0.7449932 0.9329414
0.7229694 0.7403089 0.8905106
0.9537919 0.7335722 0.9378154
0.0082859 0.9917141 0.9917141
0.2500000 0.9917140 0.9917141
0.5001420 0.9914843 0.9914666
0.7316343 0.9141949 0.9079193
0.7501611 0.7294054 0.6862281
