looks/recipe_ektar100.cube
TITLE "Fuji recipe Ektar 100 (16 RAFs)"
LUT_3D_SIZE 33
0.0155749 0.0151176 0.0130039
0.0284123 0.0187328 0.0159855
0.0470659 0.0162000 0.0133918
0.0669230 0.0127026 0.0101492
0.0876325 0.0101280 0.0083599
0.1123242 0.0083760 0.0075472
0.1397753 0.0073101 0.0069621
0.1600924 0.0063502 0.0062053
0.1703002 0.0053746 0.0052531
0.2143280 0.0058608 0.0060715
0.3056887 0.0072258 0.0083148
0.3696548 0.0080050 0.0097544
0.4070223 0.0083325 0.0104516
0.4303668 0.0085959 0.0112232
0.4508372 0.0091273 0.0121105
0.4899761 0.0103942 0.0140129
0.5244766 0.0112946 0.0156310
0.5521854 0.0119658 0.0167956
0.5781378 0.0126807 0.0177142
0.6027355 0.0131991 0.0189655
0.6239386 0.0134026 0.0201016
0.6403054 0.0130319 0.0191750
0.6677027 0.0132045 0.0178756
0.7070093 0.0147677 0.0185543
0.7360815 0.0146150 0.0177780
0.7640613 0.0128825 0.0151456
0.7982460 0.0109926 0.0122891
0.8351937 0.0096578 0.0102353
0.8710719 0.0089325 0.0091236
0.9047691 0.0085676 0.0086125
0.9370032 0.0083993 0.0084037
0.9681068 0.0083316 0.0083281
0.9916608 0.0083080 0.0083041
0.0147094 0.0205379 0.0115027
0.0280541 0.0272682 0.0162764
0.0476375 0.0299640 0.0169546
0.0689818 0.0282103 0.0139156
0.0916145 0.0247291 0.0108590
0.1165956 0.0216572 0.0090990
0.1425254 0.0193011 0.0082859
0.1663050 0.0171372 0.0075740
0.1862239 0.0162358 0.0066214
0.2151457 0.0157580 0.0064037
0.2733624 0.0144381 0.0074498
0.3511588 0.0121354 0.0091394
0.4013140 0.0111783 0.0101728
0.4270117 0.0115051 0.0110028
0.4466521 0.0129160 0.0121220
0.4843974 0.0143799 0.0142447
0.5214046 0.0149394 0.0160158
0.5513135 0.0153755 0.0172384
0.5779434 0.0159499 0.0181783
0.6027919 0.0164487 0.0194949
0.6248371 0.0172618 0.0207801
0.6418635 0.0192651 0.0201851
0.6702358 0.0228359 0.0197579
0.7068405 0.0263577 0.0210702
0.7329245 0.0280038 0.0201392
0.7600024 0.0291796 0.0169117
0.7950715 0.0304716 0.0135033
0.8333166 0.0314361 0.0110660
0.8699810 0.0318372 0.0096246
0.9041572 0.0319090 0.0088856
0.9366885 0.0318675 0.0085449
0.9679529 0.0318126 0.0083942
0.9915814 0.0317840 0.0083382
0.0148486 0.0343538 0.0107667
0.0275566 0.0427734 0.0145527
0.0472609 0.0491284 0.0175725
0.0706626 0.0489684 0.0166751
0.0948439 0.0454973 0.0135530
0.1205824 0.0424740 0.0105611
0.1493510 0.0411282 0.0092318
0.1824337 0.0407629 0.0086518
0.2154917 0.0414861 0.0077534
0.2454254 0.0408873 0.0073615
0.2830369 0.0361042 0.0079225
0.3436828 0.0288187 0.0089345
0.3869935 0.0256149 0.0097945
0.4099217 0.0257345 0.0106882
0.4271978 0.0281990 0.0116575
0.4639593 0.0281945 0.0133442
0.5095453 0.0242789 0.0154891
0.5459143 0.0225214 0.0169070
0.5749084 0.0223916 0.0177768
0.6014915 0.0224074 0.0190807
0.6273655 0.0238173 0.0206251
0.6488619 0.0285799 0.0211042
0.6806175 0.0352895 0.0223185
0.7109339 0.0395039 0.0233552
0.7322488 0.0431609 0.0218328
0.7582154 0.0487834 0.0182708
0.7935018 0.0548830 0.0147262
0.8320106 0.0592488 0.0121842
0.8688244 0.0614917 0.0104983
0.9032446 0.0623538 0.0094705
0.9360632 0.0625506 0.0088612
0.9676096 0.0625791 0.0085562
0.9913905 0.0625678 0.0084274
0.0188493 0.0568284 0.0104476
0.0284741 0.0617682 0.0118547
0.0463716 0.0699486 0.0152255
0.0687680 0.0710535 0.0166047
0.0947812 0.0677498 0.0153573
0.1237590 0.0644832 0.0125533
0.1546516 0.0622743 0.0102887
0.1903232 0.0616299 0.0091096
0.2284987 0.0625827 0.0081658
0.2654468 0.0636894 0.0076027
0.3016892 0.0631892 0.0076936
0.3424105 0.0605581 0.0081577
0.3741134 0.0583077 0.0088045
0.3981884 0.0580249 0.0093430
0.4198835 0.0608200 0.0091669
0.4525033 0.0594199 0.0101494
0.5016686 0.0508771 0.0130210
0.5400452 0.0459108 0.0150507
0.5694348 0.0434069 0.0159742
0.5992782 0.0392026 0.0175462
0.6289984 0.0391279 0.0194809
0.6553835 0.0441852 0.0210726
0.6884983 0.0502142 0.0229606
0.7161528 0.0540013 0.0235229
0.7358344 0.0596284 0.0218562
0.7607687 0.0693413 0.0186674
0.7945250 0.0795425 0.0155599
0.8317193 0.0868841 0.0133103
0.8679289 0.0910310 0.0117472
0.9020299 0.0927295 0.0103592
0.9351228 0.0934019 0.0093644
0.9670584 0.0937070 0.0088532
0.9910485 0.0937731 0.0085958
0.0257068 0.0875305 0.0126156
0.0363453 0.0910835 0.0133039
0.0525057 0.0994212 0.0154899
0.0704050 0.0995411 0.0162367
0.0939956 0.0953082 0.0160762
0.1235004 0.0905190 0.0145370
0.1562248 0.0852378 0.0122125
0.1924449 0.0823795 0.0105191
0.2326819 0.0823471 0.0095319
0.2758187 0.0839745 0.0089279
0.3157187 0.0861649 0.0084002
0.3528228 0.0880193 0.0081516
0.3862910 0.0885032 0.0084300
0.4165346 0.0888040 0.0086219
0.4350404 0.0887714 0.0079817
0.4593460 0.0902257 0.0079749
0.5009944 0.0923983 0.0094230
0.5321397 0.0912556 0.0112320
0.5607411 0.0882766 0.0123312
0.5972652 0.0804793 0.0145028
0.6289727 0.0773835 0.0166568
0.6575992 0.0767756 0.0189852
0.6903907 0.0747936 0.0211070
0.7182102 0.0758095 0.0216869
0.7395638 0.0822466 0.0207686
0.7649724 0.0939335 0.0188719
0.7971233 0.1059717 0.0166226
0.8324416 0.1146127 0.0147355
0.8670155 0.1195602 0.0130602
0.9006974 0.1222498 0.0112723
0.9341629 0.1238529 0.0100181
0.9663840 0.1245988 0.0092705
0.9905808 0.1248333 0.0088249
0.0379445 0.1367562 0.0191516
0.0528746 0.1394575 0.0197429
0.0650578 0.1388671 0.0197430
0.0753606 0.1292795 0.0169306
0.0945323 0.1235818 0.0155569
0.1211680 0.1202586 0.0149645
0.1533855 0.1147423 0.0138794
0.1912720 0.1102247 0.0122137
0.2320825 0.1084635 0.0110395
0.2793802 0.1062385 0.0105210
0.3231348 0.1074329 0.0100835
0.3638733 0.1121255 0.0096057
0.4004849 0.1139862 0.0092872
0.4357745 0.1147284 0.0092746
0.4635500 0.1150531 0.0090925
0.4910049 0.1158680 0.0086714
0.5141149 0.1174341 0.0082138
0.5326876 0.1202013 0.0083627
0.5608889 0.1264201 0.0092150
0.6008490 0.1329054 0.0110181
0.6274266 0.1339648 0.0122709
0.6527737 0.1278004 0.0142178
0.6882225 0.1181691 0.0169852
0.7197614 0.1154376 0.0182961
0.7441567 0.1171869 0.0187744
0.7702119 0.1250292 0.0182211
0.8007777 0.1349856 0.0167320
0.8341815 0.1428120 0.0155587
0.8669612 0.1478424 0.0138085
0.9001420 0.1515206 0.0118936
0.9335690 0.1540041 0.0106504
0.9658000 0.1552137 0.0096848
0.9901461 0.1557226 0.0090397
0.0410690 0.1704928 0.0188202
0.0566596 0.1660785 0.0197994
0.0669917 0.1541176 0.0181201
0.0742333 0.1404184 0.0137630
0.0937967 0.1438651 0.0131967
0.1213474 0.1513845 0.0140072
0.1521191 0.1495090 0.0145806
0.1885534 0.1448022 0.0141103
0.2303011 0.1427600 0.0129587
0.2745107 0.1339534 0.0118114
0.3196774 0.1303837 0.0115723
0.3647452 0.1399921 0.0118866
0.4023775 0.1445380 0.0114186
0.4409353 0.1415303 0.0104916
0.4821988 0.1421372 0.0104432
0.5222029 0.1441195 0.0106912
0.5381788 0.1393126 0.0095994
0.5538809 0.1389398 0.0086767
0.5767263 0.1456689 0.0090222
0.6090249 0.1560163 0.0102052
0.6302950 0.1636810 0.0107932
0.6567076 0.1705376 0.0118545
0.6938826 0.1741163 0.0138017
0.7259005 0.1731713 0.0149828
0.7499030 0.1658449 0.0159869
0.7753952 0.1650414 0.0159690
0.8053914 0.1705216 0.0151538
0.8369193 0.1752313 0.0145688
0.8683392 0.1782795 0.0134759
0.9008192 0.1815776 0.0121531
0.9335160 0.1841418 0.0110358
0.9655119 0.1857014 0.0099253
0.9899248 0.1865495 0.0091639
0.0330778 0.1958440 0.0151080
0.0498345 0.1830334 0.0149087
0.0637893 0.1623083 0.0122709
0.0741462 0.1505966 0.0098431
0.0919109 0.1587738 0.0102453
0.1193831 0.1767236 0.0120469
0.1507475 0.1863743 0.0131047
0.1871082 0.1847294 0.0142998
0.2264380 0.1794390 0.0146609
0.2646309 0.1722667 0.0140772
0.3137915 0.1643386 0.0136893
0.3597319 0.1723010 0.0144632
0.3963226 0.1801800 0.0145530
0.4348498 0.1717305 0.0120761
0.4796059 0.1658755 0.0108425
0.5235754 0.1666580 0.0111676
0.5517592 0.1656419 0.0107384
0.5846480 0.1662434 0.0106336
0.6067799 0.1664675 0.0106289
0.6248595 0.1682732 0.0108457
0.6466089 0.1811248 0.0116237
0.6802459 0.2031336 0.0127475
0.7161276 0.2196446 0.0137623
0.7385873 0.2224507 0.0138149
0.7565819 0.2169799 0.0135568
0.7811591 0.2135543 0.0133725
0.8108958 0.2153355 0.0127954
0.8405863 0.2154865 0.0123922
0.8706170 0.2132818 0.0124082
0.9020008 0.2135123 0.0119633
0.9338476 0.2148350 0.0110774
0.9655722 0.2163693 0.0099676
0.9899483 0.2174663 0.0091882
0.0229414 0.2262297 0.0114905
0.0427689 0.2102671 0.0104525
0.0640699 0.1903562 0.0090837
0.0810176 0.1784539 0.0084515
0.0960940 0.1797416 0.0088315
0.1166437 0.1946345 0.0096622
0.1456955 0.2129212 0.0097633
0.1843835 0.2246287 0.0112201
0.2259056 0.2209687 0.0138113
0.2650394 0.2189855 0.0158393
0.3144060 0.2148487 0.0171314
0.3553971 0.2128004 0.0174827
0.3900562 0.2111006 0.0175589
0.4277995 0.2008998 0.0151819
0.4735249 0.1901046 0.0118919
0.5197064 0.1882600 0.0115273
0.5571908 0.1908886 0.0118227
0.5983576 0.1929986 0.0122589
0.6247206 0.1908817 0.0119691
0.6469010 0.1926932 0.0118793
0.6767967 0.2071144 0.0132673
0.7059381 0.2253538 0.0143961
0.7353001 0.2416405 0.0151398
0.7508587 0.2479488 0.0147577
0.7664208 0.2514121 0.0137796
0.7910131 0.2561486 0.0130456
0.8175359 0.2588022 0.0123005
0.8431828 0.2561422 0.0116076
0.8713579 0.2508351 0.0113694
0.9023035 0.2480172 0.0109522
0.9341947 0.2470220 0.0104828
0.9659126 0.2477506 0.0096827
0.9901851 0.2486759 0.0090568
0.0160421 0.2621189 0.0092242
0.0389380 0.2499513 0.0088800
0.0663372 0.2336617 0.0086459
0.0890844 0.2197927 0.0085437
0.1067143 0.2132233 0.0085794
0.1214189 0.2149354 0.0076716
0.1435530 0.2288423 0.0063058
0.1798770 0.2521120 0.0074348
0.2198494 0.2669881 0.0099633
0.2590445 0.2692357 0.0133381
0.3134671 0.2610621 0.0175635
0.3575388 0.2503002 0.0175995
0.3886467 0.2441597 0.0196661
0.4210596 0.2408523 0.0207243
0.4643543 0.2301605 0.0145253
0.5130209 0.2203044 0.0131149
0.5612279 0.2214583 0.0142771
0.6043316 0.2250494 0.0149554
0.6372551 0.2243563 0.0146653
0.6699725 0.2293755 0.0144950
0.7016133 0.2362847 0.0149158
0.7280824 0.2448813 0.0155620
0.7508913 0.2546255 0.0163534
0.7650630 0.2626760 0.0163381
0.7829599 0.2743466 0.0158022
0.8062343 0.2872634 0.0150338
0.8250325 0.2910668 0.0139913
0.8443165 0.2886730 0.0125291
0.8703792 0.2851696 0.0111711
0.9016199 0.2825530 0.0102202
0.9342307 0.2806268 0.0096973
0.9662693 0.2802607 0.0091366
0.9905295 0.2804574 0.0087802
0.0125836 0.3008984 0.0087264
0.0369412 0.2929290 0.0089787
0.0673780 0.2804243 0.0092308
0.0947492 0.2666335 0.0090089
0.1165123 0.2538246 0.0080165
0.1345016 0.2466904 0.0061557
0.1544914 0.2521783 0.0051254
0.1812010 0.2711076 0.0057004
0.2123320 0.2928455 0.0070794
0.2484410 0.3024309 0.0099777
0.3055143 0.2983304 0.0151415
0.3579126 0.2876164 0.0161113
0.3899308 0.2814845 0.0179130
0.4151813 0.2809703 0.0203359
0.4456821 0.2754962 0.0141678
0.4877610 0.2529782 0.0130678
0.5441809 0.2465146 0.0143783
0.5898147 0.2512124 0.0148427
0.6280383 0.2539112 0.0150578
0.6732245 0.2611175 0.0159817
0.7098999 0.2645136 0.0155212
0.7389447 0.2668430 0.0156144
0.7646080 0.2721387 0.0171096
0.7828645 0.2789317 0.0178949
0.7988112 0.2899145 0.0177053
0.8185280 0.3042007 0.0172906
0.8312247 0.3100041 0.0161491
0.8457711 0.3118627 0.0141883
0.8701004 0.3135515 0.0122297
0.9007496 0.3138935 0.0106602
0.9334626 0.3130718 0.0095513
0.9660278 0.3126411 0.0089147
0.9906222 0.3127024 0.0087116
0.0106380 0.3379197 0.0085913
0.0350925 0.3330669 0.0088784
0.0667049 0.3245360 0.0093492
0.0969604 0.3128380 0.0092316
0.1240088 0.2992123 0.0076365
0.1489534 0.2889556 0.0062269
0.1718279 0.2867331 0.0057017
0.1939754 0.2953508 0.0057871
0.2210169 0.3160452 0.0063025
0.2518076 0.3361276 0.0073351
0.2923504 0.3416719 0.0104058
0.3433568 0.3320751 0.0140036
0.3833908 0.3202173 0.0162703
0.4112624 0.3196952 0.0179872
0.4417745 0.3100928 0.0141184
0.4770175 0.2818424 0.0127423
0.5195808 0.2726243 0.0128556
0.5578279 0.2794291 0.0126541
0.5969889 0.2854384 0.0131278
0.6496023 0.2881330 0.0149244
0.6925993 0.2888806 0.0148661
0.7343464 0.2893458 0.0154499
0.7690141 0.2933252 0.0175461
0.7915311 0.2965213 0.0186135
0.8096818 0.3038907 0.0187001
0.8272449 0.3144911 0.0186867
0.8365514 0.3218530 0.0176222
0.8490108 0.3298595 0.0156936
0.8715047 0.3375539 0.0137281
0.9000179 0.3414172 0.0116102
0.9323843 0.3431828 0.0100624
0.9655651 0.3446050 0.0095446
0.9902920 0.3454427 0.0095227
0.0094027 0.3723973 0.0084382
0.0335817 0.3698153 0.0086270
0.0653426 0.3646359 0.0090292
0.0971650 0.3564511 0.0091086
0.1282960 0.3458352 0.0080878
0.1585254 0.3352430 0.0071461
0.1887192 0.3311734 0.0066960
0.2208524 0.3402739 0.0065428
0.2471136 0.3553917 0.0064606
0.2732022 0.3765519 0.0064853
0.2997907 0.3883331 0.0080088
0.3353191 0.3856117 0.0119472
0.3766618 0.3766410 0.0160174
0.4150614 0.3774697 0.0187351
0.4576345 0.3654294 0.0169043
0.4923193 0.3321411 0.0132334
0.5192234 0.3110090 0.0119014
0.5484529 0.3048802 0.0118610
0.5795087 0.3091739 0.0123444
0.6149700 0.3150735 0.0130947
0.6535141 0.3189653 0.0133326
0.7112118 0.3181023 0.0147539
0.7580084 0.3163077 0.0168233
0.7863913 0.3155405 0.0178292
0.8112909 0.3199586 0.0184071
0.8320314 0.3267942 0.0191206
0.8417643 0.3352012 0.0186041
0.8530221 0.3472952 0.0170739
0.8726717 0.3587753 0.0150243
0.8995901 0.3669985 0.0127081
0.9325432 0.3736789 0.0116565
0.9655918 0.3778221 0.0117948
0.9892158 0.3788936 0.0118033
0.0087576 0.4052335 0.0083596
0.0326396 0.4040069 0.0084641
0.0641470 0.4012447 0.0087164
0.0964191 0.3964615 0.0090034
0.1295961 0.3898613 0.0087910
0.1651293 0.3833843 0.0080113
0.2070500 0.3853232 0.0075507
0.2544391 0.4020841 0.0071453
0.2860477 0.4145894 0.0067832
0.3052057 0.4237044 0.0067360
0.3224748 0.4288845 0.0073532
0.3466108 0.4336313 0.0091274
0.3873797 0.4427468 0.0136996
0.4424220 0.4599181 0.0191337
0.4837252 0.4495607 0.0174394
0.5116061 0.4022126 0.0127114
0.5298495 0.3692429 0.0111815
0.5502905 0.3422409 0.0114056
0.5775100 0.3310392 0.0118273
0.6049333 0.3331557 0.0118213
0.6333612 0.3405427 0.0115361
0.6731641 0.3453429 0.0123973
0.7261921 0.3464724 0.0145652
0.7709860 0.3459954 0.0162450
0.8074399 0.3460933 0.0174302
0.8305102 0.3470064 0.0186282
0.8431696 0.3547321 0.0193269
0.8556557 0.3678945 0.0187157
0.8731017 0.3806498 0.0164050
0.8996207 0.3932634 0.0145900
0.9340802 0.4058650 0.0153661
0.9653097 0.4110768 0.0161912
0.9867615 0.4115323 0.0159473
0.0084849 0.4371468 0.0083354
0.0321625 0.4366191 0.0083911
0.0634350 0.4353381 0.0085381
0.0957658 0.4330018 0.0087839
0.1306165 0.4305791 0.0088375
0.1714440 0.4301968 0.0083462
0.2173288 0.4322324 0.0079395
0.2631609 0.4388473 0.0074601
0.2960224 0.4435757 0.0071733
0.3172862 0.4474497 0.0071628
0.3370000 0.4529108 0.0069193
0.3590527 0.4625289 0.0069958
0.3964874 0.4798481 0.0099120
0.4584161 0.5066539 0.0156291
0.5005859 0.5021169 0.0165778
0.5209787 0.4547297 0.0135175
0.5328255 0.4195441 0.0120715
0.5498822 0.3931642 0.0116931
0.5812991 0.3657450 0.0113434
0.6100803 0.3537255 0.0111257
0.6337426 0.3565442 0.0108024
0.6538680 0.3661774 0.0108792
0.6906509 0.3779586 0.0121905
0.7446058 0.3839362 0.0144515
0.7939320 0.3822413 0.0161427
0.8222263 0.3795512 0.0175635
0.8399527 0.3838048 0.0188924
0.8548172 0.3928616 0.0184943
0.8733127 0.4053388 0.0170546
0.9017614 0.4212079 0.0176341
0.9355340 0.4353553 0.0206250
0.9639512 0.4403190 0.0220747
0.9832052 0.4406745 0.0215506
0.0083716 0.4686310 0.0083193
0.0319421 0.4684246 0.0083658
0.0630785 0.4679586 0.0084566
0.0954913 0.4671620 0.0085720
0.1303539 0.4663112 0.0086162
0.1698929 0.4658702 0.0083591
0.2122362 0.4643288 0.0080917
0.2530633 0.4624041 0.0077807
0.2884251 0.4622200 0.0077202
0.3203350 0.4668185 0.0075221
0.3488535 0.4749987 0.0064160
0.3714393 0.4851685 0.0058157
0.4021207 0.5020179 0.0073517
0.4557631 0.5274603 0.0120397
0.5110176 0.5403866 0.0164060
0.5305938 0.5177916 0.0165784
0.5365719 0.4802319 0.0160323
0.5518411 0.4477654 0.0149282
0.5837103 0.4108586 0.0121396
0.6158491 0.3874111 0.0106507
0.6364989 0.3815341 0.0103642
0.6510471 0.3906386 0.0102767
0.6750180 0.4084051 0.0108115
0.7197953 0.4220431 0.0126165
0.7756818 0.4240721 0.0146958
0.8106163 0.4212142 0.0160185
0.8325383 0.4213261 0.0167326
0.8520427 0.4263312 0.0168412
0.8772671 0.4387605 0.0183964
0.9095294 0.4537600 0.0226000
0.9383472 0.4616334 0.0262130
0.9625446 0.4640959 0.0275060
0.9798974 0.4647957 0.0267168
0.0083168 0.4999589 0.0083045
0.0318218 0.4998834 0.0083357
0.0628052 0.4997248 0.0083902
0.0948962 0.4994414 0.0084286
0.1284925 0.4987766 0.0084063
0.1644349 0.4972814 0.0083129
0.2022726 0.4944617 0.0082141
0.2408470 0.4910999 0.0081121
0.2802773 0.4893790 0.0079545
0.3197032 0.4906751 0.0072341
0.3530117 0.4943627 0.0063102
0.3790169 0.5022919 0.0062133
0.4086299 0.5192329 0.0076377
0.4527235 0.5440584 0.0116913
0.4970880 0.5578607 0.0152644
0.5141168 0.5522734 0.0161494
0.5259411 0.5341628 0.0169560
0.5463722 0.5072887 0.0167182
0.5769544 0.4692054 0.0128438
0.6103280 0.4380322 0.0103170
0.6337553 0.4254324 0.0098205
0.6522213 0.4314299 0.0097318
0.6758828 0.4475297 0.0100400
0.7131821 0.4623757 0.0113105
0.7633867 0.4683418 0.0131100
0.7990901 0.4672562 0.0141498
0.8246207 0.4654545 0.0145027
0.8508028 0.4680265 0.0155610
0.8839382 0.4778942 0.0199878
0.9151909 0.4833049 0.0253676
0.9397475 0.4839100 0.0286406
0.9619632 0.4849657 0.0297615
0.9785302 0.4862495 0.0288593
0.0082923 0.5312374 0.0082999
0.0317623 0.5312126 0.0083220
0.0626139 0.5311469 0.0083638
0.0942460 0.5309784 0.0083961
0.1266119 0.5304920 0.0083699
0.1600936 0.5293053 0.0083312
0.1949932 0.5271471 0.0083146
0.2320887 0.5242916 0.0082554
0.2720999 0.5211770 0.0078976
0.3124682 0.5182033 0.0072879
0.3500705 0.5187393 0.0071140
0.3831518 0.5253599 0.0075377
0.4043557 0.5327471 0.0078063
0.4206187 0.5420923 0.0084238
0.4430521 0.5481997 0.0094649
0.4628229 0.5510076 0.0099349
0.4875250 0.5530468 0.0105254
0.5186235 0.5472042 0.0110436
0.5545973 0.5292732 0.0102417
0.5939704 0.5038345 0.0098265
0.6261060 0.4881438 0.0096946
0.6528150 0.4872509 0.0094525
0.6805895 0.4958782 0.0095839
0.7152166 0.5063326 0.0107316
0.7570868 0.5126542 0.0125916
0.7912862 0.5130530 0.0136061
0.8199421 0.5111510 0.0137125
0.8502180 0.5103783 0.0145037
0.8853154 0.5125697 0.0190478
0.9153411 0.5104862 0.0238326
0.9396485 0.5081674 0.0266417
0.9626263 0.5089265 0.0277059
0.9799005 0.5106125 0.0269104
0.0082863 0.5624944 0.0082966
0.0317419 0.5624830 0.0083149
0.0625236 0.5624487 0.0083518
0.0938806 0.5623531 0.0083942
0.1255227 0.5620943 0.0084061
0.1577439 0.5614766 0.0083684
0.1910352 0.5602424 0.0083303
0.2262383 0.5580747 0.0082517
0.2636994 0.5546478 0.0079991
0.3031392 0.5509622 0.0077390
0.3428894 0.5493823 0.0076323
0.3745774 0.5483983 0.0070636
0.3930276 0.5455970 0.0063338
0.4043526 0.5458429 0.0059542
0.4250798 0.5520332 0.0064374
0.4510702 0.5600238 0.0069064
0.4781399 0.5674487 0.0074683
0.5088509 0.5725556 0.0082450
0.5418735 0.5701147 0.0091398
0.5792790 0.5615617 0.0102612
0.6161916 0.5534415 0.0105593
0.6509981 0.5467790 0.0100679
0.6835706 0.5460932 0.0098065
0.7174006 0.5494567 0.0107671
0.7531301 0.5525570 0.0122727
0.7860768 0.5533047 0.0129560
0.8173831 0.5526409 0.0129153
0.8499417 0.5506054 0.0133716
0.8832751 0.5470061 0.0162964
0.9129643 0.5422110 0.0197791
0.9391656 0.5396430 0.0224846
0.9641951 0.5403149 0.0240237
0.9830506 0.5419411 0.0235875
0.0082858 0.5937461 0.0082922
0.0317388 0.5937384 0.0083040
0.0624980 0.5937176 0.0083307
0.0937543 0.5936698 0.0083675
0.1251035 0.5935605 0.0083942
0.1567352 0.5933005 0.0083827
0.1890327 0.5926710 0.0083281
0.2224437 0.5912579 0.0082582
0.2575907 0.5887743 0.0081241
0.2954184 0.5851417 0.0078787
0.3339553 0.5792061 0.0074846
0.3657227 0.5704432 0.0066808
0.3872162 0.5618497 0.0059528
0.4045303 0.5593976 0.0057731
0.4301369 0.5657096 0.0061768
0.4598123 0.5749922 0.0066318
0.4896854 0.5838581 0.0075730
0.5141081 0.5898834 0.0085096
0.5413224 0.5928612 0.0096371
0.5747932 0.5940355 0.0108429
0.6115618 0.5942281 0.0113476
0.6486946 0.5923703 0.0111376
0.6836996 0.5903967 0.0105767
0.7177717 0.5885802 0.0107074
0.7504615 0.5878577 0.0111900
0.7820426 0.5881764 0.0112464
0.8142877 0.5884334 0.0110714
0.8476927 0.5867930 0.0114854
0.8801833 0.5828074 0.0133545
0.9105233 0.5785950 0.0162577
0.9388746 0.5764214 0.0196048
0.9657795 0.5767289 0.0220424
0.9860086 0.5779203 0.0219999
0.0082858 0.6249977 0.0082888
0.0317400 0.6249933 0.0082945
0.0624986 0.6249821 0.0083084
0.0937351 0.6249596 0.0083306
0.1250014 0.6249173 0.0083510
0.1563850 0.6248149 0.0083540
0.1880890 0.6245210 0.0083274
0.2205011 0.6237369 0.0082765
0.2543841 0.6218929 0.0081873
0.2902912 0.6178409 0.0079673
0.3265984 0.6100902 0.0075836
0.3589320 0.5993533 0.0070519
0.3846649 0.5896941 0.0065768
0.4098524 0.5861924 0.0064177
0.4398451 0.5881991 0.0065421
0.4673529 0.5918045 0.0068918
0.4977205 0.5989835 0.0080322
0.5232279 0.6064519 0.0095760
0.5489032 0.6133143 0.0109887
0.5781763 0.6186070 0.0118772
0.6121964 0.6225938 0.0122868
0.6478792 0.6246068 0.0118528
0.6828907 0.6248302 0.0108686
0.7169117 0.6235276 0.0102246
0.7494171 0.6217840 0.0100164
0.7808020 0.6215094 0.0098354
0.8126732 0.6218690 0.0096789
0.8455469 0.6209478 0.0100442
0.8778205 0.6183944 0.0115645
0.9089968 0.6153263 0.0143584
0.9386899 0.6128286 0.0172099
0.9668153 0.6120674 0.0188097
0.9880618 0.6126866 0.0186618
0.0082859 0.6562490 0.0082870
0.0317410 0.6562470 0.0082891
0.0625027 0.6562420 0.0082944
0.0937421 0.6562327 0.0083039
0.1249936 0.6562171 0.0083134
0.1562895 0.6561788 0.0083170
0.1877359 0.6560425 0.0083114
0.2196308 0.6555777 0.0082811
0.2524469 0.6541930 0.0082239
0.2864129 0.6508420 0.0080974
0.3205810 0.6446306 0.0078726
0.3526652 0.6361989 0.0075711
0.3829715 0.6288906 0.0073187
0.4154035 0.6249127 0.0072233
0.4463359 0.6208074 0.0072444
0.4744868 0.6190596 0.0075999
0.5041446 0.6225014 0.0087042
0.5322555 0.6290420 0.0107551
0.5573763 0.6361795 0.0126048
0.5855162 0.6439909 0.0141605
0.6172616 0.6503720 0.0143412
0.6497601 0.6536766 0.0127375
0.6831301 0.6551609 0.0110913
0.7165490 0.6554904 0.0100122
0.7491791 0.6548511 0.0093623
0.7808717 0.6545030 0.0090697
0.8124558 0.6546178 0.0089920
0.8445719 0.6541345 0.0092946
0.8765132 0.6525837 0.0103798
0.9078662 0.6503535 0.0121638
0.9382726 0.6482235 0.0137959
0.9675074 0.6473221 0.0145529
0.9897368 0.6476649 0.0144636
0.0082859 0.6874996 0.0082862
0.0317414 0.6874990 0.0082868
0.0625047 0.6874972 0.0082885
0.0937475 0.6874940 0.0082913
0.1249982 0.6874886 0.0082945
0.1562668 0.6874734 0.0082957
0.1876059 0.6874058 0.0082935
0.2191580 0.6871400 0.0082819
0.2511370 0.6863182 0.0082551
0.2836473 0.6843379 0.0081976
0.3162606 0.6806927 0.0080945
0.3480895 0.6757361 0.0079562
0.3802112 0.6709161 0.0078426
0.4147224 0.6663113 0.0078202
0.4480208 0.6604658 0.0079828
0.4792792 0.6564354 0.0084494
0.5076525 0.6558108 0.0093493
0.5365988 0.6593397 0.0115070
0.5644583 0.6652211 0.0141715
0.5928175 0.6724421 0.0158650
0.6212929 0.6784091 0.0148706
0.6514506 0.6824901 0.0125567
0.6838652 0.6850904 0.0108644
0.7167976 0.6864679 0.0098524
0.7492293 0.6868923 0.0091687
0.7810019 0.6868153 0.0087658
0.8124889 0.6867832 0.0086464
0.8441302 0.6865063 0.0088080
0.8757156 0.6856354 0.0093441
0.9070136 0.6843288 0.0101383
0.9378819 0.6831089 0.0108912
0.9680055 0.6826054 0.0113285
0.9909983 0.6828068 0.0114457
0.0082859 0.7187499 0.0082860
0.0317415 0.7187497 0.0082861
0.0625054 0.7187492 0.0082865
0.0937495 0.7187483 0.0082872
0.1250000 0.7187465 0.0082881
0.1562572 0.7187400 0.0082885
0.1875411 0.7187097 0.0082876
0.2189022 0.7185893 0.0082848
0.2504232 0.7182180 0.0082759
0.2821438 0.7173256 0.0082539
0.3139243 0.7156854 0.0082152
0.3457099 0.7134414 0.0081673
0.3782601 0.7107307 0.0081365
0.4121616 0.7068058 0.0081780
0.4459972 0.7017765 0.0083690
0.4772994 0.6971506 0.0086621
0.5064676 0.6951264 0.0094972
0.5379441 0.6967704 0.0118660
0.5682213 0.7000387 0.0143544
0.5956737 0.7040721 0.0148343
0.6229962 0.7085998 0.0133010
0.6528875 0.7128513 0.0113970
0.6849247 0.7158790 0.0101866
0.7173826 0.7175806 0.0095155
0.7494448 0.7183457 0.0090390
0.7810624 0.7185192 0.0086799
0.8124738 0.7184927 0.0085015
0.8438815 0.7183502 0.0085250
0.8752578 0.7179613 0.0087074
0.9065377 0.7173851 0.0089922
0.9376743 0.7168555 0.0093045
0.9682608 0.7166212 0.0095681
0.9915889 0.7166621 0.0097237
0.0082859 0.7500000 0.0082859
0.0317415 0.7499999 0.0082859
0.0625055 0.7499998 0.0082860
0.0937499 0.7499996 0.0082862
0.1250001 0.7499990 0.0082865
0.1562521 0.7499966 0.0082868
