looks/recipe_superia400.cube
TITLE "Fuji recipe Superia 400 (16 RAFs)"
LUT_3D_SIZE 5
0.0218638 0.0270883 0.0216515
0.1752845 0.0239192 0.0035878
0.4889096 0.0724897 0.0018673
0.7229836 0.0973836 0.0028480
0.9894459 0.0102497 0.0081737
0.0168281 0.2276880 0.0181273
0.1854255 0.2185601 0.0507564
0.5970970 0.2240740 0.0039115
0.7520164 0.2463029 0.0058366
0.9850931 0.2455288 0.0078138
0.0083032 0.4999585 0.0083176
0.2099983 0.4757283 0.0578689
0.4970561 0.4827441 0.0438881
0.6858779 0.3932609 0.0089250
0.9897332 0.4956674 0.0104041
0.0082859 0.7500000 0.0082859
0.2500332 0.7495989 0.0085894
0.4977899 0.7347692 0.0255356
0.7497433 0.7498183 0.0092400
0.9917257 0.7493569 0.0087402
0.0082859 0.9917141 0.0082859
0.2500000 0.9917141 0.0082859
0.5000001 0.9917139 0.0082860
0.7500000 0.9917139 0.0082861
0.9917063 0.9916988 0.0082993
0.0158242 0.0536655 0.2358217
0.2489090 0.0395133 0.2303477
0.4942448 0.0226743 0.2357272
0.7484646 0.0159712 0.2370126
0.9904714 0.0096428 0.2476858
0.0201523 0.2352030 0.2890576
0.2759689 0.3057256 0.2989925
0.4906857 0.2388204 0.1826860
0.7891967 0.1946789 0.0822146
0.9071027 0.1777270 0.0562629
0.0079420 0.4990047 0.2516094
0.0402929 0.4707702 0.3208556
0.5427751 0.5452453 0.2824212
0.8788079 0.4734560 0.1574846
0.9534502 0.4538546 0.1849168
0.0082843 0.7499825 0.2500094
0.2342587 0.7379248 0.2574421
0.2737309 0.6650995 0.3102878
0.7667622 0.7397029 0.2985888
0.9794442 0.6847283 0.2741165
0.0082859 0.9917141 0.2500000
0.2499999 0.9917140 0.2500000
0.4996934 0.9911966 0.2502366
0.7486671 0.9893188 0.2522280
0.9694322 0.9382818 0.2652033
0.0083486 0.0098387 0.4995713
0.2503749 0.0132054 0.4975042
0.5033984 0.0134737 0.4935504
0.7512273 0.0116357 0.4951117
0.9916823 0.0083456 0.4999394
0.0176037 0.3038110 0.5367172
0.2523484 0.2901658 0.4755287
0.5987403 0.3212687 0.4474107
0.8268373 0.2730443 0.3571365
0.9627446 0.2781409 0.4449805
0.0104569 0.4933847 0.5324248
0.2424366 0.4998479 0.5349284
0.6172941 0.6020656 0.5895947
0.7740282 0.5136114 0.4525352
0.9351864 0.4507999 0.3721754
0.0082873 0.7499914 0.5000073
0.2499826 0.7486476 0.5011629
0.4821283 0.7186869 0.5260661
0.8049856 0.7625453 0.5633274
0.9374847 0.7034420 0.4907866
0.0082859 0.9917141 0.5000000
0.2500001 0.9917141 0.5000001
0.4999665 0.9910564 0.5001087
0.7401836 0.9287673 0.5260931
0.9979243 0.8232099 0.5167595
0.0082859 0.0082872 0.7499993
0.2500000 0.0082867 0.7499994
0.5000004 0.0082871 0.7499990
0.7500003 0.0082865 0.7499990
0.9917141 0.0082861 0.7499998
0.0094048 0.2662178 0.7394575
0.2492155 0.2549116 0.7454130
0.5021304 0.2549066 0.7467012
0.7521055 0.2546884 0.7450084
0.9894467 0.2590722 0.7374613
0.0179897 0.5465382 0.7650650
0.2582100 0.5444402 0.7347016
0.5575035 0.5613924 0.7089156
0.8341724 0.5791178 0.6669717
0.9731843 0.5887453 0.6291755
0.0091173 0.7478738 0.7507487
0.2716348 0.7448921 0.7567712
0.5654913 0.7521166 0.7811421
0.8663287 0.8167365 0.7731110
0.9376367 0.7434811 0.6793279
0.0082859 0.9917141 0.7500000
0.2535575 0.9900284 0.7496271
0.5119543 0.9814022 0.7483665
0.7541129 0.9408480 0.7482620
0.9617695 0.8569509 0.7018921
0.0082859 0.0082859 0.9917141
0.2500000 0.0082859 0.9917141
0.5000000 0.0082859 0.9917141
0.7500000 0.0082859 0.9917141
0.9917141 0.0082859 0.9917141
0.0082860 0.2500010 0.9917131
0.2500000 0.2500001 0.9917140
0.5000000 0.2500001 0.9917141
0.7500001 0.2500002 0.9917139
0.9917140 0.2500014 0.9917126
0.0109894 0.5030546 0.9873783
0.2508747 0.5058084 0.9860489
0.5002205 0.5003154 0.9913236
0.7502446 0.5004926 0.9910497
0.9916707 0.5038837 0.9846170
0.0186992 0.7480547 0.9859796
0.3581778 0.7420580 0.8937675
0.5808162 0.7829053 0.9196478
0.7821175 0.7790484 0.9421270
0.9901466 0.7721826 0.8499953
0.0082861 0.9917139 0.9917141
0.2501188 0.9916437 0.9916470
0.5039581 0.9893214 0.9895080
0.8578721 0.9578210 0.9339634
0.9851815 0.9442433 0.8757809
