looks/recipe_eterna_bleach.cube
TITLE "Fuji recipe Eterna Cinema (16 RAFs)"
LUT_3D_SIZE 5
0.0215853 0.0221050 0.0215470
0.1729203 0.1172860 0.1203933
0.4824701 0.2758205 0.2819049
0.7238349 0.2247814 0.2314218
0.9909822 0.0101664 0.0102232
0.0319892 0.2035759 0.0293408
0.1926145 0.1935229 0.1204081
0.5048609 0.3846230 0.3041870
0.7538677 0.3340158 0.1335746
0.9885538 0.2598366 0.0241920
0.0083596 0.4998885 0.0083534
0.3005069 0.4570020 0.1472095
0.5139577 0.5117992 0.2092425
0.7049570 0.5326983 0.2073497
0.9908388 0.5027143 0.0153677
0.0082859 0.7500000 0.0082859
0.2509881 0.7493486 0.0099126
0.5169646 0.7045258 0.1634283
0.7491622 0.7494002 0.0109345
0.9917210 0.7501500 0.0091206
0.0082859 0.9917141 0.0082859
0.2500000 0.9917141 0.0082859
0.5000112 0.9916824 0.0083308
0.7499995 0.9917129 0.0082876
0.9917109 0.9917108 0.0082958
0.0755570 0.0816813 0.2432261
0.2369951 0.0485163 0.2364949
0.4942226 0.0341673 0.2585702
0.7472783 0.0401637 0.2684951
0.9909832 0.0110343 0.2517857
0.1133576 0.2240645 0.2344787
0.2728672 0.2777036 0.2789787
0.4633178 0.3851756 0.3934835
0.7340451 0.5611184 0.5769665
0.9377240 0.6228532 0.6355209
0.0106149 0.4986856 0.2507795
0.2985720 0.4087021 0.3199067
0.4994188 0.4968382 0.3962569
0.8425949 0.7187425 0.6047398
0.9280295 0.6795824 0.5713117
0.0084432 0.7498959 0.2500836
0.2878663 0.6992935 0.3026053
0.5301055 0.6529083 0.4643095
0.7266535 0.7182550 0.4580492
0.9846799 0.7949116 0.4219829
0.0082859 0.9917141 0.2500000
0.2500124 0.9916923 0.2500148
0.5029153 0.9800934 0.2621570
0.7471932 0.9803391 0.2616982
0.8832025 0.8792231 0.4579312
0.0115253 0.0121774 0.4984864
0.2523300 0.0167928 0.4974725
0.5027027 0.0355552 0.5027750
0.7488448 0.0205881 0.5036548
0.9917082 0.0083117 0.5000096
0.3046724 0.3916371 0.4824942
0.3861309 0.3932777 0.4806603
0.5315194 0.4553332 0.5476367
0.7720307 0.5948592 0.6981310
0.9868650 0.2864777 0.5226731
0.0853576 0.4940588 0.5052165
0.3612605 0.4627045 0.4801964
0.5861012 0.5925447 0.6025838
0.8126804 0.7129846 0.6927941
0.9514615 0.7755080 0.8080679
0.0083823 0.7499543 0.5000147
0.2630712 0.7316006 0.4997081
0.5679150 0.6993329 0.5896339
0.7063168 0.7154782 0.6258822
0.9876521 0.8969988 0.7790082
0.0082859 0.9917141 0.5000000
0.2500024 0.9917086 0.5000001
0.5083999 0.9757048 0.5087798
0.7475784 0.8973985 0.6164100
0.9180231 0.9183454 0.5806006
0.0082895 0.0082902 0.7499986
0.2500049 0.0082972 0.7499952
0.5000039 0.0083039 0.7499969
0.7500051 0.0083378 0.7500032
0.9917138 0.0082889 0.7500005
0.1317683 0.3355207 0.7279513
0.3017812 0.3065684 0.7299821
0.5162610 0.2962028 0.7425392
0.7645284 0.3427610 0.7633006
0.9863533 0.2936064 0.7624819
0.4658768 0.6362548 0.7424622
0.5065100 0.6070015 0.7043260
0.6349017 0.6507448 0.7376357
0.7879537 0.7200471 0.8080265
0.9565042 0.7364916 0.8702614
0.0222980 0.7495700 0.7515540
0.3687128 0.7285359 0.7471793
0.6201386 0.7204858 0.7505817
0.7851197 0.7924539 0.8071652
0.9704315 0.8927253 0.8479047
0.0082861 0.9917141 0.7500001
0.2502591 0.9915798 0.7500068
0.5036300 0.9887968 0.7511791
0.7719097 0.9015898 0.7879410
0.9553774 0.9224697 0.8332815
0.0082859 0.0082859 0.9917141
0.2500000 0.0082859 0.9917141
0.5000000 0.0082859 0.9917141
0.7500000 0.0082859 0.9917141
0.9917141 0.0082859 0.9917141
0.0084606 0.2501320 0.9916402
0.2500076 0.2500090 0.9917077
0.5000076 0.2500185 0.9917041
0.7500210 0.2500965 0.9916962
0.9917032 0.2501247 0.9917016
0.0953256 0.5364560 0.9696627
0.2750447 0.5174719 0.9842635
0.5155194 0.5178468 0.9791217
0.7681990 0.5516200 0.9786387
0.9798380 0.7051437 0.9819897
0.1636518 0.7688193 0.9748391
0.6379415 0.8440352 0.9551971
0.7475626 0.8515021 0.9244772
0.8079464 0.8143318 0.8578828
0.9296737 0.8739305 0.9496251
0.0085025 0.9916834 0.9917092
0.2799796 0.9860753 0.9904639
0.5947950 0.9372649 0.9585255
0.8115923 0.8718633 0.9049613
0.9437562 0.9542447 0.9564584
