looks/recipe_reala100.cube
TITLE "Fuji recipe Reala 100 (16 RAFs)"
LUT_3D_SIZE 5
0.0275795 0.0323448 0.0291127
0.1702684 0.0425819 0.0271248
0.5089169 0.1061727 0.0312207
0.7294689 0.0773824 0.0261589
0.9915367 0.0084662 0.0083635
0.0213457 0.2231297 0.0217307
0.1980686 0.2288678 0.0965615
0.5894102 0.2574500 0.0620031
0.7541670 0.2656015 0.0318753
0.9897869 0.2503791 0.0099232
0.0083369 0.4999189 0.0083398
0.2500101 0.4791043 0.1107985
0.4959231 0.4938986 0.0720544
0.7587337 0.4930697 0.0304387
0.9911102 0.5000855 0.0094128
0.0082859 0.7500000 0.0082859
0.2502935 0.7493799 0.0092559
0.4987596 0.7425895 0.0232537
0.7499870 0.7499770 0.0083465
0.9916853 0.7499887 0.0083231
0.0082859 0.9917141 0.0082859
0.2500000 0.9917141 0.0082859
0.5000000 0.9917140 0.0082860
0.7499998 0.9917131 0.0082870
0.9917131 0.9917129 0.0082872
0.0601436 0.0865906 0.2593862
0.2617734 0.0617966 0.2358666
0.5103070 0.0422816 0.2503185
0.7510453 0.0273226 0.2451394
0.9913496 0.0087949 0.2498408
0.0551244 0.2416016 0.2785137
0.3194273 0.3402193 0.3396960
0.5440797 0.3151376 0.2689918
0.7828695 0.3372157 0.2549590
0.9144226 0.3081884 0.2615908
0.0093567 0.4990515 0.2524261
0.1226213 0.4751256 0.3655905
0.5668668 0.5397968 0.3323418
0.8062105 0.5373257 0.3151078
0.9604309 0.5085461 0.2725121
0.0082891 0.7499878 0.2500094
0.2444664 0.7400502 0.2597430
0.4243868 0.6820915 0.3728512
0.6798295 0.6584522 0.3561889
0.9423639 0.7177595 0.2861096
0.0082859 0.9917141 0.2500000
0.2500000 0.9917140 0.2500001
0.4999470 0.9915639 0.2501012
0.7497004 0.9901384 0.2507804
0.9719595 0.9679952 0.2630146
0.0098996 0.0117455 0.4991654
0.2511097 0.0143846 0.4980019
0.5090197 0.0265842 0.4939389
0.7504785 0.0130827 0.4988358
0.9917135 0.0082879 0.4999999
0.1171176 0.3332399 0.5335044
0.3111209 0.3367332 0.4947258
0.6253996 0.4000686 0.5120289
0.8511159 0.4242518 0.5121209
0.9867884 0.2611825 0.4978616
0.0318426 0.4971752 0.5218388
0.3043156 0.5068825 0.5473260
0.6266801 0.6094997 0.6071229
0.7687908 0.5637664 0.5159652
0.8941822 0.5169668 0.5024219
0.0082874 0.7499980 0.5000013
0.2507506 0.7491441 0.5009078
0.4927188 0.6894379 0.5420593
0.7090808 0.6734115 0.5279332
0.8163958 0.6617783 0.5152301
0.0082859 0.9917141 0.5000000
0.2500000 0.9917141 0.5000000
0.5000637 0.9910854 0.5001248
0.7354070 0.9481654 0.5144557
0.9666313 0.9503917 0.5051436
0.0082883 0.0082940 0.7499971
0.2500009 0.0082908 0.7499977
0.5000005 0.0082875 0.7499990
0.7500023 0.0082943 0.7499958
0.9917141 0.0082859 0.7500000
0.0327592 0.2812942 0.7319069
0.2609574 0.2705279 0.7418436
0.5084020 0.2648451 0.7449932
0.7571198 0.2822352 0.7347724
0.9889386 0.2550725 0.7478853
0.1580385 0.5649892 0.7803382
0.3526675 0.5692275 0.7384139
0.5532129 0.5559942 0.6787986
0.7519979 0.6003981 0.6718218
0.8780823 0.5679862 0.6913165
0.0093510 0.7494155 0.7502087
0.3687223 0.7186679 0.7261003
0.5419681 0.6777661 0.7132446
0.7158653 0.6989412 0.7050143
0.7984408 0.6733884 0.6283101
0.0082859 0.9917141 0.7500000
0.2501074 0.9916243 0.7499779
0.5005805 0.9897868 0.7497011
0.7368687 0.9267878 0.7322046
0.8050155 0.7171910 0.6021556
0.0082859 0.0082859 0.9917141
0.2500000 0.0082859 0.9917141
0.5000000 0.0082859 0.9917141
0.7500000 0.0082859 0.9917141
0.9917141 0.0082859 0.9917141
0.0082894 0.2500064 0.9917099
0.2500003 0.2500013 0.9917131
0.5000000 0.2500002 0.9917138
0.7500023 0.2500172 0.9916979
0.9917034 0.2500205 0.9916962
0.0514288 0.5184593 0.9628030
0.2579385 0.5086193 0.9787795
0.5020161 0.5030915 0.9837744
0.7500709 0.5051010 0.9807639
0.9769490 0.5101667 0.9696018
0.0172890 0.7475120 0.9867951
0.3452561 0.7016723 0.8832937
0.5698415 0.6873727 0.7861981
0.7236977 0.7196450 0.8233370
0.8108629 0.6990024 0.7718952
0.0082860 0.9917140 0.9917141
0.2500030 0.9917089 0.9917108
0.5005471 0.9904051 0.9905872
0.6952446 0.7805341 0.8039445
0.7537768 0.7521452 0.7604085
