looks/recipe_portra400.cube
TITLE "Fuji recipe Portra 400 (16 RAFs)"
LUT_3D_SIZE 33
0.0175219 0.0176277 0.0147638
0.0308146 0.0223411 0.0185750
0.0503128 0.0219945 0.0181636
0.0716791 0.0207435 0.0174868
0.0937058 0.0204841 0.0182314
0.1196642 0.0210111 0.0195847
0.1494752 0.0220343 0.0206626
0.1713937 0.0223663 0.0203217
0.1784467 0.0202516 0.0178487
0.1996455 0.0209150 0.0182010
0.2593749 0.0260919 0.0228725
0.3612239 0.0362245 0.0329582
0.4198289 0.0418430 0.0387703
0.4456207 0.0439674 0.0411769
0.4686071 0.0457204 0.0428223
0.5062333 0.0499139 0.0469946
0.5392229 0.0535742 0.0508681
0.5662130 0.0566579 0.0540861
0.5913695 0.0598549 0.0571955
0.6155941 0.0622014 0.0600197
0.6361918 0.0624395 0.0612567
0.6507091 0.0569148 0.0563682
0.6742551 0.0507719 0.0501707
0.7093707 0.0516029 0.0497137
0.7369347 0.0475545 0.0453658
0.7646099 0.0366216 0.0350140
0.7985601 0.0248262 0.0238812
0.8352698 0.0164202 0.0159363
0.8708766 0.0120199 0.0117594
0.9044276 0.0099611 0.0098114
0.9367463 0.0089316 0.0088655
0.9679991 0.0084823 0.0084616
0.9916326 0.0083409 0.0083350
0.0170116 0.0230280 0.0136969
0.0312705 0.0308741 0.0195824
0.0520089 0.0357162 0.0222595
0.0747424 0.0359905 0.0217036
0.0987886 0.0344593 0.0212244
0.1249375 0.0333544 0.0219326
0.1531042 0.0333409 0.0231397
0.1796199 0.0343472 0.0234620
0.1991628 0.0343934 0.0224294
0.2205346 0.0347885 0.0226106
0.2688582 0.0373737 0.0259506
0.3583671 0.0428476 0.0347008
0.4159063 0.0464071 0.0398552
0.4442943 0.0485496 0.0422524
0.4658128 0.0516884 0.0451196
0.5028918 0.0569992 0.0504681
0.5381895 0.0610686 0.0548522
0.5668666 0.0640296 0.0580647
0.5926638 0.0669178 0.0610092
0.6165759 0.0691854 0.0638249
0.6371524 0.0701492 0.0655769
0.6525633 0.0679661 0.0628644
0.6754603 0.0675663 0.0598778
0.7085606 0.0720748 0.0603063
0.7338459 0.0691806 0.0546798
0.7606556 0.0590572 0.0419652
0.7953471 0.0486046 0.0288565
0.8328660 0.0415324 0.0198703
0.8688760 0.0372316 0.0145191
0.9030789 0.0343683 0.0111957
0.9361049 0.0327402 0.0093838
0.9677712 0.0320519 0.0086253
0.9915581 0.0318351 0.0083870
0.0178819 0.0373452 0.0135823
0.0315047 0.0460320 0.0183416
0.0522233 0.0534922 0.0228971
0.0767213 0.0556888 0.0244228
0.1019458 0.0545255 0.0234702
0.1285072 0.0535825 0.0226582
0.1589189 0.0545813 0.0233907
0.1945373 0.0571854 0.0240536
0.2294991 0.0602819 0.0245905
0.2609397 0.0631302 0.0270827
0.2989735 0.0629011 0.0300192
0.3587191 0.0595316 0.0352552
0.4025357 0.0595084 0.0388777
0.4276109 0.0607411 0.0422705
0.4484437 0.0629504 0.0477562
0.4877608 0.0673259 0.0533737
0.5293945 0.0710900 0.0575579
0.5628276 0.0733344 0.0602049
0.5911283 0.0749337 0.0623008
0.6154648 0.0763154 0.0647537
0.6376009 0.0778713 0.0673665
0.6567084 0.0789810 0.0678364
0.6780237 0.0830528 0.0672351
0.7085941 0.0912923 0.0684638
0.7321342 0.0909012 0.0621299
0.7583747 0.0843830 0.0485554
0.7931866 0.0789257 0.0361172
0.8297330 0.0746412 0.0268895
0.8655577 0.0699183 0.0190862
0.9009055 0.0660384 0.0133574
0.9351048 0.0638785 0.0102343
0.9674043 0.0629677 0.0089250
0.9914240 0.0626653 0.0084972
0.0222399 0.0601907 0.0124268
0.0322647 0.0647772 0.0148500
0.0510218 0.0723282 0.0202988
0.0750475 0.0757881 0.0246070
0.1022802 0.0754812 0.0257468
0.1316317 0.0748890 0.0248241
0.1634808 0.0753879 0.0242128
0.2012764 0.0776835 0.0246008
0.2416427 0.0813408 0.0254008
0.2804474 0.0856120 0.0275292
0.3177240 0.0877684 0.0301301
0.3584597 0.0871206 0.0333253
0.3896159 0.0881532 0.0357339
0.4118841 0.0867556 0.0385481
0.4407776 0.0836321 0.0436117
0.4799825 0.0848824 0.0478439
0.5191363 0.0878551 0.0513669
0.5546045 0.0905380 0.0533141
0.5853759 0.0903647 0.0551572
0.6120932 0.0876355 0.0586753
0.6365145 0.0876980 0.0619363
0.6594214 0.0904830 0.0645050
0.6828972 0.0977275 0.0674668
0.7112774 0.1073814 0.0702264
0.7335745 0.1093173 0.0644010
0.7594653 0.1081871 0.0531131
0.7925506 0.1087019 0.0443395
0.8265575 0.1059485 0.0342857
0.8622024 0.1011002 0.0234746
0.8988507 0.0973401 0.0155397
0.9341353 0.0952892 0.0112412
0.9669856 0.0943580 0.0093623
0.9912181 0.0940063 0.0087001
0.0236556 0.0782344 0.0080009
0.0344462 0.0835045 0.0117175
0.0547253 0.0960975 0.0194533
0.0759098 0.1002684 0.0238799
0.1011714 0.0995422 0.0264874
0.1320548 0.0984503 0.0273975
0.1658370 0.0971874 0.0269288
0.2038505 0.0983805 0.0274354
0.2461175 0.1014204 0.0287280
0.2901203 0.1057743 0.0302241
0.3306388 0.1100166 0.0313322
0.3680678 0.1134150 0.0327303
0.3982623 0.1162614 0.0343776
0.4231085 0.1167776 0.0353005
0.4533079 0.1158763 0.0364899
0.4818476 0.1169281 0.0369848
0.5097683 0.1204738 0.0390528
0.5443811 0.1256783 0.0396230
0.5764377 0.1246897 0.0416361
0.6080112 0.1175961 0.0479525
0.6345953 0.1149794 0.0514961
0.6600598 0.1159649 0.0547619
0.6879262 0.1198341 0.0615257
0.7148484 0.1251038 0.0650267
0.7373779 0.1279958 0.0611979
0.7633988 0.1315426 0.0550994
0.7930647 0.1346111 0.0492334
0.8248342 0.1331263 0.0383318
0.8604960 0.1299633 0.0259542
0.8977743 0.1277216 0.0170879
0.9334756 0.1264601 0.0122541
0.9665266 0.1257382 0.0099742
0.9908817 0.1253809 0.0090612
0.0262194 0.1021422 0.0089437
0.0440967 0.1134083 0.0160042
0.0658223 0.1283922 0.0240066
0.0808074 0.1272573 0.0242385
0.1014604 0.1259871 0.0251795
0.1294812 0.1258239 0.0276141
0.1635182 0.1244818 0.0291157
0.2031985 0.1236890 0.0300513
0.2449829 0.1231840 0.0312528
0.2948109 0.1270020 0.0334912
0.3404944 0.1334073 0.0351509
0.3798956 0.1376494 0.0354455
0.4145763 0.1407994 0.0365835
0.4457538 0.1423988 0.0379826
0.4724233 0.1408335 0.0374749
0.4972884 0.1412472 0.0352462
0.5212881 0.1457863 0.0348863
0.5494192 0.1519642 0.0335837
0.5760452 0.1568511 0.0349971
0.6091036 0.1606699 0.0400086
0.6332159 0.1610703 0.0412424
0.6567951 0.1580974 0.0431475
0.6875266 0.1526008 0.0513516
0.7172380 0.1506480 0.0563489
0.7432431 0.1524206 0.0560963
0.7692565 0.1565136 0.0550343
0.7954730 0.1586952 0.0498339
0.8255865 0.1585374 0.0385859
0.8608425 0.1579593 0.0264569
0.8977115 0.1576579 0.0179160
0.9330550 0.1574413 0.0132632
0.9659528 0.1570455 0.0108055
0.9903920 0.1566997 0.0095819
0.0315892 0.1432727 0.0142823
0.0535700 0.1496323 0.0210338
0.0701412 0.1491277 0.0237979
0.0799257 0.1423526 0.0208900
0.1014413 0.1485773 0.0226053
0.1303859 0.1569190 0.0267519
0.1625747 0.1576979 0.0306753
0.2000562 0.1533446 0.0326884
0.2418733 0.1517900 0.0340645
0.2932852 0.1550963 0.0364039
0.3431136 0.1632907 0.0406462
0.3841462 0.1711322 0.0426620
0.4194305 0.1697955 0.0413680
0.4546106 0.1684233 0.0414410
0.4878939 0.1676174 0.0417144
0.5201318 0.1662531 0.0405951
0.5421534 0.1642937 0.0384954
0.5633709 0.1676985 0.0369383
0.5870731 0.1771536 0.0382935
0.6160745 0.1882314 0.0396047
0.6345606 0.1939331 0.0398898
0.6545210 0.1960307 0.0415377
0.6841869 0.1923247 0.0454350
0.7177449 0.1872957 0.0484827
0.7477254 0.1846469 0.0498044
0.7732845 0.1828533 0.0498081
0.7984951 0.1829568 0.0449636
0.8283622 0.1845484 0.0354200
0.8628795 0.1864395 0.0255500
0.8984725 0.1877407 0.0184395
0.9327649 0.1882503 0.0143352
0.9653475 0.1880929 0.0116628
0.9899084 0.1878338 0.0100784
0.0319739 0.1876225 0.0164613
0.0516858 0.1795043 0.0185048
0.0676173 0.1638466 0.0174202
0.0792281 0.1554728 0.0162248
0.0993539 0.1647840 0.0190217
0.1301060 0.1829447 0.0246169
0.1628455 0.1913129 0.0296111
0.2013376 0.1862125 0.0337888
0.2487978 0.1925863 0.0381255
0.2908973 0.1964901 0.0412147
0.3384063 0.2022131 0.0470157
0.3804595 0.2167282 0.0529678
0.4123379 0.2057277 0.0477663
0.4482549 0.1959979 0.0433600
0.4895333 0.1928041 0.0428977
0.5299189 0.1917138 0.0439971
0.5598575 0.1897425 0.0437167
0.5860958 0.1926668 0.0446239
0.6088283 0.1974180 0.0451451
0.6275480 0.2043808 0.0454159
0.6418448 0.2154091 0.0505283
0.6597486 0.2264028 0.0531649
0.6868338 0.2319105 0.0477371
0.7206004 0.2336119 0.0423252
0.7503722 0.2285889 0.0413052
0.7754337 0.2188551 0.0402066
0.8018483 0.2148288 0.0355246
0.8325223 0.2151159 0.0290210
0.8659436 0.2165401 0.0229375
0.8997387 0.2179700 0.0181403
0.9328018 0.2186889 0.0147679
0.9650815 0.2188128 0.0120335
0.9897031 0.2187897 0.0102854
0.0242310 0.2252717 0.0133823
0.0447869 0.2110927 0.0131376
0.0671343 0.1935048 0.0130228
0.0854511 0.1832237 0.0141460
0.1024557 0.1848377 0.0167453
0.1266343 0.2003026 0.0210242
0.1592195 0.2150868 0.0255461
0.1981453 0.2158015 0.0305793
0.2438154 0.2240698 0.0370693
0.2841687 0.2287550 0.0445816
0.3304754 0.2371433 0.0514777
0.3725052 0.2466000 0.0559719
0.4050603 0.2347163 0.0519838
0.4439134 0.2277500 0.0495861
0.4876774 0.2182088 0.0465237
0.5342638 0.2190597 0.0479871
0.5812417 0.2279822 0.0515040
0.6130183 0.2298887 0.0528004
0.6291628 0.2251490 0.0511088
0.6420382 0.2270326 0.0527992
0.6575580 0.2395567 0.0620574
0.6747215 0.2519804 0.0630409
0.7013001 0.2648944 0.0552038
0.7320283 0.2748636 0.0495587
0.7543555 0.2730272 0.0448878
0.7756521 0.2640343 0.0372849
0.8031313 0.2568917 0.0285687
0.8352638 0.2522147 0.0225641
0.8683756 0.2497329 0.0191035
0.9011288 0.2492321 0.0164686
0.9334456 0.2492900 0.0140126
0.9654179 0.2495278 0.0116388
0.9899108 0.2497421 0.0100765
0.0168510 0.2625725 0.0102300
0.0402600 0.2513538 0.0105303
0.0686962 0.2362918 0.0115592
0.0931909 0.2236619 0.0129843
0.1128039 0.2179732 0.0145505
0.1286821 0.2200139 0.0161183
0.1532108 0.2344302 0.0185515
0.1872884 0.2518645 0.0233715
0.2227139 0.2607255 0.0296866
0.2681450 0.2599406 0.0404852
0.3207031 0.2632212 0.0498523
0.3616866 0.2633154 0.0523262
0.3972153 0.2644815 0.0557208
0.4379936 0.2672749 0.0613273
0.4807013 0.2522433 0.0556868
0.5218633 0.2487233 0.0542918
0.5723342 0.2548178 0.0561451
0.6110085 0.2539854 0.0548301
0.6337493 0.2507375 0.0536228
0.6569997 0.2573568 0.0571296
0.6794130 0.2676626 0.0629724
0.6980674 0.2770509 0.0645486
0.7181471 0.2878670 0.0627087
0.7421027 0.2994777 0.0621639
0.7576470 0.3012190 0.0562267
0.7752928 0.2974185 0.0439392
0.8026875 0.2936943 0.0313182
0.8354264 0.2900181 0.0228322
0.8687282 0.2859398 0.0176303
0.9016587 0.2826127 0.0144737
0.9342028 0.2809845 0.0124201
0.9660970 0.2807677 0.0106949
0.9903805 0.2809428 0.0095670
0.0130472 0.3014721 0.0092388
0.0379229 0.2940924 0.0099431
0.0696071 0.2822593 0.0108926
0.0991334 0.2691695 0.0109380
0.1217662 0.2572035 0.0098500
0.1338032 0.2458635 0.0093381
0.1506117 0.2506848 0.0114867
0.1844053 0.2760696 0.0180469
0.2149914 0.2943558 0.0239501
0.2529519 0.2991236 0.0321897
0.3048908 0.2974055 0.0426852
0.3464476 0.2923285 0.0448970
0.3815314 0.2872581 0.0491430
0.4102792 0.2729503 0.0528340
0.4509135 0.2723751 0.0511495
0.4897179 0.2727302 0.0531374
0.5425526 0.2736919 0.0548151
0.5826822 0.2750176 0.0536268
0.6155826 0.2781053 0.0539575
0.6570761 0.2857797 0.0574474
0.6892677 0.2916280 0.0607137
0.7137305 0.2992675 0.0652839
0.7337178 0.3076722 0.0690479
0.7502370 0.3150062 0.0704312
0.7611805 0.3184856 0.0644566
0.7778304 0.3218455 0.0523212
0.8035265 0.3243159 0.0393560
0.8341382 0.3238443 0.0294293
0.8665388 0.3198819 0.0209621
0.9002100 0.3158533 0.0149788
0.9338204 0.3136607 0.0117779
0.9662193 0.3127615 0.0100659
0.9905988 0.3125206 0.0091655
0.0110183 0.3382974 0.0088565
0.0361954 0.3337413 0.0093056
0.0695266 0.3248453 0.0095662
0.1010305 0.3099320 0.0088215
0.1248631 0.2905113 0.0076957
0.1389143 0.2725995 0.0074391
0.1574631 0.2726751 0.0102352
0.1933539 0.2967694 0.0173516
0.2242591 0.3204464 0.0228419
0.2524763 0.3358411 0.0263721
0.2836779 0.3408252 0.0304125
0.3198592 0.3370573 0.0338461
0.3656900 0.3156904 0.0410237
0.3978248 0.2926804 0.0415488
0.4341865 0.2993319 0.0411277
0.4732272 0.2959889 0.0482410
0.5133680 0.2951987 0.0524983
0.5431597 0.3008807 0.0516871
0.5769724 0.3062898 0.0518219
0.6342601 0.3088539 0.0544363
0.6842137 0.3117213 0.0582166
0.7173606 0.3197373 0.0652464
0.7402254 0.3261287 0.0703549
0.7556100 0.3300086 0.0722511
0.7675453 0.3353246 0.0688284
0.7834654 0.3431039 0.0601047
0.8047057 0.3488393 0.0485008
0.8319210 0.3512138 0.0373701
0.8631634 0.3495894 0.0264625
0.8969699 0.3473227 0.0184989
0.9313822 0.3457635 0.0137357
0.9648672 0.3446660 0.0108590
0.9899853 0.3441429 0.0094359
0.0099015 0.3725544 0.0085681
0.0348581 0.3694290 0.0087495
0.0680141 0.3619782 0.0087969
0.0998773 0.3479054 0.0086827
0.1260537 0.3287372 0.0087906
0.1475298 0.3133298 0.0099776
0.1755996 0.3146954 0.0142351
0.2115272 0.3305815 0.0202007
0.2396515 0.3476504 0.0230268
0.2635355 0.3659101 0.0238597
0.2827404 0.3757885 0.0246868
0.3091349 0.3732196 0.0295313
0.3564828 0.3600616 0.0382715
0.4066683 0.3498928 0.0388574
0.4440905 0.3399052 0.0395287
0.4824718 0.3226897 0.0467958
0.5104577 0.3152608 0.0511393
0.5343899 0.3207659 0.0509445
0.5611931 0.3286711 0.0521401
0.6032485 0.3327501 0.0523635
0.6593365 0.3355863 0.0543896
0.6994793 0.3399589 0.0592646
0.7322575 0.3426575 0.0642206
0.7572670 0.3454624 0.0686236
0.7750703 0.3514838 0.0704926
0.7888297 0.3594938 0.0654753
0.8064138 0.3680717 0.0551818
0.8307489 0.3742051 0.0435088
0.8597262 0.3766316 0.0327894
0.8923095 0.3770387 0.0243847
0.9273992 0.3764538 0.0175313
0.9625471 0.3758717 0.0127338
0.9888947 0.3757932 0.0105267
0.0092178 0.4050868 0.0084452
0.0337427 0.4030243 0.0086533
0.0662171 0.3977913 0.0090996
0.0983734 0.3881144 0.0099648
0.1280441 0.3752845 0.0113675
0.1582891 0.3657215 0.0141017
0.1941311 0.3649826 0.0190850
0.2291316 0.3695659 0.0229914
0.2593761 0.3806564 0.0234060
0.2806139 0.3934595 0.0237926
0.2970257 0.4034554 0.0249853
0.3217921 0.4103807 0.0309079
0.3697039 0.4210072 0.0425906
0.4244164 0.4273468 0.0486807
0.4602408 0.4006241 0.0474389
0.4906230 0.3634553 0.0467614
0.5120067 0.3461051 0.0476965
0.5345680 0.3456287 0.0480546
0.5613868 0.3461901 0.0508498
0.5866522 0.3495690 0.0496161
0.6181651 0.3558087 0.0482236
0.6549648 0.3631042 0.0489495
0.7063462 0.3663049 0.0537312
0.7519770 0.3678029 0.0606576
0.7769608 0.3704346 0.0658186
0.7930291 0.3787416 0.0651906
0.8106136 0.3896659 0.0583706
0.8313870 0.3972448 0.0481024
0.8564759 0.4018414 0.0395696
0.8876013 0.4041219 0.0304900
0.9236469 0.4053909 0.0213393
0.9604391 0.4067799 0.0152452
0.9876567 0.4081451 0.0129955
0.0087502 0.4369015 0.0083771
0.0327885 0.4357589 0.0085460
0.0645289 0.4328517 0.0089743
0.0966698 0.4275614 0.0098296
0.1292038 0.4207813 0.0113586
0.1644357 0.4145264 0.0139620
0.2023202 0.4094582 0.0172410
0.2397908 0.4076552 0.0193933
0.2707354 0.4097783 0.0212548
0.2924593 0.4157626 0.0233815
0.3129891 0.4274053 0.0251715
0.3453131 0.4444497 0.0330894
0.3988199 0.4688294 0.0478561
0.4422913 0.4811039 0.0552066
0.4697404 0.4613853 0.0504160
0.4950403 0.4166975 0.0441819
0.5113011 0.3954591 0.0430150
0.5298094 0.3875763 0.0430685
0.5611918 0.3715650 0.0457399
0.5877017 0.3669869 0.0458521
0.6082225 0.3714816 0.0459272
0.6313338 0.3813188 0.0451177
0.6737865 0.3922020 0.0459417
0.7306337 0.3972768 0.0503833
0.7701637 0.3987671 0.0561229
0.7943513 0.4053021 0.0584598
0.8126283 0.4130901 0.0548075
0.8316004 0.4198089 0.0484129
0.8549940 0.4250470 0.0424433
0.8857555 0.4295080 0.0333526
0.9225062 0.4342563 0.0241595
0.9593443 0.4385615 0.0191416
0.9854913 0.4408726 0.0176908
0.0084792 0.4684803 0.0083330
0.0321845 0.4679622 0.0084229
0.0634078 0.4666463 0.0086506
0.0954521 0.4642633 0.0091705
0.1287155 0.4607933 0.0101810
0.1643573 0.4560280 0.0115303
0.2023393 0.4502130 0.0130998
0.2402693 0.4447758 0.0149751
0.2748097 0.4424742 0.0182005
0.3064105 0.4474109 0.0218428
0.3325501 0.4576034 0.0223883
0.3573687 0.4695399 0.0257363
0.3966126 0.4879658 0.0354760
0.4428721 0.5050744 0.0479734
0.4773590 0.4996169 0.0502893
0.5000355 0.4614268 0.0442704
0.5127687 0.4353174 0.0405818
0.5282904 0.4234717 0.0374915
0.5607296 0.4077768 0.0373342
0.5939189 0.3968512 0.0396104
0.6144592 0.3944525 0.0429987
0.6322331 0.4034382 0.0446388
0.6602399 0.4188237 0.0432103
0.7056634 0.4299190 0.0412530
0.7571443 0.4339789 0.0440364
0.7906861 0.4372468 0.0459179
0.8117188 0.4410508 0.0450734
0.8324993 0.4458214 0.0433966
0.8572833 0.4507908 0.0393729
0.8887892 0.4576899 0.0325040
0.9247395 0.4656679 0.0273227
0.9586666 0.4711364 0.0255782
0.9822555 0.4727826 0.0246070
0.0083576 0.4999053 0.0083177
0.0319102 0.4997229 0.0083768
0.0628894 0.4992495 0.0085053
0.0946778 0.4982860 0.0087290
0.1274144 0.4964826 0.0091180
0.1618580 0.4933296 0.0096747
0.1983579 0.4886015 0.0106204
0.2371819 0.4838032 0.0121440
0.2789344 0.4819075 0.0144989
0.3177412 0.4811679 0.0175624
0.3442477 0.4806129 0.0193390
0.3613836 0.4834359 0.0211651
0.3884251 0.4969482 0.0266369
0.4362912 0.5201783 0.0398372
0.4872887 0.5347109 0.0513104
0.5089465 0.5193695 0.0499620
0.5186487 0.4913903 0.0438007
0.5313731 0.4740974 0.0357472
0.5570210 0.4607436 0.0296386
0.5939964 0.4420697 0.0315115
0.6201475 0.4328900 0.0373320
0.6400256 0.4367716 0.0413702
0.6627795 0.4479156 0.0391615
0.6984211 0.4615541 0.0334206
0.7476653 0.4710638 0.0313939
0.7850654 0.4743717 0.0320232
0.8107701 0.4755578 0.0331164
0.8355076 0.4781455 0.0337588
0.8632862 0.4830509 0.0324924
0.8952831 0.4908656 0.0312338
0.9277189 0.4978774 0.0318446
0.9573959 0.5013608 0.0322470
0.9789350 0.5020620 0.0310594
0.0083066 0.5312228 0.0083063
0.0317893 0.5311697 0.0083441
0.0626279 0.5310211 0.0084221
0.0941361 0.5306513 0.0085120
0.1262273 0.5298081 0.0086140
0.1594392 0.5280502 0.0088527
0.1949411 0.5250703 0.0094160
0.2348721 0.5212207 0.0104760
0.2778529 0.5153692 0.0122582
0.3165189 0.5065309 0.0148075
0.3429566 0.4979998 0.0174387
0.3605539 0.4967718 0.0199827
0.3878461 0.5106751 0.0261899
0.4336189 0.5359830 0.0399098
0.4745125 0.5502523 0.0491883
0.4923298 0.5494247 0.0483172
0.5089293 0.5420620 0.0442605
0.5285993 0.5334874 0.0376051
0.5515859 0.5181288 0.0274817
0.5891857 0.4966429 0.0255685
0.6223363 0.4824345 0.0300029
0.6463087 0.4792334 0.0329544
0.6699345 0.4854145 0.0307747
0.7011325 0.4979002 0.0254179
0.7412664 0.5093482 0.0216541
0.7801111 0.5138569 0.0216278
0.8109441 0.5141068 0.0227584
0.8395399 0.5155398 0.0241490
0.8700259 0.5197646 0.0266897
0.9007931 0.5244418 0.0309527
0.9293551 0.5271680 0.0343146
0.9566540 0.5286664 0.0350876
0.9774943 0.5292204 0.0337098
0.0082897 0.5624911 0.0082983
0.0317477 0.5624735 0.0083215
0.0625253 0.5624213 0.0083704
0.0938633 0.5622821 0.0084321
0.1255332 0.5619505 0.0084906
0.1581156 0.5611061 0.0085810
0.1927829 0.5590593 0.0088681
0.2308016 0.5547865 0.0095809
0.2705274 0.5466264 0.0109503
0.3070148 0.5353251 0.0129991
0.3354064 0.5252809 0.0156351
0.3570334 0.5221102 0.0187790
0.3780930 0.5270773 0.0230713
0.4009238 0.5349713 0.0292729
0.4225655 0.5403377 0.0324761
0.4426983 0.5465751 0.0317937
0.4701038 0.5545901 0.0302508
0.5024839 0.5576571 0.0285960
0.5375164 0.5554357 0.0254815
0.5772001 0.5481543 0.0230065
0.6170859 0.5354671 0.0230820
0.6491217 0.5287789 0.0234994
0.6771204 0.5310971 0.0217740
0.7076494 0.5394616 0.0186662
0.7424161 0.5481968 0.0164145
0.7786716 0.5524756 0.0160344
0.8114393 0.5528856 0.0162290
0.8425822 0.5534032 0.0180445
0.8740360 0.5549710 0.0228574
0.9033460 0.5553598 0.0284107
0.9306845 0.5552833 0.0316961
0.9579022 0.5560723 0.0323415
0.9789722 0.5567704 0.0311048
0.0082866 0.5937455 0.0082930
0.0317410 0.5937366 0.0083066
0.0625027 0.5937122 0.0083375
0.0937727 0.5936534 0.0083827
0.1252152 0.5935061 0.0084349
0.1572479 0.5930293 0.0084969
0.1906253 0.5915368 0.0086232
0.2258033 0.5879544 0.0090248
0.2620089 0.5813377 0.0098798
0.2969111 0.5723084 0.0114024
0.3284953 0.5633427 0.0139134
0.3554624 0.5556822 0.0171085
0.3747884 0.5479578 0.0201923
0.3889707 0.5424337 0.0225535
0.4066908 0.5435909 0.0242950
0.4301879 0.5521959 0.0249854
0.4562878 0.5617957 0.0250761
0.4922325 0.5707111 0.0271456
0.5305633 0.5787246 0.0284185
0.5670111 0.5829323 0.0247513
0.6075982 0.5817388 0.0206505
0.6476014 0.5790224 0.0185223
0.6813565 0.5785663 0.0162758
0.7132325 0.5819073 0.0144233
0.7460777 0.5859745 0.0135050
0.7791034 0.5884045 0.0132174
0.8116602 0.5890970 0.0130011
0.8440804 0.5890403 0.0147712
0.8753263 0.5881324 0.0189542
0.9044925 0.5865627 0.0231841
0.9326271 0.5857570 0.0255539
0.9607661 0.5862204 0.0260142
0.9825276 0.5868992 0.0252263
0.0082862 0.6249975 0.0082892
0.0317410 0.6249927 0.0082956
0.0625021 0.6249802 0.0083115
0.0937548 0.6249517 0.0083370
0.1250858 0.6248713 0.0083718
0.1566856 0.6245898 0.0084141
0.1889458 0.6237165 0.0084665
0.2220934 0.6216105 0.0086886
0.2560607 0.6176575 0.0092489
0.2905052 0.6115544 0.0104873
0.3244407 0.6028519 0.0128893
0.3544677 0.5908225 0.0158937
0.3776175 0.5769826 0.0184029
0.3963307 0.5652733 0.0203320
0.4148232 0.5605389 0.0224607
0.4364646 0.5650499 0.0242529
0.4623297 0.5748147 0.0268552
0.5005236 0.5876048 0.0324310
0.5319573 0.5973338 0.0326765
0.5631801 0.6060333 0.0271602
0.6026573 0.6141062 0.0217709
0.6444448 0.6188295 0.0182766
0.6815544 0.6206009 0.0149186
0.7153967 0.6214778 0.0124659
0.7481397 0.6216981 0.0115709
0.7799432 0.6221257 0.0112538
0.8118617 0.6226013 0.0111464
0.8442692 0.6223511 0.0125996
0.8754900 0.6210382 0.0154786
0.9053400 0.6195456 0.0182935
0.9345960 0.6187836 0.0198038
0.9636778 0.6188981 0.0200898
0.9861980 0.6193913 0.0199360
0.0082860 0.6562489 0.0082871
0.0317414 0.6562468 0.0082896
0.0625045 0.6562410 0.0082961
0.0937521 0.6562275 0.0083080
0.1250305 0.6561885 0.0083251
0.1564101 0.6560584 0.0083446
0.1880597 0.6556633 0.0083715
0.2201958 0.6546947 0.0085269
0.2531944 0.6525547 0.0090190
0.2872582 0.6480185 0.0101576
0.3213684 0.6398854 0.0122942
0.3527333 0.6280416 0.0146642
0.3799458 0.6141705 0.0160161
0.4046889 0.6000636 0.0176937
0.4272825 0.5893968 0.0205163
0.4473641 0.5868937 0.0236499
0.4741891 0.5949494 0.0284098
0.5087922 0.6075626 0.0342209
0.5347514 0.6174077 0.0331541
0.5637667 0.6286536 0.0272498
0.6019684 0.6404243 0.0219753
0.6425892 0.6488636 0.0181097
0.6805770 0.6533199 0.0144024
0.7156260 0.6549643 0.0116467
0.7487225 0.6549563 0.0102771
0.7805762 0.6548276 0.0098093
0.8122477 0.6549358 0.0099077
0.8441759 0.6545562 0.0110872
0.8754140 0.6535376 0.0130591
0.9058402 0.6524816 0.0149247
0.9358615 0.6518807 0.0158677
0.9655744 0.6517911 0.0160458
0.9885681 0.6520862 0.0162504
0.0082859 0.6874996 0.0082863
0.0317415 0.6874989 0.0082871
0.0625054 0.6874965 0.0082895
0.0937502 0.6874909 0.0082944
0.1250075 0.6874757 0.0083017
0.1563003 0.6874277 0.0083108
0.1877076 0.6872724 0.0083320
0.2194081 0.6868076 0.0084296
0.2517183 0.6854900 0.0087513
0.2847674 0.6822782 0.0095135
0.3178490 0.6763182 0.0108905
0.3496726 0.6677398 0.0123299
0.3803629 0.6568601 0.0131403
0.4101456 0.6431512 0.0148396
0.4363858 0.6297894 0.0180995
0.4611150 0.6235107 0.0228080
0.4888029 0.6263809 0.0283251
0.5159256 0.6331086 0.0318551
0.5390148 0.6417182 0.0299749
0.5678241 0.6545577 0.0247764
0.6047558 0.6679880 0.0202031
0.6438274 0.6777472 0.0167480
0.6811023 0.6833906 0.0134807
0.7159323 0.6860117 0.0110675
0.7489042 0.6868036 0.0096512
0.7808952 0.6868811 0.0090686
0.8125395 0.6868280 0.0091439
0.8440703 0.6864200 0.0098934
0.8752618 0.6856855 0.0110536
0.9060559 0.6849732 0.0121355
0.9366131 0.6845570 0.0126693
0.9667827 0.6844545 0.0127713
0.9900061 0.6846118 0.0129615
0.0082859 0.7187499 0.0082860
0.0317416 0.7187496 0.0082862
0.0625056 0.7187489 0.0082870
0.0937498 0.7187470 0.0082886
0.1250017 0.7187422 0.0082912
0.1562670 0.7187260 0.0082949
0.1875824 0.7186611 0.0083072
0.2190414 0.7184191 0.0083551
0.2507923 0.7176719 0.0085039
0.2828905 0.7158678 0.0088635
0.3150567 0.7125275 0.0095051
0.3471136 0.7075323 0.0101925
0.3794515 0.7001357 0.0108044
0.4111560 0.6892369 0.0124330
0.4413682 0.6777429 0.0157699
0.4704351 0.6699711 0.0203258
0.4967244 0.6673759 0.0239525
0.5214782 0.6696249 0.0255747
0.5457824 0.6765181 0.0239454
0.5751896 0.6882321 0.0201954
0.6104729 0.7004647 0.0168853
0.6473044 0.7093683 0.0143715
0.6828836 0.7146255 0.0120121
0.7167106 0.7172074 0.0102772
0.7491888 0.7182066 0.0092264
0.7809990 0.7184758 0.0087381
0.8125404 0.7184399 0.0087145
0.8439127 0.7181588 0.0090454
0.8751221 0.7177294 0.0095759
0.9061612 0.7173274 0.0100770
0.9370885 0.7170956 0.0103247
0.9675786 0.7170373 0.0103742
0.9909278 0.7171084 0.0104674
0.0082859 0.7500000 0.0082859
0.0317416 0.7499999 0.0082860
0.0625056 0.7499997 0.0082861
0.0937500 0.7499992 0.0082866
0.1250006 0.7499978 0.0082873
0.1562563 0.7499921 0.0082885
