looks/recipe_superia400.cube
TITLE "Fuji recipe Superia 400 (16 RAFs)"
LUT_3D_SIZE 33
0.0218638 0.0270883 0.0216515
0.0361772 0.0311320 0.0231961
0.0577026 0.0290937 0.0180540
0.0803508 0.0251543 0.0115628
0.1000907 0.0207885 0.0066835
0.1196406 0.0189379 0.0043617
0.1388118 0.0192205 0.0033166
0.1595389 0.0215351 0.0031253
0.1752845 0.0239192 0.0035878
0.1811746 0.0221173 0.0027008
0.2008959 0.0231767 0.0021635
0.2540873 0.0320406 0.0020809
0.3414153 0.0495556 0.0020490
0.3936097 0.0600978 0.0019755
0.4229105 0.0640741 0.0019149
0.4579650 0.0688953 0.0018771
0.4889096 0.0724897 0.0018673
0.5291101 0.0808984 0.0019356
0.5655649 0.0884861 0.0019800
0.5971196 0.0944622 0.0020004
0.6265283 0.1000308 0.0020187
0.6542395 0.1047826 0.0020230
0.6813676 0.1087017 0.0020145
0.7047355 0.1089074 0.0021577
0.7229836 0.0973836 0.0028480
0.7511185 0.0780768 0.0039079
0.7892099 0.0627424 0.0048435
0.8237099 0.0472936 0.0058371
0.8589128 0.0324920 0.0067946
0.8956265 0.0219106 0.0074683
0.9311846 0.0155039 0.0078504
0.9645454 0.0120125 0.0080656
0.9894459 0.0102497 0.0081737
0.0182632 0.0365296 0.0212918
0.0347966 0.0445045 0.0264397
0.0574199 0.0479974 0.0257344
0.0819324 0.0466978 0.0197391
0.1040108 0.0418064 0.0129422
0.1241786 0.0372799 0.0084895
0.1436265 0.0344859 0.0061500
0.1649676 0.0349900 0.0050676
0.1839898 0.0375994 0.0046743
0.1953951 0.0360651 0.0032540
0.2099621 0.0342394 0.0022308
0.2579263 0.0433521 0.0019182
0.3345099 0.0559682 0.0017890
0.3875992 0.0644028 0.0016474
0.4242814 0.0700764 0.0015434
0.4548773 0.0746932 0.0015055
0.4795424 0.0788540 0.0015380
0.5194440 0.0878954 0.0015960
0.5602548 0.0965185 0.0016132
0.5947641 0.1032479 0.0016139
0.6255252 0.1092107 0.0016164
0.6536800 0.1142200 0.0016115
0.6807618 0.1183772 0.0016036
0.7042660 0.1192978 0.0017488
0.7235075 0.1108786 0.0023217
0.7531029 0.0979331 0.0030916
0.7870626 0.0874100 0.0039784
0.8190917 0.0745887 0.0050770
0.8537182 0.0608874 0.0061611
0.8906056 0.0493989 0.0069912
0.9270007 0.0419944 0.0075409
0.9615171 0.0373603 0.0078874
0.9874734 0.0347225 0.0080762
0.0151441 0.0555040 0.0233383
0.0301151 0.0653569 0.0275184
0.0523331 0.0713692 0.0294703
0.0795419 0.0722673 0.0268261
0.1047008 0.0687975 0.0204968
0.1271274 0.0645609 0.0140122
0.1502676 0.0624119 0.0099760
0.1777264 0.0631867 0.0075013
0.2040356 0.0658555 0.0057627
0.2218130 0.0639197 0.0040763
0.2372938 0.0598535 0.0028225
0.2844629 0.0702233 0.0022800
0.3365156 0.0722577 0.0019780
0.3764531 0.0741854 0.0018184
0.4150942 0.0795541 0.0016919
0.4401564 0.0807594 0.0016669
0.4576564 0.0839989 0.0017599
0.4970855 0.0925384 0.0017614
0.5474791 0.1023538 0.0017068
0.5889450 0.1098153 0.0016586
0.6229587 0.1155669 0.0016210
0.6524433 0.1203242 0.0015922
0.6801879 0.1243918 0.0015834
0.7054254 0.1263084 0.0017087
0.7279001 0.1227178 0.0021181
0.7601880 0.1179239 0.0026167
0.7888812 0.1129313 0.0032849
0.8161297 0.1049422 0.0042487
0.8478567 0.0934341 0.0053683
0.8841673 0.0827107 0.0063205
0.9207882 0.0753266 0.0070599
0.9567783 0.0698179 0.0076051
0.9844159 0.0664068 0.0079225
0.0165135 0.0824691 0.0254435
0.0260584 0.0876831 0.0270248
0.0435825 0.0927509 0.0298059
0.0695462 0.0942631 0.0311372
0.0981954 0.0923105 0.0280675
0.1252192 0.0889838 0.0214624
0.1517482 0.0866311 0.0150060
0.1824963 0.0860005 0.0100270
0.2138384 0.0878698 0.0067083
0.2408563 0.0897306 0.0046275
0.2673626 0.0916364 0.0033896
0.3064905 0.0986009 0.0026907
0.3402142 0.0989259 0.0023976
0.3712629 0.1003035 0.0023973
0.4080168 0.1044009 0.0022956
0.4316405 0.0995221 0.0023049
0.4530125 0.0991573 0.0024003
0.4922567 0.1055085 0.0023480
0.5456258 0.1145314 0.0022808
0.5890730 0.1197727 0.0022297
0.6215162 0.1209238 0.0021828
0.6486982 0.1232797 0.0021467
0.6789995 0.1266011 0.0021291
0.7079952 0.1294272 0.0021945
0.7341469 0.1302626 0.0024270
0.7663968 0.1312148 0.0027427
0.7934458 0.1307096 0.0031530
0.8164297 0.1262871 0.0038594
0.8451447 0.1184807 0.0048539
0.8796653 0.1114926 0.0058089
0.9152635 0.1057649 0.0066353
0.9523622 0.1007083 0.0073335
0.9815725 0.0975007 0.0077636
0.0207155 0.1083393 0.0285645
0.0287423 0.1113950 0.0309632
0.0410275 0.1162136 0.0337068
0.0599773 0.1163272 0.0339834
0.0863284 0.1147763 0.0334917
0.1158890 0.1121784 0.0295354
0.1461859 0.1080657 0.0220124
0.1800614 0.1057915 0.0151971
0.2181646 0.1068670 0.0101821
0.2543324 0.1096333 0.0066228
0.2864282 0.1136720 0.0046042
0.3209187 0.1190356 0.0034196
0.3557096 0.1234739 0.0028520
0.3918380 0.1289085 0.0026260
0.4221417 0.1328235 0.0024145
0.4465290 0.1323509 0.0024964
0.4691999 0.1332036 0.0027762
0.5019691 0.1375209 0.0028310
0.5537737 0.1458948 0.0028534
0.5929470 0.1462749 0.0028943
0.6177841 0.1371196 0.0029011
0.6386120 0.1324369 0.0029211
0.6728553 0.1337213 0.0029714
0.7097023 0.1372239 0.0030661
0.7406968 0.1400951 0.0032349
0.7707881 0.1422058 0.0034167
0.7973897 0.1431137 0.0036494
0.8205092 0.1414786 0.0040792
0.8479005 0.1383258 0.0047582
0.8788009 0.1355045 0.0055634
0.9126991 0.1324163 0.0064018
0.9502128 0.1293393 0.0071665
0.9801046 0.1273966 0.0076401
0.0271638 0.1440737 0.0376585
0.0380127 0.1463993 0.0422856
0.0463256 0.1453995 0.0433329
0.0556397 0.1381576 0.0370695
0.0750522 0.1359131 0.0352930
0.1017962 0.1350909 0.0346383
0.1335195 0.1314291 0.0296173
0.1710705 0.1276230 0.0225891
0.2120410 0.1267319 0.0167887
0.2583402 0.1275151 0.0107114
0.2958440 0.1307988 0.0070960
0.3317376 0.1359837 0.0050188
0.3689182 0.1419400 0.0039260
0.4077176 0.1479487 0.0031902
0.4403177 0.1523676 0.0026748
0.4688366 0.1555789 0.0024896
0.4924669 0.1585622 0.0026376
0.5217206 0.1643196 0.0027935
0.5658287 0.1744707 0.0029268
0.5948849 0.1754147 0.0031477
0.6165946 0.1663536 0.0033492
0.6372128 0.1572561 0.0037105
0.6700760 0.1567571 0.0040797
0.7102076 0.1596525 0.0042848
0.7433026 0.1596557 0.0043446
0.7733548 0.1582785 0.0044114
0.8015950 0.1581760 0.0045118
0.8276039 0.1583226 0.0046879
0.8541508 0.1582803 0.0050697
0.8814933 0.1580348 0.0056330
0.9137181 0.1575307 0.0063866
0.9506866 0.1569821 0.0071284
0.9801334 0.1566386 0.0075865
0.0288024 0.1718868 0.0362775
0.0405085 0.1680940 0.0411133
0.0466512 0.1591467 0.0398073
0.0499368 0.1497638 0.0323272
0.0654224 0.1528425 0.0339530
0.0900431 0.1581707 0.0383742
0.1217883 0.1567284 0.0376086
0.1625589 0.1511780 0.0317503
0.2034660 0.1516938 0.0275065
0.2515900 0.1507723 0.0197016
0.2939484 0.1492065 0.0124701
0.3352951 0.1530248 0.0080913
0.3735858 0.1607671 0.0066739
0.4127489 0.1657605 0.0050570
0.4536653 0.1702762 0.0036148
0.4931467 0.1757019 0.0029573
0.5245600 0.1791352 0.0027127
0.5526412 0.1833007 0.0025523
0.5830680 0.1907902 0.0025757
0.6085830 0.1960152 0.0028210
0.6328295 0.1973758 0.0032772
0.6545679 0.1953761 0.0042558
0.6867145 0.1971933 0.0049667
0.7156519 0.1970289 0.0052554
0.7420430 0.1910366 0.0053195
0.7731959 0.1835148 0.0053711
0.8046788 0.1801659 0.0054130
0.8334065 0.1798960 0.0054633
0.8593395 0.1803679 0.0056221
0.8856603 0.1813430 0.0059880
0.9173054 0.1829624 0.0065969
0.9531286 0.1846415 0.0072283
0.9813228 0.1857113 0.0076204
0.0236601 0.1967894 0.0275370
0.0366496 0.1861336 0.0292307
0.0448358 0.1699476 0.0264763
0.0478841 0.1605689 0.0241961
0.0574927 0.1653811 0.0290962
0.0794918 0.1774547 0.0391431
0.1094212 0.1844594 0.0451153
0.1531966 0.1844755 0.0445143
0.2017523 0.1882288 0.0418616
0.2419785 0.1865256 0.0355629
0.2885866 0.1763635 0.0235121
0.3380177 0.1737047 0.0139746
0.3737436 0.1826849 0.0119543
0.4080062 0.1872546 0.0090874
0.4535952 0.1884606 0.0056210
0.5100601 0.1946294 0.0037505
0.5636628 0.2026606 0.0031041
0.5831908 0.2007302 0.0025751
0.6034876 0.2035035 0.0023557
0.6328312 0.2109543 0.0024577
0.6531927 0.2155225 0.0030259
0.6705768 0.2174061 0.0041277
0.6989970 0.2216996 0.0048153
0.7186393 0.2228017 0.0052767
0.7407351 0.2205852 0.0058052
0.7743571 0.2166298 0.0061924
0.8078699 0.2113341 0.0063191
0.8373560 0.2079135 0.0063223
0.8641757 0.2073795 0.0063764
0.8917076 0.2086000 0.0065988
0.9231389 0.2109590 0.0070037
0.9568798 0.2135027 0.0074318
0.9830433 0.2151515 0.0076865
0.0168281 0.2276880 0.0181273
0.0329005 0.2142283 0.0178691
0.0472592 0.1970042 0.0179014
0.0541223 0.1850943 0.0200925
0.0585910 0.1829199 0.0252083
0.0703302 0.1924959 0.0350254
0.0938463 0.2077448 0.0468133
0.1325646 0.2183317 0.0525296
0.1854255 0.2185601 0.0507564
0.2300568 0.2175686 0.0496113
0.2809374 0.2138660 0.0408298
0.3310450 0.2054137 0.0266732
0.3670608 0.2106020 0.0225519
0.4041964 0.2186060 0.0206035
0.4515052 0.2164468 0.0146959
0.5204388 0.2145250 0.0069700
0.5970970 0.2240740 0.0039115
0.6101295 0.2203683 0.0031879
0.6265437 0.2216350 0.0028108
0.6595519 0.2284427 0.0026857
0.6831952 0.2330959 0.0031999
0.6980497 0.2341848 0.0039411
0.7112392 0.2344788 0.0044655
0.7247828 0.2379093 0.0050241
0.7520164 0.2463029 0.0058366
0.7869422 0.2528867 0.0066068
0.8151647 0.2501797 0.0069990
0.8412272 0.2434954 0.0070585
0.8687089 0.2411744 0.0071169
0.8974720 0.2411278 0.0072643
0.9287274 0.2422789 0.0074648
0.9606229 0.2441994 0.0076765
0.9850931 0.2455288 0.0078138
0.0122011 0.2636655 0.0118549
0.0317688 0.2528464 0.0125627
0.0524604 0.2376440 0.0149392
0.0650190 0.2229057 0.0191375
0.0702535 0.2129804 0.0247444
0.0740475 0.2115435 0.0314423
0.0852112 0.2224138 0.0418361
0.1087509 0.2385016 0.0518724
0.1478419 0.2443591 0.0544034
0.2047007 0.2466064 0.0565904
0.2667674 0.2505270 0.0541559
0.3151777 0.2443395 0.0410546
0.3560275 0.2467966 0.0364114
0.4010489 0.2609390 0.0387614
0.4500882 0.2610421 0.0326834
0.5140918 0.2390782 0.0140219
0.5855812 0.2392939 0.0059058
0.6059067 0.2425442 0.0056097
0.6416969 0.2493527 0.0050369
0.6881239 0.2543276 0.0038757
0.7194565 0.2579603 0.0036132
0.7367507 0.2588800 0.0039109
0.7389544 0.2544211 0.0044158
0.7515108 0.2589716 0.0049962
0.7822068 0.2736978 0.0057130
0.8051355 0.2825893 0.0064825
0.8230296 0.2834655 0.0070422
0.8456195 0.2807135 0.0073315
0.8722901 0.2791905 0.0075776
0.9004195 0.2769983 0.0077608
0.9317675 0.2760633 0.0078346
0.9633401 0.2766656 0.0079123
0.9871905 0.2771878 0.0079721
0.0102583 0.3020110 0.0098211
0.0325635 0.2951809 0.0117433
0.0583558 0.2837715 0.0158741
0.0768813 0.2690430 0.0212110
0.0860340 0.2531056 0.0254480
0.0898847 0.2422123 0.0303186
0.0932349 0.2429959 0.0389544
0.1025366 0.2564590 0.0504708
0.1226968 0.2705625 0.0581378
0.1672406 0.2793377 0.0614175
0.2338587 0.2838437 0.0604710
0.2897160 0.2784836 0.0481948
0.3403144 0.2698847 0.0384422
0.3822302 0.2694268 0.0366773
0.4329826 0.2802565 0.0349540
0.4843006 0.2638208 0.0182767
0.5233817 0.2565921 0.0100812
0.5403094 0.2552958 0.0095456
0.6084391 0.2653330 0.0079029
0.6887882 0.2742791 0.0052905
0.7313147 0.2791098 0.0042596
0.7574829 0.2818030 0.0042299
0.7780663 0.2828492 0.0046562
0.7960243 0.2866576 0.0051622
0.8106759 0.2945527 0.0056252
0.8204678 0.3019744 0.0062325
0.8329183 0.3072751 0.0068161
0.8526348 0.3109556 0.0072355
0.8763396 0.3123125 0.0076841
0.9022937 0.3107456 0.0079418
0.9327412 0.3099820 0.0080282
0.9643998 0.3098608 0.0080985
0.9885073 0.3096513 0.0081269
0.0098146 0.3389767 0.0098005
0.0338840 0.3355529 0.0127637
0.0633139 0.3283788 0.0182265
0.0868515 0.3160403 0.0232822
0.1009340 0.2980330 0.0242305
0.1097420 0.2836933 0.0286219
0.1136043 0.2785488 0.0392734
0.1163113 0.2829229 0.0523242
0.1251283 0.2970803 0.0645871
0.1461637 0.3122263 0.0703564
0.1830956 0.3216364 0.0689408
0.2409349 0.3203287 0.0582760
0.3274431 0.3026055 0.0434296
0.3784936 0.2963443 0.0374727
0.4122699 0.3038546 0.0336084
0.4460908 0.3021316 0.0227333
0.4711302 0.2919644 0.0160259
0.5008376 0.2707948 0.0119580
0.5694450 0.2724384 0.0093539
0.6458213 0.2822281 0.0069141
0.6882303 0.2888028 0.0057651
0.7265562 0.2948075 0.0054892
0.7800447 0.3022160 0.0055186
0.8119696 0.3057919 0.0056964
0.8232052 0.3084546 0.0058211
0.8331177 0.3143951 0.0062179
0.8452632 0.3230053 0.0067055
0.8596964 0.3312111 0.0070630
0.8792338 0.3370800 0.0076277
0.9035483 0.3397563 0.0079605
0.9330826 0.3411536 0.0080764
0.9644317 0.3415020 0.0081514
0.9885633 0.3415012 0.0082186
0.0094154 0.3729239 0.0095814
0.0335438 0.3708211 0.0117038
0.0641006 0.3661848 0.0156249
0.0912953 0.3576608 0.0190848
0.1125010 0.3447399 0.0205876
0.1292131 0.3336194 0.0279388
0.1376923 0.3263127 0.0417318
0.1394643 0.3235905 0.0573706
0.1402685 0.3280221 0.0685750
0.1469089 0.3421576 0.0762230
0.1631349 0.3550502 0.0773612
0.2133213 0.3566341 0.0693830
0.3107297 0.3462543 0.0561908
0.3767276 0.3435633 0.0473639
0.4147443 0.3391615 0.0372299
0.4450403 0.3370543 0.0276196
0.4693767 0.3289604 0.0211099
0.4941766 0.3005901 0.0154940
0.5223038 0.2823924 0.0118371
0.5598820 0.2836815 0.0097169
0.5915591 0.2911265 0.0087234
0.6404107 0.3010169 0.0080624
0.7231491 0.3119301 0.0070825
0.7702069 0.3178353 0.0066669
0.7980726 0.3217455 0.0064649
0.8335952 0.3263445 0.0065697
0.8523204 0.3349253 0.0068533
0.8641766 0.3467134 0.0072179
0.8809982 0.3575235 0.0077540
0.9038446 0.3651978 0.0080445
0.9327502 0.3698094 0.0081378
0.9640729 0.3717560 0.0081835
0.9883453 0.3724550 0.0082457
0.0088698 0.4052428 0.0089852
0.0326295 0.4039446 0.0099472
0.0633947 0.4012970 0.0118529
0.0932300 0.3968086 0.0141223
0.1208072 0.3904302 0.0180742
0.1447224 0.3839369 0.0293393
0.1586848 0.3768186 0.0459210
0.1620466 0.3723239 0.0624424
0.1593054 0.3698641 0.0723730
0.1603806 0.3759327 0.0803250
0.1729303 0.3879409 0.0840157
0.2100449 0.3998145 0.0817003
0.2837078 0.4113306 0.0784687
0.3660859 0.4232816 0.0711261
0.4341170 0.4070665 0.0526236
0.4728762 0.3864140 0.0373840
0.4991340 0.3779284 0.0288905
0.5131488 0.3577218 0.0235918
0.5170910 0.3209198 0.0167659
0.5348321 0.3022615 0.0117343
0.5584909 0.3016476 0.0103112
0.5941657 0.3097230 0.0098785
0.6415900 0.3187901 0.0089630
0.6770303 0.3280309 0.0082876
0.7226878 0.3363477 0.0075904
0.7913595 0.3413097 0.0071760
0.8348507 0.3515433 0.0073313
0.8627540 0.3658614 0.0078881
0.8821534 0.3791310 0.0082080
0.9034889 0.3901193 0.0082951
0.9319157 0.3978007 0.0083233
0.9637164 0.4019957 0.0083207
0.9884946 0.4036809 0.0083137
0.0085074 0.4370545 0.0085528
0.0320933 0.4364734 0.0089206
0.0630341 0.4353532 0.0097704
0.0943115 0.4333211 0.0115471
0.1245939 0.4294842 0.0160162
0.1514095 0.4238613 0.0260334
0.1698097 0.4186187 0.0415799
0.1769274 0.4187602 0.0605013
0.1745243 0.4171971 0.0766074
0.1763493 0.4176233 0.0857224
0.1950931 0.4269340 0.0877747
0.2344133 0.4495842 0.0902645
0.3015852 0.4723645 0.0947446
0.3786402 0.4905581 0.0910217
0.4457046 0.4821475 0.0725568
0.4863228 0.4409905 0.0473760
0.5142614 0.4113699 0.0327075
0.5276357 0.3974062 0.0285645
0.5350735 0.3744249 0.0224604
0.5506417 0.3423615 0.0136234
0.5689180 0.3276990 0.0104516
0.5951198 0.3281577 0.0100993
0.6201515 0.3305821 0.0096078
0.6453748 0.3377325 0.0090062
0.6758029 0.3470357 0.0082010
0.7233719 0.3579992 0.0077563
0.7852610 0.3744133 0.0077758
0.8483855 0.3898060 0.0082198
0.8800883 0.4032465 0.0084332
0.9025860 0.4156135 0.0085015
0.9315873 0.4255899 0.0086167
0.9640260 0.4322433 0.0087745
0.9889625 0.4350850 0.0087157
0.0083537 0.4685953 0.0083710
0.0318765 0.4683963 0.0085045
0.0628302 0.4679366 0.0089126
0.0943593 0.4667582 0.0101456
0.1253584 0.4643368 0.0135312
0.1537515 0.4605272 0.0211194
0.1752508 0.4550236 0.0345039
0.1860627 0.4502019 0.0528372
0.1889115 0.4463769 0.0710705
0.1979764 0.4505542 0.0830428
0.2191714 0.4642775 0.0876345
0.2458871 0.4801456 0.0923066
0.3031599 0.5011252 0.0969936
0.3888893 0.5268234 0.0978973
0.4494573 0.5314162 0.0874930
0.4819344 0.4952699 0.0624913
0.5119528 0.4425058 0.0366126
0.5300655 0.4214998 0.0281719
0.5445519 0.4131732 0.0232738
0.5652544 0.3918854 0.0146061
0.5879796 0.3737996 0.0104135
0.6132426 0.3621616 0.0096425
0.6329052 0.3527586 0.0095060
0.6528114 0.3527487 0.0092259
0.6729560 0.3631753 0.0085230
0.7034757 0.3808865 0.0081207
0.7619893 0.4031771 0.0081128
0.8372821 0.4209869 0.0084013
0.8774914 0.4333731 0.0087010
0.9034888 0.4449416 0.0090916
0.9336415 0.4555380 0.0096609
0.9657052 0.4631378 0.0099755
0.9897097 0.4662191 0.0096432
0.0083032 0.4999585 0.0083176
0.0317934 0.4998913 0.0083766
0.0626759 0.4996779 0.0085926
0.0941339 0.4990070 0.0093502
0.1253454 0.4973439 0.0115869
0.1548264 0.4939347 0.0169073
0.1793421 0.4875514 0.0267513
0.1965052 0.4795858 0.0409107
0.2099983 0.4757283 0.0578689
0.2265406 0.4809560 0.0737029
0.2423224 0.4886310 0.0822566
0.2560036 0.4963842 0.0893005
0.2920451 0.5127451 0.0966287
0.3600815 0.5343664 0.0994042
0.4276446 0.5478755 0.0937416
0.4660313 0.5285749 0.0724347
0.4970561 0.4827441 0.0438881
0.5222690 0.4622844 0.0313505
0.5465817 0.4588783 0.0246266
0.5751132 0.4533089 0.0175593
0.6067728 0.4358390 0.0121562
0.6329090 0.4114293 0.0097090
0.6517176 0.3901234 0.0093268
0.6664544 0.3822432 0.0092972
0.6858779 0.3932609 0.0089250
0.7175994 0.4162617 0.0085522
0.7685622 0.4410193 0.0086517
0.8350744 0.4598824 0.0092007
0.8781698 0.4704448 0.0100502
0.9080146 0.4791905 0.0110121
0.9378294 0.4871877 0.0117607
0.9672086 0.4927709 0.0113307
0.9897332 0.4956674 0.0104041
0.0082899 0.5312389 0.0083031
0.0317597 0.5312101 0.0083378
0.0625828 0.5310963 0.0084590
0.0939581 0.5306919 0.0088784
0.1252111 0.5294608 0.0101613
0.1554784 0.5265494 0.0132463
0.1831618 0.5213572 0.0191877
0.2078486 0.5154244 0.0289923
0.2307154 0.5119373 0.0432936
0.2510659 0.5109628 0.0595848
0.2661998 0.5110654 0.0726896
0.2732865 0.5135790 0.0822072
0.2911866 0.5240389 0.0939691
0.3301838 0.5377920 0.1009703
0.3765624 0.5479759 0.0956476
0.4230563 0.5471316 0.0802502
0.4646505 0.5326058 0.0618172
0.5025173 0.5239483 0.0480726
0.5413394 0.5180528 0.0353185
0.5782544 0.5156389 0.0267039
0.6144639 0.5002990 0.0188843
0.6452454 0.4692202 0.0116489
0.6662703 0.4431669 0.0092542
0.6824871 0.4332896 0.0090801
0.7046012 0.4424989 0.0089490
0.7375275 0.4633978 0.0088846
0.7825575 0.4852403 0.0095088
0.8382785 0.5018264 0.0110093
0.8821225 0.5092045 0.0126404
0.9129156 0.5126700 0.0133108
0.9403098 0.5165532 0.0130852
0.9676749 0.5210510 0.0118990
0.9895795 0.5245957 0.0106977
0.0082870 0.5624951 0.0082953
0.0317477 0.5624805 0.0083142
0.0625368 0.5624166 0.0083744
0.0938426 0.5621764 0.0085676
0.1250978 0.5614384 0.0091667
0.1559721 0.5596974 0.0106479
0.1861178 0.5567098 0.0138505
0.2154342 0.5528805 0.0199979
0.2431710 0.5483246 0.0299623
0.2674320 0.5430359 0.0432639
0.2828687 0.5384163 0.0571826
0.2855347 0.5370139 0.0712477
0.2847332 0.5400721 0.0889035
0.2955023 0.5447021 0.0992975
0.3271374 0.5520273 0.0966516
0.3837984 0.5604552 0.0868830
0.4458396 0.5641055 0.0754197
0.4923354 0.5676792 0.0642462
0.5345656 0.5684168 0.0518267
0.5765936 0.5697072 0.0426985
0.6132238 0.5584537 0.0308660
0.6477982 0.5300985 0.0168056
0.6751010 0.5063875 0.0101360
0.6978235 0.4979109 0.0088671
0.7238195 0.5037929 0.0087300
0.7566056 0.5176166 0.0088562
0.7981933 0.5316419 0.0098522
0.8467683 0.5409124 0.0118965
0.8848037 0.5433490 0.0132518
0.9136463 0.5438480 0.0134169
0.9404456 0.5462811 0.0127907
0.9677999 0.5508354 0.0116133
0.9898340 0.5548742 0.0106105
0.0082862 0.5937475 0.0082902
0.0317434 0.5937404 0.0082983
0.0625161 0.5937105 0.0083226
0.0937828 0.5935997 0.0083961
0.1250436 0.5932620 0.0086297
0.1562631 0.5924737 0.0092648
0.1874530 0.5909923 0.0108194
0.2184677 0.5884032 0.0141142
0.2485533 0.5841655 0.0200455
0.2750090 0.5784241 0.0292812
0.2923360 0.5721014 0.0424153
0.2966039 0.5659571 0.0603117
0.2936258 0.5604473 0.0797944
0.2994284 0.5597513 0.0928417
0.3249918 0.5667799 0.0967489
0.3750929 0.5766580 0.0913536
0.4449547 0.5869864 0.0829190
0.4910429 0.5936280 0.0728949
0.5327924 0.5989352 0.0610620
0.5762821 0.6032922 0.0514949
0.6113921 0.5992970 0.0386281
0.6459577 0.5854385 0.0235963
0.6793807 0.5687028 0.0131059
0.7086809 0.5608306 0.0092633
0.7379430 0.5630578 0.0086157
0.7708608 0.5699437 0.0088138
0.8092957 0.5759864 0.0097698
0.8498840 0.5781211 0.0112628
0.8830553 0.5775589 0.0120168
0.9117033 0.5774667 0.0120309
0.9396622 0.5795151 0.0116099
0.9679857 0.5835143 0.0109305
0.9904332 0.5870676 0.0104180
0.0082859 0.6249989 0.0082876
0.0317419 0.6249961 0.0082906
0.0625077 0.6249849 0.0082996
0.0937582 0.6249446 0.0083251
0.1250241 0.6248230 0.0084056
0.1563244 0.6245160 0.0086526
0.1877039 0.6238014 0.0093125
0.2191233 0.6222726 0.0108722
0.2499931 0.6195026 0.0141634
0.2781074 0.6150484 0.0206429
0.2994674 0.6081507 0.0324012
0.3114048 0.5986494 0.0488733
0.3190103 0.5894582 0.0658023
0.3312725 0.5853531 0.0798871
0.3506133 0.5872945 0.0877577
0.3911945 0.5962332 0.0872276
0.4499057 0.6086677 0.0828527
0.4905436 0.6156592 0.0739336
0.5336391 0.6219879 0.0620815
0.5787163 0.6273436 0.0523122
0.6131938 0.6278960 0.0399937
0.6465766 0.6250489 0.0267273
0.6813698 0.6189541 0.0164943
0.7141016 0.6132661 0.0107389
0.7455421 0.6125724 0.0089287
0.7782540 0.6145940 0.0089432
0.8131108 0.6157108 0.0095695
0.8478842 0.6149398 0.0101961
0.8795993 0.6139269 0.0104798
0.9094043 0.6138588 0.0105020
0.9388138 0.6152706 0.0104116
0.9682139 0.6179532 0.0103285
0.9910842 0.6202847 0.0103260
0.0082859 0.6562496 0.0082864
0.0317415 0.6562487 0.0082874
0.0625056 0.6562451 0.0082906
0.0937511 0.6562328 0.0082999
0.1250099 0.6561946 0.0083269
0.1562946 0.6560816 0.0084113
0.1876380 0.6557695 0.0086684
0.2190484 0.6550382 0.0094285
0.2502252 0.6534351 0.0114869
0.2799003 0.6499588 0.0162833
0.3055409 0.6435741 0.0252684
0.3259172 0.6345851 0.0371583
0.3437538 0.6253964 0.0488676
0.3619006 0.6186182 0.0604322
0.3844436 0.6170226 0.0697287
0.4197077 0.6223721 0.0739612
0.4619227 0.6304678 0.0732490
0.4967153 0.6368896 0.0667277
0.5383739 0.6443784 0.0566333
0.5818931 0.6508354 0.0474506
0.6163023 0.6540859 0.0368774
0.6493373 0.6558137 0.0262137
0.6831698 0.6557763 0.0178488
0.7161347 0.6539816 0.0122817
0.7483840 0.6527275 0.0096401
0.7805648 0.6522015 0.0090055
0.8127770 0.6515200 0.0091555
0.8450639 0.6506813 0.0093169
0.8767842 0.6502020 0.0093705
0.9076911 0.6502349 0.0094370
0.9382161 0.6509556 0.0096114
0.9683915 0.6522425 0.0099492
0.9915658 0.6533352 0.0103268
0.0082859 0.6874999 0.0082860
0.0317415 0.6874996 0.0082863
0.0625055 0.6874986 0.0082873
0.0937499 0.6874951 0.0082906
0.1250019 0.6874833 0.0083003
0.1562664 0.6874445 0.0083293
0.1875667 0.6873199 0.0084350
0.2189166 0.6869488 0.0088299
0.2501816 0.6858984 0.0100462
0.2806889 0.6833318 0.0129695
0.3090816 0.6785750 0.0183325
0.3348548 0.6720129 0.0252663
0.3599058 0.6650349 0.0322090
0.3857419 0.6588755 0.0406320
0.4130480 0.6553457 0.0495097
0.4426772 0.6554759 0.0550866
0.4766803 0.6590728 0.0562716
0.5102128 0.6644602 0.0534974
0.5471407 0.6713420 0.0469413
0.5854405 0.6777503 0.0386715
0.6199594 0.6825867 0.0307835
0.6524944 0.6856094 0.0233769
0.6846307 0.6868520 0.0168844
0.7168736 0.6870572 0.0123171
0.7491047 0.6867210 0.0098820
0.7809722 0.6859859 0.0089236
0.8123437 0.6852602 0.0087486
0.8437354 0.6848611 0.0087649
0.8753168 0.6847817 0.0087805
0.9067481 0.6848508 0.0088819
0.9378819 0.6850803 0.0091578
0.9684523 0.6854077 0.0095936
0.9917341 0.6856145 0.0099110
0.0082859 0.7187500 0.0082859
0.0317415 0.7187499 0.0082860
0.0625055 0.7187496 0.0082863
0.0937498 0.7187486 0.0082873
0.1250002 0.7187450 0.0082908
0.1562555 0.7187315 0.0083020
0.1875295 0.7186776 0.0083475
0.2188296 0.7184763 0.0085307
0.2500886 0.7178544 0.0090998
0.2810015 0.7163537 0.0104670
0.3109541 0.7135901 0.0129690
0.3398694 0.7097880 0.0162483
0.3693050 0.7055901 0.0200070
0.3996463 0.7009905 0.0256219
0.4288589 0.6966848 0.0321264
0.4583745 0.6946837 0.0368831
0.4901716 0.6956397 0.0389566
0.5225023 0.6986984 0.0388208
0.5537457 0.7028841 0.0351209
0.5870808 0.7081617 0.0289690
0.6222231 0.7132860 0.0237686
0.6544600 0.7160609 0.0190027
0.6856781 0.7173736 0.0145112
0.7175035 0.7181571 0.0113278
0.7494366 0.7184797 0.0096399
0.7810574 0.7183002 0.0088470
0.8123715 0.7178932 0.0085369
0.8435938 0.7176962 0.0084835
0.8749393 0.7177021 0.0085039
0.9063789 0.7177350 0.0086002
0.9376963 0.7177216 0.0088327
0.9683999 0.7176335 0.0091064
0.9917423 0.7175454 0.0092542
0.0082859 0.7500000 0.0082859
0.0317415 0.7500000 0.0082859
0.0625056 0.7499999 0.0082860
0.0937499 0.7499996 0.0082863
0.1250001 0.7499985 0.0082874
0.1562521 0.7499935 0.0082914
