looks/recipe_reala100.cube
TITLE "Fuji recipe Reala 100 (16 RAFs)"
LUT_3D_SIZE 9
0.0275795 0.0323448 0.0291127
0.1122114 0.0426277 0.0310128
0.1702684 0.0425819 0.0271248
0.3691624 0.0839878 0.0306477
0.5089169 0.1061727 0.0312207
0.6248591 0.1279280 0.0312010
0.7294689 0.0773824 0.0261589
0.8695786 0.0199954 0.0131782
0.9915367 0.0084662 0.0083635
0.0287547 0.0988493 0.0341322
0.1009726 0.1205694 0.0581880
0.2322467 0.1321047 0.0525345
0.3813054 0.1589725 0.0468073
0.5076178 0.1671804 0.0350258
0.6245258 0.1570169 0.0347267
0.7361895 0.1648584 0.0393336
0.8603294 0.1406979 0.0223744
0.9901246 0.1261019 0.0093443
0.0213457 0.2231297 0.0217307
0.0860344 0.1915874 0.0646318
0.1980686 0.2288678 0.0965615
0.3897789 0.2519607 0.0926120
0.5894102 0.2574500 0.0620031
0.6730518 0.2879018 0.0796168
0.7541670 0.2656015 0.0318753
0.8672434 0.2515582 0.0199061
0.9897869 0.2503791 0.0099232
0.0100604 0.3712418 0.0101078
0.1169958 0.3291290 0.0408377
0.1881253 0.3546249 0.1492899
0.3629910 0.3727771 0.1135255
0.5008973 0.3588305 0.1183754
0.6323028 0.3665853 0.0973764
0.7883360 0.3952616 0.0892940
0.8724000 0.3760232 0.0159577
0.9914147 0.3749932 0.0086531
0.0083369 0.4999189 0.0083398
0.1286847 0.4957820 0.0175138
0.2500101 0.4791043 0.1107985
0.3399743 0.5102393 0.1712087
0.4959231 0.4938986 0.0720544
0.6191944 0.4706859 0.0433471
0.7587337 0.4930697 0.0304387
0.8736870 0.5008457 0.0217522
0.9911102 0.5000855 0.0094128
0.0082866 0.6249987 0.0082878
0.1251289 0.6248259 0.0085282
0.2535678 0.6189340 0.0246021
0.3594456 0.5954491 0.1219683
0.4795474 0.6146647 0.0983074
0.6225374 0.6246173 0.0158860
0.7500342 0.6241344 0.0106733
0.8747845 0.6241372 0.0106398
0.9916012 0.6249270 0.0084993
0.0082859 0.7500000 0.0082859
0.1250037 0.7499967 0.0082910
0.2502935 0.7493799 0.0092559
0.3761814 0.7440550 0.0184570
0.4987596 0.7425895 0.0232537
0.6244888 0.7494232 0.0095274
0.7499870 0.7499770 0.0083465
0.8749159 0.7499419 0.0084712
0.9916853 0.7499887 0.0083231
0.0082859 0.8750000 0.0082859
0.1250000 0.8750000 0.0082859
0.2500008 0.8749977 0.0082881
0.3750297 0.8749336 0.0083606
0.4999994 0.8748437 0.0084637
0.6249945 0.8749875 0.0083003
0.7499952 0.8749803 0.0083179
0.8749142 0.8748873 0.0084695
0.9916854 0.8749775 0.0083226
0.0082859 0.9917141 0.0082859
0.1250000 0.9917141 0.0082859
0.2500000 0.9917141 0.0082859
0.3750000 0.9917141 0.0082859
0.5000000 0.9917140 0.0082860
0.6250000 0.9917141 0.0082859
0.7499998 0.9917131 0.0082870
0.8749971 0.9917082 0.0082922
0.9917131 0.9917129 0.0082872
0.0414181 0.0700791 0.1141841
0.1366086 0.0737640 0.1144460
0.2380247 0.0693707 0.1040012
0.3455033 0.0701653 0.0946231
0.5020902 0.0912025 0.0928646
0.6307449 0.1015382 0.0826557
0.7351747 0.0978011 0.1000754
0.8625413 0.0350025 0.1229021
0.9908481 0.0093042 0.1250245
0.0454160 0.1353053 0.1511705
0.1489861 0.1729741 0.1698381
0.2647822 0.1826144 0.1573269
0.3552797 0.1721443 0.1264487
0.4829285 0.1891953 0.1165989
0.6516843 0.2158987 0.1112798
0.7433559 0.2263998 0.1114545
0.8174616 0.2048818 0.1283836
0.9745185 0.1398277 0.1286676
0.0305204 0.2247190 0.1493183
0.1283436 0.2387237 0.1616384
0.2500567 0.2804429 0.2039460
0.4191884 0.2660855 0.1516462
0.5754792 0.2925601 0.1534950
0.6771792 0.2999950 0.1536026
0.7473457 0.2942905 0.1535357
0.8290787 0.2748791 0.1513500
0.9542233 0.2625273 0.1401723
0.0113780 0.3711134 0.1274387
0.1327169 0.3499374 0.1657656
0.2150210 0.3613810 0.2115153
0.3758400 0.3728087 0.2035895
0.5490917 0.3828889 0.1982475
0.7403661 0.4081680 0.1833948
0.7967017 0.4062348 0.1808704
0.8401832 0.3810027 0.1702179
0.9811765 0.3747233 0.1341050
0.0086387 0.4996389 0.1262749
0.1164587 0.4888180 0.1614125
0.2373148 0.4740037 0.2060850
0.3926044 0.5376156 0.2657800
0.5075719 0.5440378 0.2368064
0.6585452 0.4858166 0.2053929
0.7699278 0.4959212 0.2073407
0.8599127 0.5121739 0.2157342
0.9838002 0.5013198 0.1335334
0.0083150 0.6249131 0.1251272
0.1240532 0.6217726 0.1300991
0.2447329 0.6100253 0.1580218
0.3610303 0.5925916 0.2367292
0.5158030 0.6169926 0.2650255
0.6178949 0.6260051 0.1865028
0.7550259 0.6122812 0.1486290
0.8683977 0.6082005 0.1593568
0.9833875 0.6217015 0.1363424
0.0082861 0.7499991 0.1250009
0.1249928 0.7499329 0.1250745
0.2502070 0.7483217 0.1268199
0.3823991 0.7346371 0.1462335
0.5030072 0.7137709 0.1724786
0.6241230 0.7410576 0.1440215
0.7449914 0.7434114 0.1388539
0.8601965 0.7405117 0.1465220
0.9866479 0.7476931 0.1297006
0.0082859 0.8750000 0.1250000
0.1250000 0.8749998 0.1250001
0.2499993 0.8749877 0.1250128
0.3750858 0.8746326 0.1253137
0.5002209 0.8737413 0.1261113
0.6250041 0.8743334 0.1256976
0.7490190 0.8712661 0.1291118
0.8602322 0.8555973 0.1463957
0.9865802 0.8709736 0.1295313
0.0082859 0.9917141 0.1250000
0.1250000 0.9917141 0.1250000
0.2500000 0.9917141 0.1250000
0.3750000 0.9917136 0.1250004
0.4999985 0.9917095 0.1250046
0.6249998 0.9917104 0.1250029
0.7499719 0.9915382 0.1251273
0.8744677 0.9906500 0.1257886
0.9911206 0.9910015 0.1256403
0.0601436 0.0865906 0.2593862
0.1399842 0.0874150 0.2404102
0.2617734 0.0617966 0.2358666
0.3791284 0.0500616 0.2373676
0.5103070 0.0422816 0.2503185
0.6264843 0.0241171 0.2430912
0.7510453 0.0273226 0.2451394
0.8728300 0.0154176 0.2483387
0.9913496 0.0087949 0.2498408
0.0733414 0.1686890 0.2570081
0.1647141 0.1847417 0.2521738
0.2913712 0.2044611 0.2508733
0.4039163 0.2110077 0.2401117
0.5475157 0.2294225 0.2351514
0.6520969 0.2207811 0.2202993
0.7795932 0.2526729 0.2341388
0.8495758 0.1843879 0.2292270
0.9727330 0.1445336 0.2450814
0.0551244 0.2416016 0.2785137
0.1357829 0.2762020 0.3008689
0.3194273 0.3402193 0.3396960
0.4538275 0.3480048 0.3229081
0.5440797 0.3151376 0.2689918
0.7127688 0.3404384 0.2723795
0.7828695 0.3372157 0.2549590
0.8277452 0.3254319 0.2412963
0.9144226 0.3081884 0.2615908
0.0185856 0.3704852 0.2608036
0.1369432 0.3584977 0.3032319
0.2260245 0.3743746 0.2895067
0.4608908 0.4712045 0.3768704
0.6134379 0.4316793 0.2939290
0.7470844 0.4469374 0.2815315
0.7835907 0.4228889 0.2835296
0.8421921 0.3934309 0.2681798
0.9161953 0.3927695 0.2971900
0.0093567 0.4990515 0.2524261
0.0913322 0.4745350 0.3195002
0.1226213 0.4751256 0.3655905
0.3728783 0.5280373 0.3449449
0.5668668 0.5397968 0.3323418
0.7053493 0.5439276 0.3234407
0.8062105 0.5373257 0.3151078
0.8541746 0.5240346 0.2916529
0.9604309 0.5085461 0.2725121
0.0084559 0.6245146 0.2504427
0.1176071 0.6074020 0.2725523
0.1718828 0.5633146 0.3456091
0.2313806 0.5812518 0.3965550
0.5331315 0.6236715 0.3430219
0.6479079 0.6177980 0.3500753
0.7347832 0.6002283 0.3241181
0.8385039 0.5826786 0.3079029
0.8870227 0.5907618 0.3219306
0.0082891 0.7499878 0.2500094
0.1248454 0.7491181 0.2507040
0.2444664 0.7400502 0.2597430
0.3327082 0.7094460 0.3040583
0.4243868 0.6820915 0.3728512
0.6328012 0.7019199 0.3139512
0.6798295 0.6584522 0.3561889
0.7663165 0.6810815 0.3352716
0.9423639 0.7177595 0.2861096
0.0082859 0.8750000 0.2500000
0.1249999 0.8749979 0.2500012
0.2499577 0.8748489 0.2501095
0.3745492 0.8731666 0.2517054
0.4907271 0.8582646 0.2673936
0.6202764 0.8656452 0.2581288
0.7369242 0.8316550 0.2779225
0.7817971 0.7527434 0.3272016
0.8892923 0.7955458 0.3166668
0.0082859 0.9917141 0.2500000
0.1250000 0.9917141 0.2500000
0.2500000 0.9917140 0.2500001
0.3749999 0.9917033 0.2500073
0.4999470 0.9915639 0.2501012
0.6249592 0.9915801 0.2501062
0.7497004 0.9901384 0.2507804
0.8646035 0.9705128 0.2615634
0.9719595 0.9679952 0.2630146
0.0169528 0.0275028 0.3664181
0.1427521 0.0466973 0.3651879
0.2487018 0.0396635 0.3700279
0.4016702 0.0498618 0.3745016
0.5291798 0.0808371 0.3651285
0.6384745 0.0481641 0.3767785
0.7511333 0.0152686 0.3742418
0.8747433 0.0095880 0.3745263
0.9916938 0.0083206 0.3749817
0.0771070 0.1973281 0.3573941
0.1862499 0.2205006 0.3800268
0.2797324 0.2276267 0.3799856
0.4791005 0.2616002 0.3844570
0.6291545 0.2855340 0.3716351
0.7015994 0.2677253 0.3804863
0.7900603 0.2410240 0.3577182
0.8709507 0.1455168 0.3698495
0.9896195 0.1282505 0.3738221
0.0891766 0.2770219 0.4062765
0.1655243 0.2912004 0.4032431
0.3108714 0.3301819 0.4088055
0.4577260 0.3675104 0.4251295
0.5848216 0.3660135 0.3986434
0.6780622 0.3602263 0.3667656
0.8164760 0.3810728 0.3821707
0.8718269 0.3355294 0.3653365
0.9598872 0.2922917 0.3689394
0.0469536 0.3691448 0.4099331
0.1492324 0.3758017 0.4360535
0.2811212 0.4439915 0.4870224
0.4923545 0.4971320 0.4998855
0.6175761 0.4781523 0.4470147
0.7170517 0.4660097 0.4193248
0.8051691 0.4706855 0.4187668
0.8731496 0.4526721 0.4107734
0.9123815 0.4398042 0.3982389
0.0114773 0.4983600 0.3787553
0.1031131 0.4786229 0.4030792
0.1745899 0.4812757 0.4388118
0.4399173 0.5352989 0.3999549
0.5838065 0.5665830 0.4767902
0.7006383 0.5479328 0.4334240
0.8026723 0.5536230 0.4047093
0.8331184 0.5362430 0.4253329
0.9372051 0.5062789 0.4056521
0.0084862 0.6245821 0.3752066
0.1168556 0.6060821 0.3890418
0.1718890 0.5757418 0.4183481
0.3192910 0.6094192 0.4747765
0.5409007 0.6333939 0.4412305
0.6254100 0.6168087 0.4434978
0.6953056 0.5760032 0.4150524
0.8160469 0.6108232 0.4233471
0.8496946 0.6098717 0.4178346
0.0082908 0.7499838 0.3750060
0.1247587 0.7488563 0.3754218
0.2460216 0.7438288 0.3774489
0.3649616 0.7266276 0.4048263
0.4201619 0.6747651 0.4897797
0.6009476 0.6755782 0.4585449
0.6616886 0.6543386 0.4534751
0.7424674 0.6692972 0.4562836
0.8586100 0.6556208 0.4174845
0.0082859 0.8750000 0.3750000
0.1249998 0.8749983 0.3750004
0.2499836 0.8749367 0.3750193
0.3751488 0.8728862 0.3764173
0.4910955 0.8469622 0.3942905
0.5924440 0.8083858 0.4329405
0.7188038 0.8090655 0.4055574
0.7613147 0.7332776 0.4246081
0.8871127 0.7926509 0.4011098
0.0082859 0.9917141 0.3750000
0.1250000 0.9917141 0.3750000
0.2500000 0.9917141 0.3750000
0.3750020 0.9916966 0.3750075
0.5000310 0.9910996 0.3753337
0.6240369 0.9881017 0.3770372
0.7486730 0.9871230 0.3771879
0.8637431 0.9690471 0.3794765
0.9719497 0.9679592 0.3796676
0.0098996 0.0117455 0.4991654
0.1269338 0.0144398 0.4984547
0.2511097 0.0143846 0.4980019
0.3821552 0.0215332 0.4970992
0.5090197 0.0265842 0.4939389
0.6313031 0.0253660 0.4948404
0.7504785 0.0130827 0.4988358
0.8749896 0.0086129 0.4999727
0.9917135 0.0082879 0.4999999
0.0479548 0.1874566 0.4950331
0.1682402 0.2007263 0.4816337
0.2692392 0.2003790 0.4711731
0.4399541 0.2315827 0.4869082
0.5721886 0.2396794 0.4721816
0.6931928 0.2403950 0.4605683
0.7836675 0.2224808 0.4981392
0.8752343 0.1414457 0.5010543
0.9915975 0.1253643 0.4999983
0.1171176 0.3332399 0.5335044
0.2081387 0.3309960 0.5167882
0.3111209 0.3367332 0.4947258
0.5031531 0.3952745 0.5383577
0.6253996 0.4000686 0.5120289
0.7689415 0.4175512 0.5125161
0.8511159 0.4242518 0.5121209
0.8829099 0.3396201 0.5168029
0.9867884 0.2611825 0.4978616
0.1044257 0.3997519 0.5477688
0.1835482 0.4328884 0.5748434
0.3072192 0.4431598 0.5665231
0.4863712 0.4866393 0.5589586
0.6199347 0.5141166 0.5645328
0.7303103 0.5016358 0.5356473
0.8222723 0.4974363 0.5228330
0.8674133 0.4622974 0.5076956
0.9376566 0.4352005 0.4897284
0.0318426 0.4971752 0.5218388
0.1506192 0.5001951 0.5660231
0.3043156 0.5068825 0.5473260
0.4534100 0.5678558 0.6025245
0.6266801 0.6094997 0.6071229
0.7057577 0.5800465 0.5442340
0.7687908 0.5637664 0.5159652
0.8238307 0.5323905 0.5053366
0.8941822 0.5169668 0.5024219
0.0089802 0.6245534 0.5007167
0.1263978 0.6217102 0.5037734
0.2567187 0.6194312 0.5211207
0.3929925 0.6140083 0.5883039
0.5955371 0.6384507 0.5016321
0.6650239 0.6392429 0.5613616
0.7259917 0.6132259 0.5319895
0.8054779 0.6230319 0.4973104
0.8346295 0.6288490 0.5147539
0.0082874 0.7499980 0.5000013
0.1250019 0.7499080 0.5000114
0.2507506 0.7491441 0.5009078
0.3873016 0.7375285 0.5060019
0.4927188 0.6894379 0.5420593
0.5987021 0.6742631 0.5648217
0.7090808 0.6734115 0.5279332
0.7654940 0.6651421 0.5200421
0.8163958 0.6617783 0.5152301
0.0082859 0.8750000 0.5000000
0.1250001 0.8749998 0.5000000
0.2500093 0.8749911 0.5000045
0.3754097 0.8738227 0.5003332
0.5005355 0.8532733 0.5081766
0.5985807 0.7776197 0.5380622
0.6649009 0.7307087 0.5694864
0.7855377 0.7676865 0.5245349
0.8637564 0.7407768 0.5268161
0.0082859 0.9917141 0.5000000
0.1250000 0.9917141 0.5000000
0.2500000 0.9917141 0.5000000
0.3750024 0.9917035 0.5000019
0.5000637 0.9910854 0.5001248
0.6239000 0.9801348 0.5030558
0.7354070 0.9481654 0.5144557
0.8592131 0.9670119 0.5090966
0.9666313 0.9503917 0.5051436
0.0083849 0.0085349 0.6249290
0.1251091 0.0086216 0.6248226
0.2500489 0.0086183 0.6247973
0.3751605 0.0086920 0.6248249
0.5001784 0.0087206 0.6247815
0.6251798 0.0087361 0.6247543
0.7501790 0.0089438 0.6248411
0.8749999 0.0083962 0.6249742
0.9917139 0.0082868 0.6249999
0.0198544 0.1462323 0.6209738
0.1335682 0.1438310 0.6173767
0.2552641 0.1435742 0.6188568
0.3825664 0.1405601 0.6205666
0.5077223 0.1403445 0.6189162
0.6358142 0.1428456 0.6186887
0.7631190 0.1592029 0.6142687
0.8752537 0.1327492 0.6232378
0.9916417 0.1252439 0.6249592
0.0964694 0.3469072 0.6130438
0.1820796 0.3209613 0.5900028
0.2963794 0.3299514 0.5995773
0.4426995 0.3473985 0.6081589
0.5780814 0.3599615 0.6144475
0.7055223 0.3699065 0.6048971
0.8168559 0.3928300 0.5972906
0.8754235 0.3321245 0.6094706
0.9883168 0.2564461 0.6243414
0.1383116 0.4632508 0.6763216
0.2364149 0.4736994 0.6702309
0.3362757 0.4576719 0.6324944
0.4712824 0.4813094 0.6248941
0.6424482 0.5153388 0.6466767
0.7053679 0.5318473 0.6135327
0.8030964 0.5261219 0.6019973
0.8517674 0.4906362 0.6048947
0.9726003 0.3962047 0.6221996
0.0954647 0.5197339 0.6836149
0.1968148 0.5323264 0.6885602
0.3402772 0.5597057 0.6772425
0.4485112 0.5575615 0.6610397
0.6172708 0.5967247 0.6547064
0.6869207 0.5862514 0.6257328
0.7536838 0.5873482 0.6153362
0.8139942 0.5544283 0.5900249
0.9171303 0.5250430 0.5925625
0.0158182 0.6224496 0.6299595
0.1469301 0.6193547 0.6465244
0.2949799 0.6160830 0.6745657
0.4080123 0.6219589 0.6799884
0.5533255 0.6266704 0.6385983
0.6760604 0.6542549 0.6553051
0.7275072 0.6323320 0.6066879
0.7833068 0.6156216 0.5685271
0.8496576 0.6399640 0.5895979
0.0083527 0.7499549 0.6250453
0.1259609 0.7495040 0.6253828
0.2788973 0.7417082 0.6267093
0.3996434 0.7269456 0.6346548
0.5795473 0.7113217 0.5918148
0.6261778 0.6803508 0.6309984
0.6999173 0.6757395 0.6317245
0.7429735 0.6698118 0.6199905
0.8029248 0.6692246 0.5723171
0.0082859 0.8749999 0.6250000
0.1250237 0.8749899 0.6250015
0.2514589 0.8742166 0.6251273
0.3774900 0.8730575 0.6253079
0.5053365 0.8628753 0.6265470
0.6206089 0.7853360 0.6353712
0.6746985 0.7143053 0.6383029
0.7312067 0.7236640 0.6304315
0.8090176 0.6945297 0.5745759
0.0082859 0.9917141 0.6250000
0.1250001 0.9917140 0.6250000
0.2500077 0.9917076 0.6250006
0.3750136 0.9916976 0.6250019
0.5001454 0.9912714 0.6250618
0.6254209 0.9809012 0.6259060
0.7323607 0.9204218 0.6279964
0.7919188 0.8577777 0.6341643
0.8533199 0.7656325 0.5632944
0.0082883 0.0082940 0.7499971
0.1250015 0.0082910 0.7499970
0.2500009 0.0082908 0.7499977
0.3750005 0.0082875 0.7499992
0.5000005 0.0082875 0.7499990
0.6250016 0.0082890 0.7499984
0.7500023 0.0082943 0.7499958
0.8750000 0.0082873 0.7499993
0.9917141 0.0082859 0.7500000
0.0092060 0.1272398 0.7489273
0.1252770 0.1257364 0.7494528
0.2501841 0.1256077 0.7495950
0.3751338 0.1253818 0.7498204
0.5001685 0.1253637 0.7498516
0.6252167 0.1254467 0.7498085
0.7503300 0.1260809 0.7495194
0.8749720 0.1254824 0.7498176
0.9916980 0.1250424 0.7499859
0.0327592 0.2812942 0.7319069
0.1387041 0.2719330 0.7412175
0.2609574 0.2705279 0.7418436
0.3804020 0.2659016 0.7408139
0.5084020 0.2648451 0.7449932
0.6315956 0.2661558 0.7427314
0.7571198 0.2822352 0.7347724
0.8713587 0.2791431 0.7362569
0.9889386 0.2550725 0.7478853
0.1056486 0.4545028 0.7343901
0.1961443 0.4472204 0.7315202
0.3047998 0.4462145 0.7229331
0.4171327 0.4334693 0.7143735
0.5299468 0.4374455 0.7252553
0.6793556 0.4693321 0.7030736
0.7726934 0.5111589 0.6786850
0.8402846 0.4979995 0.6808532
0.9522110 0.4231834 0.7287021
0.1580385 0.5649892 0.7803382
0.2501891 0.5819681 0.7749606
0.3526675 0.5692275 0.7384139
0.4626079 0.5498559 0.6871844
0.5532129 0.5559942 0.6787986
0.6754692 0.5872511 0.6906572
0.7519979 0.6003981 0.6718218
0.8027703 0.5972949 0.6600478
0.8780823 0.5679862 0.6913165
0.0596946 0.6196463 0.7627569
0.1893457 0.6186700 0.7673599
0.3779199 0.6261820 0.7358828
0.4697416 0.6252749 0.7188580
0.5829332 0.6475988 0.7116765
0.6763365 0.6612286 0.7009826
0.7175380 0.6427518 0.6739233
0.7726538 0.6336788 0.6593093
0.8314876 0.6271549 0.6658385
0.0093510 0.7494155 0.7502087
0.1285506 0.7476740 0.7505295
0.3687223 0.7186679 0.7261003
0.5626088 0.6755985 0.6997849
0.5419681 0.6777661 0.7132446
0.6513633 0.6811270 0.6802934
0.7158653 0.6989412 0.7050143
0.7366799 0.6646096 0.6473802
0.7984408 0.6733884 0.6283101
0.0082872 0.8749989 0.7500002
0.1252956 0.8748724 0.7499530
0.2684913 0.8648332 0.7461982
0.4069172 0.8504356 0.7408851
0.5167111 0.8286788 0.7404722
0.6185856 0.7723396 0.7186329
0.6930730 0.7223313 0.6871175
0.6800025 0.6596204 0.6344650
0.7757148 0.6955542 0.6369916
0.0082859 0.9917141 0.7500000
0.1250017 0.9917130 0.7499997
0.2501074 0.9916243 0.7499779
0.3751822 0.9914908 0.7499500
0.5005805 0.9897868 0.7497011
0.6251042 0.9813458 0.7476996
0.7368687 0.9267878 0.7322046
0.7658368 0.8125387 0.7018417
0.8050155 0.7171910 0.6021556
0.0082859 0.0082859 0.8750000
0.1250000 0.0082859 0.8750000
0.2500000 0.0082859 0.8750000
0.3750000 0.0082859 0.8750000
0.5000000 0.0082859 0.8750000
0.6250000 0.0082859 0.8750000
0.7500000 0.0082859 0.8750000
0.8750000 0.0082859 0.8750000
0.9917141 0.0082859 0.8750000
0.0082950 0.1250200 0.8749848
0.1250019 0.1250059 0.8749961
0.2500017 0.1250048 0.8749971
0.3750005 0.1250034 0.8749973
0.5000005 0.1250014 0.8749993
0.6250011 0.1250026 0.8749985
0.7500011 0.1250071 0.8749955
0.8749994 0.1250065 0.8749959
0.9917136 0.1250011 0.8749993
0.0087978 0.2507649 0.8744433
0.1253057 0.2506232 0.8746207
0.2502328 0.2505682 0.8745797
0.3750812 0.2502426 0.8747624
0.5000499 0.2501661 0.8748924
0.6252797 0.2506795 0.8745623
0.7501675 0.2514002 0.8740869
0.8746070 0.2519792 0.8737956
0.9913925 0.2506086 0.8746585
0.0282810 0.3974988 0.8649457
0.1413369 0.3973900 0.8658297
0.2547579 0.3822384 0.8698606
0.3800853 0.3839761 0.8651384
0.5011428 0.3791076 0.8701392
0.6295964 0.3844366 0.8666975
0.7551997 0.4030885 0.8492902
0.8613336 0.4192440 0.8352001
0.9666742 0.4071070 0.8489633
0.1257719 0.5586923 0.8362708
0.2409307 0.5714372 0.8213470
0.3070139 0.5455106 0.8306666
0.4036810 0.5231200 0.8265421
0.5214141 0.5244049 0.8310627
0.6570794 0.5527878 0.8042775
0.7535183 0.5641930 0.7866947
0.8212748 0.5820038 0.7539445
0.8901645 0.5688671 0.7748152
0.1010767 0.6231381 0.8487690
0.2714872 0.6262113 0.8132759
0.3693526 0.6379043 0.7994143
0.4922104 0.6372426 0.7492509
0.5632288 0.6274838 0.7265998
0.6543393 0.6453305 0.7494657
0.7304820 0.6468775 0.7385718
0.7830895 0.6467780 0.7209284
0.8366659 0.6432360 0.7413091
0.0140766 0.7477409 0.8734856
0.1551110 0.7367476 0.8645716
0.3015776 0.7265311 0.8463324
0.4543468 0.6898215 0.7870989
0.5446799 0.6681698 0.7438429
0.6325350 0.6776034 0.7259927
0.7095774 0.6988734 0.7228937
0.7477582 0.6839638 0.7055604
0.7765778 0.6885248 0.7145798
0.0083115 0.8749845 0.8749940
0.1255081 0.8746051 0.8748350
0.2576994 0.8707087 0.8712427
0.3883860 0.8610274 0.8643112
0.5121530 0.8395250 0.8482673
0.6286768 0.7506782 0.7740782
0.6840078 0.7103457 0.7291050
0.7392210 0.7312149 0.7387894
0.7674157 0.6982910 0.6684483
0.0082859 0.9917141 0.8750000
0.1250009 0.9917133 0.8749997
0.2500447 0.9916767 0.8749782
0.3750852 0.9915935 0.8749362
0.5004293 0.9905172 0.8743925
0.6259701 0.9707943 0.8641691
0.7274312 0.8876441 0.8180078
0.7453600 0.7679264 0.7406653
0.7699922 0.7299337 0.6943318
0.0082859 0.0082859 0.9917141
0.1250000 0.0082859 0.9917141
0.2500000 0.0082859 0.9917141
0.3750000 0.0082859 0.9917141
0.5000000 0.0082859 0.9917141
0.6250000 0.0082859 0.9917141
0.7500000 0.0082859 0.9917141
0.8750000 0.0082859 0.9917141
0.9917141 0.0082859 0.9917141
0.0082859 0.1250000 0.9917141
0.1250000 0.1250000 0.9917141
0.2500000 0.1250000 0.9917141
0.3750000 0.1250000 0.9917141
0.5000000 0.1250000 0.9917141
0.6250000 0.1250000 0.9917141
0.7500000 0.1250000 0.9917141
0.8750000 0.1250000 0.9917141
0.9917141 0.1250000 0.9917141
0.0082894 0.2500064 0.9917099
0.1250029 0.2500062 0.9917102
0.2500003 0.2500013 0.9917131
0.3750004 0.2500011 0.9917129
0.5000000 0.2500002 0.9917138
0.6250008 0.2500020 0.9917122
0.7500023 0.2500172 0.9916979
0.8749942 0.2500285 0.9916874
0.9917034 0.2500205 0.9916962
0.0095773 0.3761560 0.9907814
0.1258254 0.3760933 0.9908001
0.2501295 0.3752362 0.9914788
0.3750593 0.3751154 0.9915291
0.5000255 0.3750499 0.9916466
0.6250833 0.3752401 0.9914274
0.7500708 0.3754412 0.9911072
0.8744888 0.3766046 0.9896939
0.9903354 0.3767834 0.9894971
0.0514288 0.5184593 0.9628030
0.1563097 0.5206981 0.9600284
0.2579385 0.5086193 0.9787795
0.3790467 0.5035881 0.9840426
0.5020161 0.5030915 0.9837744
0.6258649 0.5021567 0.9866197
0.7500709 0.5051010 0.9807639
0.8688600 0.5093015 0.9714684
0.9769490 0.5101667 0.9696018
0.0622884 0.6264491 0.9577438
0.2986048 0.6405772 0.8479840
0.3513387 0.6393346 0.8636161
0.4254608 0.6376280 0.9021127
0.5184963 0.6311322 0.9215698
0.6260148 0.6301146 0.9525678
0.7448054 0.6312125 0.9504358
0.8419628 0.6378431 0.9081358
0.9310811 0.6368141 0.9146926
0.0172890 0.7475120 0.9867951
0.2175234 0.7199303 0.9267324
0.3452561 0.7016723 0.8832937
0.4332400 0.7169020 0.8947737
0.5698415 0.6873727 0.7861981
0.6689107 0.7181891 0.7978897
0.7236977 0.7196450 0.8233370
0.7869818 0.7049841 0.8057616
0.8108629 0.6990024 0.7718952
0.0084214 0.8749292 0.9916473
0.1277740 0.8729453 0.9897725
0.2528624 0.8716921 0.9884601
0.3817726 0.8676393 0.9823591
0.5277599 0.8263248 0.9254199
0.6675294 0.7834074 0.8460629
0.7165022 0.7376181 0.7685668
0.7415283 0.7278844 0.7393679
0.7639743 0.7095132 0.7269878
0.0082860 0.9917140 0.9917141
0.1250027 0.9917110 0.9917122
0.2500030 0.9917089 0.9917108
0.3750574 0.9916279 0.9916428
0.5005471 0.9904051 0.9905872
0.6278552 0.9592590 0.9629790
0.6952446 0.7805341 0.8039445
0.7227343 0.7377176 0.7555616
0.7537768 0.7521452 0.7604085
