looks/sony_st.cube
TITLE "Sony Creative Look ST (32 pairs)"
LUT_3D_SIZE 5
0.0328471 0.0419899 0.0356661
0.2791483 0.0323446 0.0507495
0.5315139 0.0374770 0.0596538
0.7436143 0.0130580 0.0122384
0.9917000 0.0083077 0.0083162
0.0302950 0.3271544 0.0339782
0.2649401 0.2626929 0.0308474
0.5306175 0.2702075 0.0474015
0.7284952 0.2586368 0.0507638
0.9910151 0.2501096 0.0094807
0.0194594 0.5227348 0.0315725
0.2885454 0.4937313 0.0133966
0.5309367 0.4847869 0.0349834
0.7302909 0.5138628 0.0352155
0.9884965 0.5026203 0.0082675
0.0097245 0.7491041 0.0110831
0.2501054 0.7499406 0.0085080
0.5008054 0.7438132 0.0153422
0.7352851 0.7017828 0.0278347
0.9806140 0.7439405 0.0158054
0.0082860 0.9917139 0.0082861
0.2500000 0.9917141 0.0082859
0.5000008 0.9917111 0.0082874
0.7499784 0.9916220 0.0083906
0.9896230 0.9880232 0.0155231
0.0366819 0.1159262 0.3362893
0.3164054 0.0788353 0.2498551
0.5630587 0.0303565 0.3166474
0.7448137 0.0190467 0.2543765
0.9893382 0.0119741 0.2514213
0.0978165 0.3528777 0.3217619
0.3006245 0.3076044 0.3104202
0.5335740 0.2964719 0.3050483
0.6730874 0.3275365 0.3495631
0.8878410 0.3214281 0.3775698
0.1119271 0.5979754 0.3359275
0.3149219 0.5540206 0.3037372
0.5297837 0.5559496 0.3053654
0.7827660 0.5767213 0.3400154
0.9781233 0.5407497 0.2971824
0.1448899 0.6960606 0.3112117
0.3566652 0.7408105 0.3274261
0.5439855 0.7154371 0.3132856
0.7186909 0.7377642 0.3330539
0.8361672 0.6881047 0.2844010
0.0190911 0.9853317 0.2569225
0.2509249 0.9906324 0.2510293
0.5008310 0.9900080 0.2517102
0.7376817 0.9154765 0.2580173
0.8766431 0.8496580 0.3420313
0.0289750 0.0923655 0.5137578
0.2531162 0.0150399 0.5025023
0.5009125 0.0135674 0.4966701
0.7501842 0.0086426 0.5002261
0.9917123 0.0083195 0.5000224
0.0402626 0.3380820 0.5330015
0.4176572 0.4237301 0.6707985
0.5280583 0.3017662 0.4541357
0.7649062 0.3093960 0.5611528
0.9658237 0.3515820 0.6553748
0.2206038 0.6260995 0.6664395
0.3382004 0.5609010 0.5647045
0.5532886 0.5604674 0.5646013
0.7718867 0.6406027 0.6612452
0.9673204 0.5676863 0.6036081
0.0299042 0.7490972 0.5063208
0.3931960 0.7450894 0.5452793
0.5477124 0.7859601 0.5522882
0.7255921 0.7470514 0.5901234
0.8984811 0.7758943 0.6343144
0.0706214 0.9549642 0.5048537
0.2990852 0.9546835 0.5153913
0.5586903 0.9173546 0.5504139
0.7358952 0.9140556 0.5230057
0.8619941 0.8559546 0.5513658
0.0101336 0.0118068 0.7493367
0.2500116 0.0083949 0.7499878
0.5000001 0.0082861 0.7500000
0.7500000 0.0082859 0.7500000
0.9917141 0.0082859 0.7500000
0.1378614 0.4417962 0.7567580
0.3694465 0.4231864 0.8458219
0.5083757 0.2692976 0.7512941
0.7499977 0.2501336 0.7499866
0.9916911 0.2502626 0.7500957
0.2295183 0.5413294 0.6660885
0.3404549 0.5685146 0.7816070
0.5946292 0.6185701 0.7630049
0.7420757 0.5803291 0.7468948
0.9821783 0.5242945 0.7588748
0.1327398 0.7923047 0.8079972
0.4511419 0.8489538 0.8813520
0.5945121 0.8053877 0.8229502
0.7369806 0.7424116 0.7484401
0.8814983 0.8275607 0.8364570
0.0083451 0.9917064 0.7500249
0.3012976 0.9557147 0.7428847
0.6076771 0.8744105 0.7075702
0.7133565 0.8682402 0.6921444
0.9145951 0.8910748 0.7675725
0.0082865 0.0082871 0.9917141
0.2500000 0.0082860 0.9917141
0.5000000 0.0082859 0.9917141
0.7500000 0.0082859 0.9917141
0.9917141 0.0082859 0.9917141
0.0208408 0.2644952 0.9920717
0.2645273 0.2760997 0.9916381
0.5001712 0.2505533 0.9917222
0.7500005 0.2500028 0.9917137
0.9917141 0.2500000 0.9917141
0.0910195 0.5851970 0.9544544
0.5587735 0.8041137 0.9904006
0.5982684 0.6597994 0.9823346
0.7820303 0.5938996 0.9717548
0.9914473 0.5015861 0.9916184
0.3498484 0.9653544 0.9911910
0.4570198 0.8124415 0.9247687
0.6153486 0.7886701 0.9215702
0.7383503 0.7576170 0.8347102
0.9499062 0.8579607 0.9548097
0.0107457 0.9917999 0.9917455
0.3476510 0.9610348 0.9837844
0.6344226 0.8826249 0.9306780
0.7972142 0.9523200 0.9693224
0.9072275 0.9206368 0.9255493
