looks/sony_st.cube
TITLE "Sony Creative Look ST (32 pairs)"
LUT_3D_SIZE 9
0.0328471 0.0419899 0.0356661
0.1563834 0.0434519 0.0524192
0.2791483 0.0323446 0.0507495
0.4159517 0.0320549 0.0538922
0.5315139 0.0374770 0.0596538
0.6223192 0.0468951 0.0555728
0.7436143 0.0130580 0.0122384
0.8748724 0.0084522 0.0084809
0.9917000 0.0083077 0.0083162
0.0287041 0.1731340 0.0288281
0.1425341 0.1516802 0.0321969
0.2896286 0.1545441 0.0432494
0.4557028 0.1537167 0.0391469
0.5606148 0.1543133 0.0488661
0.6358361 0.1491619 0.0578058
0.7305968 0.1503141 0.0314045
0.8729565 0.1264546 0.0106879
0.9912659 0.1253405 0.0091941
0.0302950 0.3271544 0.0339782
0.1442608 0.2656918 0.0173393
0.2649401 0.2626929 0.0308474
0.4127886 0.2730113 0.0385262
0.5306175 0.2702075 0.0474015
0.6283268 0.2513285 0.0641034
0.7284952 0.2586368 0.0507638
0.8710507 0.2509358 0.0135592
0.9910151 0.2501096 0.0094807
0.0275682 0.4492441 0.0472102
0.1323201 0.3605587 0.0248105
0.2939602 0.3831920 0.0180421
0.3804867 0.3727131 0.0387088
0.5321765 0.3828568 0.0401913
0.6321799 0.3688881 0.0562476
0.7138408 0.3682265 0.0548097
0.8678633 0.3785027 0.0108332
0.9915212 0.3752277 0.0083270
0.0194594 0.5227348 0.0315725
0.1337393 0.4962171 0.0251490
0.2885454 0.4937313 0.0133966
0.4054467 0.5121964 0.0230475
0.5309367 0.4847869 0.0349834
0.6368715 0.5073065 0.0325353
0.7302909 0.5138628 0.0352155
0.8613113 0.5439398 0.0065992
0.9884965 0.5026203 0.0082675
0.0282498 0.6480470 0.0471047
0.1231506 0.6286348 0.0151679
0.2523415 0.6237124 0.0099081
0.3796249 0.6204578 0.0137098
0.5054947 0.6150213 0.0259437
0.6497373 0.5857181 0.0193715
0.7150061 0.5882435 0.0306103
0.8550425 0.6233703 0.0082493
0.9840811 0.6249635 0.0086198
0.0097245 0.7491041 0.0110831
0.1248474 0.7498483 0.0087617
0.2501054 0.7499406 0.0085080
0.3754874 0.7495295 0.0088511
0.5008054 0.7438132 0.0153422
0.6300204 0.7339866 0.0147056
0.7352851 0.7017828 0.0278347
0.8447500 0.7227047 0.0335962
0.9806140 0.7439405 0.0158054
0.0082943 0.8749889 0.0082985
0.1250047 0.8749933 0.0082965
0.2500013 0.8749990 0.0082886
0.3750065 0.8749889 0.0082931
0.5001348 0.8746755 0.0085518
0.6246985 0.8731456 0.0099462
0.7494735 0.8722790 0.0091891
0.8730031 0.8719498 0.0122156
0.9890230 0.8727655 0.0127522
0.0082860 0.9917139 0.0082861
0.1250001 0.9917139 0.0082860
0.2500000 0.9917141 0.0082859
0.3750000 0.9917141 0.0082859
0.5000008 0.9917111 0.0082874
0.6249990 0.9916893 0.0083035
0.7499784 0.9916220 0.0083906
0.8749353 0.9910796 0.0094994
0.9896230 0.9880232 0.0155231
0.0291567 0.0727552 0.1804522
0.1832706 0.0578824 0.1433981
0.2957298 0.0459839 0.1599858
0.4248463 0.0295410 0.1992775
0.5301639 0.0405669 0.1898399
0.6211302 0.0611107 0.1392108
0.7440985 0.0211468 0.1325905
0.8726703 0.0119579 0.1278175
0.9907254 0.0098206 0.1263590
0.0591883 0.1935591 0.1804419
0.1751973 0.1849059 0.1853983
0.2943410 0.1869187 0.1830975
0.4085132 0.1663993 0.1787298
0.5392622 0.1555806 0.1880504
0.6303456 0.1659448 0.1831766
0.7227210 0.1994807 0.2318214
0.8446838 0.1606570 0.1735698
0.9627906 0.1472070 0.1646231
0.0790018 0.3291976 0.1808257
0.1678815 0.2969287 0.1594251
0.2863351 0.2950467 0.1663075
0.4446268 0.3237289 0.1873807
0.5348589 0.2874165 0.1830149
0.6428065 0.2772335 0.1734550
0.7244340 0.2741995 0.1652075
0.8207170 0.2744247 0.2283657
0.9600570 0.2539248 0.1694897
0.1057542 0.4406181 0.1812200
0.1800255 0.4162057 0.1710899
0.3061752 0.4093422 0.1329359
0.4137788 0.4396013 0.1800080
0.5349410 0.4387514 0.1832492
0.6491219 0.3894463 0.1716358
0.7277308 0.3734253 0.1668306
0.8605105 0.3792464 0.1392712
0.9863674 0.3760509 0.1335128
0.0867267 0.5822256 0.1637516
0.2186249 0.5063704 0.2074555
0.3095216 0.4948379 0.2025765
0.4131604 0.5102468 0.1390679
0.5327869 0.5460894 0.1775086
0.6210302 0.5051238 0.1609667
0.7034739 0.5018979 0.1690105
0.8290504 0.5451645 0.1747379
0.9711712 0.5172189 0.1405469
0.0859077 0.6574647 0.1631379
0.1616835 0.6217170 0.1777946
0.2903568 0.6268576 0.1834446
0.3951291 0.6058554 0.1793759
0.4928539 0.5937840 0.1525097
0.6212704 0.5986832 0.1545743
0.7070932 0.5959948 0.1370926
0.7921512 0.6291192 0.1854011
0.9302245 0.6256657 0.1663101
0.0324294 0.7376836 0.1428921
0.1324132 0.7461038 0.1341302
0.2586881 0.7476692 0.1373534
0.3836589 0.7459888 0.1375665
0.5072402 0.7172732 0.1368334
0.6000171 0.7010462 0.1592639
0.7221808 0.6881410 0.1414350
0.7561264 0.6561655 0.2255351
0.6599378 0.5296514 0.1416365
0.0123400 0.8719165 0.1286350
0.1272649 0.8722500 0.1282457
0.2505461 0.8746033 0.1257798
0.3757843 0.8745466 0.1260747
0.5017714 0.8710936 0.1262306
0.6219957 0.8459026 0.1383238
0.7262943 0.8391457 0.1562372
0.8370398 0.8183236 0.1946916
0.9137199 0.8102661 0.2136664
0.0083460 0.9916474 0.1250539
0.1250342 0.9916545 0.1250484
0.2500090 0.9917065 0.1250111
0.3750133 0.9916995 0.1250225
0.5000199 0.9916627 0.1250251
0.6251488 0.9903648 0.1257129
0.7478304 0.9785300 0.1337144
0.8614180 0.9635610 0.1549402
0.9308490 0.8842877 0.2768555
0.0366819 0.1159262 0.3362893
0.1775839 0.0736553 0.2521607
0.3164054 0.0788353 0.2498551
0.4333837 0.0686528 0.2631419
0.5630587 0.0303565 0.3166474
0.6229658 0.0334247 0.2833743
0.7448137 0.0190467 0.2543765
0.8727289 0.0120124 0.2512457
0.9893382 0.0119741 0.2514213
0.0839027 0.2134966 0.3068805
0.2018805 0.2117323 0.3465920
0.3194764 0.1960152 0.3000577
0.4214815 0.1640000 0.2902723
0.5480760 0.1471461 0.3224843
0.7154283 0.1978526 0.3993531
0.6767151 0.1835325 0.2893133
0.8441955 0.1622248 0.2757675
0.9225570 0.1781537 0.2913864
0.0978165 0.3528777 0.3217619
0.1892444 0.3263374 0.3375672
0.3006245 0.3076044 0.3104202
0.4119336 0.3133503 0.3123334
0.5335740 0.2964719 0.3050483
0.6210259 0.2846852 0.2964754
0.6730874 0.3275365 0.3495631
0.7520292 0.3160800 0.3505979
0.8878410 0.3214281 0.3775698
0.1256766 0.4490436 0.3222112
0.2114983 0.4370509 0.3117979
0.3110913 0.4433539 0.3049157
0.4194907 0.4253867 0.2990680
0.5522082 0.4489837 0.3272393
0.6639188 0.4594548 0.3362918
0.8182124 0.4651760 0.3390868
0.7801516 0.4560476 0.3975607
0.9223331 0.4116201 0.3556552
0.1119271 0.5979754 0.3359275
0.2352545 0.5447254 0.3139624
0.3149219 0.5540206 0.3037372
0.4359081 0.5433305 0.2834130
0.5297837 0.5559496 0.3053654
0.6552882 0.5700093 0.3446849
0.7827660 0.5767213 0.3400154
0.8825311 0.5760437 0.3651578
0.9781233 0.5407497 0.2971824
0.1747483 0.6147485 0.3012482
0.2608497 0.6324639 0.3308277
0.3729874 0.6624346 0.3299537
0.4643500 0.6398623 0.3338724
0.5121910 0.6076623 0.2930478
0.6545498 0.6847910 0.3536734
0.7287111 0.6602961 0.3432377
0.8256315 0.6874425 0.4025711
0.8744110 0.6551623 0.3256732
0.1448899 0.6960606 0.3112117
0.2208520 0.7031352 0.3189110
0.3566652 0.7408105 0.3274261
0.4651753 0.7509964 0.3253721
0.5439855 0.7154371 0.3132856
0.5923918 0.6770344 0.2804947
0.7186909 0.7377642 0.3330539
0.7910225 0.7147673 0.3534274
0.8361672 0.6881047 0.2844010
0.0648975 0.8321691 0.2789530
0.1650431 0.8353866 0.2826934
0.2733294 0.8623766 0.2723342
0.4059607 0.8622433 0.2816227
0.5204884 0.8633490 0.2795998
0.6282946 0.8211502 0.2618512
0.6866491 0.7657408 0.2821655
0.7587433 0.7722369 0.3079144
0.9068826 0.7516779 0.2360124
0.0190911 0.9853317 0.2569225
0.1321265 0.9858522 0.2562520
0.2509249 0.9906324 0.2510293
0.3759758 0.9905990 0.2510809
0.5008310 0.9900080 0.2517102
0.6262490 0.9849559 0.2511773
0.7376817 0.9154765 0.2580173
0.7700818 0.8367059 0.2990401
0.8766431 0.8496580 0.3420313
0.0198386 0.1503268 0.4736003
0.1514704 0.0634229 0.3827910
0.2711292 0.0424533 0.3584003
0.3965000 0.0597657 0.3457280
0.5231769 0.0422750 0.3660281
0.6239552 0.0161914 0.3746737
0.7504053 0.0103839 0.3762946
0.8750901 0.0091675 0.3756977
0.9915435 0.0085543 0.3749743
0.0555091 0.2232933 0.4457251
0.2403706 0.2603776 0.5595564
0.3611006 0.2467199 0.4694004
0.4289799 0.2002766 0.3553557
0.5350887 0.1838106 0.3760815
0.6332424 0.1683722 0.4056085
0.7901764 0.1935016 0.4625014
0.8819264 0.1657812 0.4255918
0.9845009 0.1357532 0.3787110
0.1308261 0.3256200 0.3891703
0.1813163 0.3044626 0.4355095
0.3221178 0.3360067 0.4376009
0.4302150 0.3205655 0.3972552
0.5447773 0.2837090 0.4086768
0.6605120 0.3173112 0.4829974
0.8356025 0.3571830 0.5993692
0.8699876 0.3576380 0.5762818
0.9517743 0.3269916 0.4551708
0.1676853 0.4781000 0.4646798
0.2273835 0.4577062 0.4418245
0.3124468 0.4473554 0.4573506
0.4261574 0.4378022 0.4445227
0.5423980 0.4623511 0.4656625
0.6570556 0.4534895 0.4736999
0.7336947 0.4300175 0.4550084
0.7734051 0.4618917 0.5010380
0.9187196 0.4527272 0.4912879
0.1303089 0.5761640 0.4411324
0.2593357 0.5691160 0.4449122
0.3397583 0.5479821 0.4244721
0.4323631 0.5605130 0.4390965
0.5523254 0.5622173 0.4562157
0.6651528 0.5714540 0.4668090
0.7529132 0.6270465 0.5237315
0.8959234 0.6355177 0.5096216
0.8290828 0.6030537 0.5506102
0.1357385 0.6573050 0.4478081
0.2767380 0.6718684 0.4574259
0.3491913 0.6358157 0.4189316
0.4453872 0.6911037 0.4425112
0.5290308 0.6370030 0.4367441
0.6447312 0.6685109 0.4715842
0.7777024 0.6956850 0.4683563
0.8552018 0.7172592 0.5040265
0.9390424 0.7061074 0.4928026
0.0823746 0.7317535 0.3990016
0.3069569 0.6972994 0.4322570
0.3807977 0.7351104 0.4372403
0.4991366 0.7632136 0.4786207
0.5694023 0.7378805 0.4333717
0.6164161 0.7025280 0.4142697
0.7017680 0.7239951 0.4428145
0.8124264 0.7517356 0.4981166
0.8869418 0.7765806 0.5420377
0.1436280 0.8299826 0.4225077
0.3129219 0.7713271 0.4543784
0.3599132 0.8276660 0.4335612
0.4569542 0.8382157 0.4281220
0.5687087 0.8316455 0.4230326
0.6517823 0.8100609 0.4188294
0.6916589 0.7659911 0.4102800
0.7423911 0.7559518 0.3866453
0.8417449 0.7384768 0.3816832
0.1581023 0.9033898 0.4288430
0.2221909 0.9128328 0.4230272
0.2617981 0.9806970 0.3819369
0.3834540 0.9832485 0.3823344
0.5148483 0.9707481 0.3896434
0.6279470 0.9793637 0.3836402
0.7382347 0.9155608 0.3848134
0.7607895 0.8210000 0.4106503
0.8618278 0.8237990 0.4456999
0.0289750 0.0923655 0.5137578
0.1331774 0.0380474 0.5208110
0.2531162 0.0150399 0.5025023
0.3771924 0.0132755 0.4964563
0.5009125 0.0135674 0.4966701
0.6246630 0.0091849 0.4994624
0.7501842 0.0086426 0.5002261
0.8750708 0.0086293 0.5002251
0.9917123 0.0083195 0.5000224
0.0783651 0.2851891 0.5842168
0.2163409 0.2838506 0.6898917
0.3495844 0.2595121 0.5886529
0.3972588 0.1693717 0.5009331
0.5111590 0.1603749 0.4733998
0.6222174 0.1402935 0.4941656
0.7630336 0.1422407 0.5161737
0.8803286 0.1422601 0.5169222
0.9911355 0.1351874 0.5093640
0.0402626 0.3380820 0.5330015
0.2085086 0.3469725 0.5986055
0.4176572 0.4237301 0.6707985
0.4827574 0.4066110 0.5909093
0.5280583 0.3017662 0.4541357
0.6099977 0.2785504 0.4816033
0.7649062 0.3093960 0.5611528
0.9122662 0.3417137 0.6318126
0.9658237 0.3515820 0.6553748
0.1295391 0.4545219 0.5209187
0.1859798 0.4502609 0.5534403
0.3149464 0.4414343 0.5813553
0.4408128 0.4599807 0.5439799
0.5319953 0.4282197 0.4965312
0.6541467 0.4355472 0.5383360
0.7795379 0.4943967 0.6429057
0.8520207 0.4808260 0.6800053
0.9422019 0.4622116 0.7158150
0.2206038 0.6260995 0.6664395
0.2802398 0.6369720 0.6412143
0.3382004 0.5609010 0.5647045
0.4359138 0.5555546 0.5729011
0.5532886 0.5604674 0.5646013
0.6444673 0.5822011 0.5859486
0.7718867 0.6406027 0.6612452
0.8478244 0.5950751 0.6581099
0.9673204 0.5676863 0.6036081
0.1102313 0.6562212 0.5468218
0.2690066 0.6615344 0.5509018
0.3783199 0.6544895 0.5480340
0.4641317 0.6545166 0.5394552
0.5457550 0.6694748 0.5860861
0.6549712 0.6727227 0.5939674
0.7564505 0.6728083 0.5845553
0.8128232 0.6917475 0.6145030
0.9261789 0.6913980 0.6005583
0.0299042 0.7490972 0.5063208
0.2337957 0.7414252 0.5146363
0.3931960 0.7450894 0.5452793
0.4377142 0.7062270 0.4983317
0.5477124 0.7859601 0.5522882
0.6087663 0.7257497 0.5470070
0.7255921 0.7470514 0.5901234
0.8337794 0.7639369 0.5907391
0.8984811 0.7758943 0.6343144
0.0638919 0.8574045 0.5043297
0.2175284 0.8195329 0.5023976
0.4056575 0.8271489 0.5310409
0.4708960 0.8013985 0.5231150
0.5752033 0.8107266 0.5264709
0.6430388 0.8006976 0.5316663
0.7148983 0.7930789 0.5479577
0.7519626 0.7612816 0.4909899
0.9072252 0.8396996 0.5713757
0.0706214 0.9549642 0.5048537
0.1664588 0.9588926 0.5045929
0.2990852 0.9546835 0.5153913
0.4627798 0.9296926 0.5428122
0.5586903 0.9173546 0.5504139
0.6624483 0.8889950 0.5402813
0.7358952 0.9140556 0.5230057
0.7623575 0.8204952 0.5345050
0.8619941 0.8559546 0.5513658
0.0135457 0.0258119 0.6262981
0.1274886 0.0207716 0.6253730
0.2504074 0.0094071 0.6252644
0.3750325 0.0084037 0.6250005
0.5000110 0.0083530 0.6249403
0.6249973 0.0083002 0.6249890
0.7500023 0.0082902 0.6250014
0.8750010 0.0082904 0.6250015
0.9917140 0.0082883 0.6250010
0.0923598 0.2861784 0.5983770
0.1802345 0.2527642 0.6664981
0.2780711 0.1739986 0.6458174
0.3795533 0.1379193 0.6287352
0.5009452 0.1279489 0.6241401
0.6247560 0.1258720 0.6240712
0.7501540 0.1252197 0.6250910
0.8751994 0.1256548 0.6253584
0.9915837 0.1258660 0.6254752
0.1219101 0.4039607 0.6037023
0.2929581 0.4603897 0.8461384
0.4451329 0.4687286 0.7676021
0.4449818 0.3721378 0.6683176
0.5524547 0.3538873 0.6595197
0.6214014 0.2662808 0.6103324
0.7511675 0.2566290 0.6269128
0.8764105 0.2583417 0.6311044
0.9883060 0.2709088 0.6450292
0.0514130 0.4563382 0.6366515
0.1797662 0.4481193 0.6334587
0.3399501 0.4619420 0.6726614
0.5165349 0.5335346 0.7085742
0.5971714 0.5349985 0.6852105
0.6147031 0.4133897 0.5745000
0.7642868 0.4424395 0.6494889
0.8746001 0.4444548 0.6771923
0.9737200 0.4364126 0.6926554
0.2184837 0.6514403 0.7356226
0.2692796 0.5904672 0.6586756
0.3451197 0.5900948 0.7320274
0.4442424 0.5660486 0.7011261
0.5442064 0.5616586 0.6278686
0.6285560 0.5315793 0.6013951
0.7125970 0.5227361 0.6147724
0.8687355 0.6227697 0.7458933
0.9144427 0.5958201 0.7428811
0.2600420 0.7815704 0.8261130
0.3187675 0.7758260 0.8056203
0.3901121 0.7617540 0.7698797
0.4767322 0.6991246 0.7041372
0.5593978 0.6646722 0.6876187
0.6522868 0.6561353 0.6591269
0.7350258 0.6885607 0.6932374
0.8261171 0.7418065 0.7548340
0.8989858 0.7158591 0.7505333
0.0761609 0.7724489 0.6780590
0.2085550 0.7624633 0.6543623
0.3967449 0.7574032 0.6377072
0.4795319 0.7368267 0.6346622
0.5489893 0.7402478 0.6252860
0.6450132 0.7443278 0.6703449
0.7406988 0.7565784 0.6963485
0.8285301 0.7699391 0.7001117
0.8673309 0.7634022 0.7033168
0.0100473 0.8747783 0.6255317
0.1730765 0.8625123 0.6316280
0.4177013 0.8331683 0.6764392
0.4889080 0.8116712 0.6352051
0.5212548 0.7630284 0.5821177
0.6460422 0.8466383 0.6471021
0.7487853 0.8319675 0.6686518
0.7628418 0.7697477 0.6390802
0.8966687 0.8320519 0.7101062
0.0090659 0.9912549 0.6248424
0.1322649 0.9878296 0.6258466
0.3171565 0.9381433 0.6369199
0.4762698 0.8672651 0.6121196
0.5751204 0.8732708 0.6212834
0.6547069 0.8673261 0.6195087
0.7480130 0.9039371 0.6463724
0.7897388 0.8555233 0.6426538
0.9138725 0.8852022 0.6744522
0.0101336 0.0118068 0.7493367
0.1258421 0.0114269 0.7494094
0.2500116 0.0083949 0.7499878
0.3750013 0.0082910 0.7500005
0.5000001 0.0082861 0.7500000
0.6250000 0.0082859 0.7500000
0.7500000 0.0082859 0.7500000
0.8750000 0.0082859 0.7500000
0.9917141 0.0082859 0.7500000
0.0620067 0.2009512 0.7320906
0.1502473 0.1932950 0.7348400
0.2549168 0.1356609 0.7534842
0.3758017 0.1273334 0.7509543
0.5000914 0.1252878 0.7499998
0.6250036 0.1250471 0.7499984
0.7499999 0.1250004 0.7499997
0.8750004 0.1250016 0.7500002
0.9917136 0.1250053 0.7500011
0.1378614 0.4417962 0.7567580
0.2982332 0.5098412 0.9344928
0.3694465 0.4231864 0.8458219
0.4123615 0.3245412 0.7861208
0.5083757 0.2692976 0.7512941
0.6256694 0.2541877 0.7502161
0.7499977 0.2501336 0.7499866
0.8750107 0.2500978 0.7500161
0.9916911 0.2502626 0.7500957
0.1436073 0.4924634 0.6832086
0.2678578 0.5208468 0.7921137
0.4635432 0.6032193 0.8966426
0.5576767 0.6145577 0.9045805
0.5710068 0.4960792 0.7915537
0.6537189 0.4622297 0.7673066
0.7496557 0.3845033 0.7502443
0.8747873 0.3794401 0.7505000
0.9897340 0.3795103 0.7509029
0.2295183 0.5413294 0.6660885
0.2628107 0.5767843 0.7328115
0.3404549 0.5685146 0.7816070
0.4582228 0.5677075 0.7638847
0.5946292 0.6185701 0.7630049
0.6872888 0.6414847 0.7807037
0.7420757 0.5803291 0.7468948
0.8799245 0.5896572 0.7713553
0.9821783 0.5242945 0.7588748
0.2596537 0.7366741 0.8221560
0.3463511 0.7887673 0.8685266
0.3903058 0.7514208 0.8373500
0.4750223 0.6667864 0.7709958
0.5572517 0.6651000 0.7802926
0.6190564 0.6378034 0.6898888
0.7058129 0.6491691 0.7016304
0.8555313 0.7219416 0.7890943
0.9112377 0.6706527 0.7644970
0.1327398 0.7923047 0.8079972
0.3742697 0.8663772 0.9019647
0.4511419 0.8489538 0.8813520
0.5217931 0.8456134 0.8662398
0.5945121 0.8053877 0.8229502
0.6718153 0.7660806 0.7829522
0.7369806 0.7424116 0.7484401
0.7992721 0.7610489 0.7618493
0.8814983 0.8275607 0.8364570
0.0173160 0.8758880 0.7541991
0.1685814 0.8803455 0.7738925
0.3696526 0.8570652 0.7484354
0.4957803 0.8344930 0.7232233
0.5399841 0.7938854 0.6915037
0.6498216 0.8362104 0.7177802
0.7617273 0.8426878 0.7754491
0.8116089 0.8201010 0.7680039
0.8770505 0.8172464 0.7575797
0.0083451 0.9917064 0.7500249
0.1280250 0.9902914 0.7496148
0.3012976 0.9557147 0.7428847
0.4480986 0.9329854 0.7192271
0.6076771 0.8744105 0.7075702
0.6059346 0.8371693 0.6555312
0.7133565 0.8682402 0.6921444
0.8595043 0.9191172 0.7952621
0.9145951 0.8910748 0.7675725
0.0083421 0.0083933 0.8749540
0.1250272 0.0083845 0.8749610
0.2500004 0.0082900 0.8749994
0.3750001 0.0082861 0.8750001
0.5000000 0.0082859 0.8750000
0.6250000 0.0082859 0.8750000
0.7500000 0.0082859 0.8750000
0.8750000 0.0082859 0.8750000
0.9917141 0.0082859 0.8750000
0.0154613 0.1364951 0.8773552
0.1310764 0.1388920 0.8785044
0.2507585 0.1269829 0.8753827
0.3750906 0.1252606 0.8750283
0.5000054 0.1250240 0.8750049
0.6250001 0.1250004 0.8749999
0.7500000 0.1250000 0.8750000
0.8750000 0.1250000 0.8750000
0.9917141 0.1250000 0.8750000
0.1084029 0.3729692 0.9119533
0.2449197 0.4435785 0.9366565
0.2954123 0.3273170 0.8905279
0.3883786 0.2758034 0.8811176
0.5010656 0.2536922 0.8759568
0.6250620 0.2502627 0.8749654
0.7499999 0.2500203 0.8749976
0.8750000 0.2500006 0.8749999
0.9917141 0.2500002 0.8749999
0.1251682 0.4884411 0.8088732
0.3679953 0.6556423 0.9703916
0.4947697 0.6692650 0.9740898
0.5311605 0.5929074 0.9496427
0.5175908 0.4156710 0.8832138
0.6306618 0.3914847 0.8720723
0.7509594 0.3806143 0.8750584
0.8750067 0.3754738 0.8749701
0.9917039 0.3750502 0.8749987
0.1878975 0.6017714 0.7680154
0.2787727 0.5806893 0.8326032
0.4049559 0.6284083 0.8730676
0.5693973 0.6987429 0.9272055
0.5598493 0.5859493 0.8118886
0.6863575 0.6221172 0.8576144
0.7875572 0.6239476 0.8903382
0.8753391 0.5193121 0.8762313
0.9902744 0.5071963 0.8754591
0.2822661 0.6231167 0.7470502
0.3185324 0.6559084 0.7972791
0.3842490 0.6954945 0.8359804
0.4433425 0.6499100 0.8289306
0.5692937 0.6936665 0.8596306
0.6918961 0.7099307 0.8357649
0.6725399 0.6476030 0.7336816
0.8798783 0.7584903 0.9188037
0.9662584 0.7043011 0.8814928
0.0993652 0.7685377 0.8733407
0.3697492 0.8591976 0.9313333
0.4432814 0.8182228 0.8855329
0.5187218 0.8187654 0.9046925
0.5942531 0.7695420 0.8480405
0.6856945 0.7860029 0.8857979
0.6927595 0.7089186 0.7505679
0.8085099 0.7624363 0.7934293
0.9458373 0.8693960 0.9090283
0.0316520 0.8821276 0.8812792
0.2238905 0.8936679 0.9018321
0.4277368 0.9103161 0.9301288
0.5506425 0.9096962 0.9205055
0.6321402 0.9060242 0.9213823
0.6831997 0.8796097 0.8948480
0.7710325 0.8562589 0.8704615
0.8107761 0.8149126 0.8203964
0.8957056 0.8701093 0.8756745
0.0087111 0.9917237 0.8751073
0.1322061 0.9917964 0.8770128
0.2707467 0.9841530 0.8768124
0.4583210 0.9568358 0.8547779
0.6174070 0.9150991 0.7999430
0.6543462 0.8655210 0.7773224
0.7093170 0.8788333 0.7717221
0.7906032 0.8535015 0.7880429
0.8922247 0.8722511 0.8191982
0.0082865 0.0082871 0.9917141
0.1250005 0.0082873 0.9917141
0.2500000 0.0082860 0.9917141
0.3750000 0.0082859 0.9917141
0.5000000 0.0082859 0.9917141
0.6250000 0.0082859 0.9917141
0.7500000 0.0082859 0.9917141
0.8750000 0.0082859 0.9917141
0.9917141 0.0082859 0.9917141
0.0085347 0.1253996 0.9917110
0.1254351 0.1259083 0.9917364
0.2500697 0.1251888 0.9917149
0.3750041 0.1250141 0.9917142
0.5000002 0.1250006 0.9917141
0.6250000 0.1250000 0.9917141
0.7500000 0.1250000 0.9917141
0.8750000 0.1250000 0.9917141
0.9917141 0.1250000 0.9917141
0.0208408 0.2644952 0.9920717
0.1686805 0.3194149 0.9933733
0.2645273 0.2760997 0.9916381
0.3775376 0.2550478 0.9917620
0.5001712 0.2505533 0.9917222
0.6250007 0.2500039 0.9917136
0.7500005 0.2500028 0.9917137
0.8750000 0.2500002 0.9917141
0.9917141 0.2500000 0.9917141
0.0757584 0.4344043 0.9925876
0.3854500 0.6849689 0.9984864
0.4359956 0.6279111 0.9935815
0.4665969 0.5104954 0.9936490
0.5100004 0.3990606 0.9919603
0.6254431 0.3762537 0.9913072
0.7505838 0.3774441 0.9912422
0.8749971 0.3752752 0.9916710
0.9917134 0.3750042 0.9917138
0.0910195 0.5851970 0.9544544
0.3378490 0.6877987 0.9661197
0.5587735 0.8041137 0.9904006
0.6424514 0.7817977 0.9948096
0.5982684 0.6597994 0.9823346
0.6403313 0.5296271 0.9766423
0.7820303 0.5938996 0.9717548
0.8758280 0.5205493 0.9886273
0.9914473 0.5015861 0.9916184
0.2378856 0.7210376 0.8614545
0.3150835 0.7178781 0.9034894
0.4377785 0.7469472 0.9480170
0.5585948 0.7660620 0.9516889
0.6923591 0.8183045 0.9603832
0.6777861 0.7008042 0.9369911
0.8294073 0.7864773 0.9381831
0.9010777 0.7910146 0.9720411
0.9814213 0.6878795 0.9899806
0.3498484 0.9653544 0.9911910
0.4351874 0.8766273 0.9220439
0.4570198 0.8124415 0.9247687
0.5196258 0.7513477 0.8835833
0.6153486 0.7886701 0.9215702
0.7072777 0.8026110 0.8984060
0.7383503 0.7576170 0.8347102
0.8583113 0.8263319 0.9095449
0.9499062 0.8579607 0.9548097
0.1363739 0.9180571 0.9929201
0.3359435 0.9388306 0.9933755
0.4693056 0.8668103 0.9267818
0.5460641 0.8382332 0.9323223
0.5949165 0.8266295 0.9029723
0.7177989 0.8732243 0.9578154
0.7873423 0.8583944 0.9172646
0.7639508 0.7718716 0.7979591
0.9096985 0.8705110 0.9020465
0.0107457 0.9917999 0.9917455
0.1668203 0.9926511 0.9924122
0.3476510 0.9610348 0.9837844
0.5943635 0.9234670 0.9615869
0.6344226 0.8826249 0.9306780
0.7245278 0.9284205 0.9679072
0.7972142 0.9523200 0.9693224
0.8576990 0.9441925 0.9516662
0.9072275 0.9206368 0.9255493
