looks/sony_st.cube
TITLE "Sony Creative Look ST (32 pairs)"
LUT_3D_SIZE 33
0.0328471 0.0419899 0.0356661
0.0574052 0.0471252 0.0399778
0.0926236 0.0477855 0.0449459
0.1264223 0.0457987 0.0509408
0.1563834 0.0434519 0.0524192
0.1893504 0.0417686 0.0505714
0.2298670 0.0387416 0.0513616
0.2592870 0.0356319 0.0520719
0.2791483 0.0323446 0.0507495
0.3083908 0.0302068 0.0498672
0.3434160 0.0301058 0.0509876
0.3791578 0.0307852 0.0526076
0.4159517 0.0320549 0.0538922
0.4509442 0.0337321 0.0557911
0.4850822 0.0361509 0.0598163
0.5128719 0.0374607 0.0608755
0.5315139 0.0374770 0.0596538
0.5509077 0.0409376 0.0605558
0.5816059 0.0483734 0.0629876
0.6086656 0.0515790 0.0625060
0.6223192 0.0468951 0.0555728
0.6397505 0.0366603 0.0423767
0.6694932 0.0259684 0.0282622
0.7063830 0.0181727 0.0179899
0.7436143 0.0130580 0.0122384
0.7785951 0.0103834 0.0097313
0.8115553 0.0091386 0.0088911
0.8434243 0.0086452 0.0086331
0.8748724 0.0084522 0.0084809
0.9061972 0.0083533 0.0083693
0.9374737 0.0083135 0.0083207
0.9682456 0.0083065 0.0083138
0.9917000 0.0083077 0.0083162
0.0326847 0.0616986 0.0373075
0.0595754 0.0648274 0.0406403
0.0937482 0.0693895 0.0455663
0.1253402 0.0694502 0.0494851
0.1608564 0.0667466 0.0471734
0.2008129 0.0639894 0.0446886
0.2386586 0.0585425 0.0460809
0.2660244 0.0550669 0.0478518
0.2878284 0.0543650 0.0472269
0.3191225 0.0527941 0.0466450
0.3504621 0.0514864 0.0490231
0.3810746 0.0511587 0.0516611
0.4151047 0.0520045 0.0532968
0.4502700 0.0524106 0.0559864
0.4852725 0.0533740 0.0597097
0.5158786 0.0544329 0.0619142
0.5400066 0.0552354 0.0632669
0.5614092 0.0568189 0.0650450
0.5860101 0.0594230 0.0663112
0.6096149 0.0594411 0.0652497
0.6230285 0.0576876 0.0584030
0.6413833 0.0556460 0.0457685
0.6700589 0.0506003 0.0317146
0.7054715 0.0450026 0.0208243
0.7420834 0.0389883 0.0140059
0.7774287 0.0351732 0.0107280
0.8109209 0.0333973 0.0096543
0.8430955 0.0325376 0.0091459
0.8747095 0.0320997 0.0087484
0.9061249 0.0318863 0.0084884
0.9374398 0.0318107 0.0083843
0.9682211 0.0317956 0.0083691
0.9916729 0.0317971 0.0083745
0.0307201 0.0941086 0.0354240
0.0589580 0.0902246 0.0358269
0.0932583 0.0931675 0.0410279
0.1246187 0.0952300 0.0447185
0.1597231 0.0948598 0.0442444
0.2024843 0.0947818 0.0425770
0.2439730 0.0925681 0.0410027
0.2781724 0.0907257 0.0396185
0.3100074 0.0925253 0.0380148
0.3447531 0.0928578 0.0375240
0.3706032 0.0901500 0.0412234
0.3961842 0.0884526 0.0441243
0.4265475 0.0890355 0.0456117
0.4538970 0.0879596 0.0497449
0.4855086 0.0874879 0.0538674
0.5175244 0.0879404 0.0571172
0.5453615 0.0893034 0.0598684
0.5677422 0.0880044 0.0624776
0.5882565 0.0822983 0.0645203
0.6097170 0.0769388 0.0649565
0.6255704 0.0792473 0.0598296
0.6472798 0.0877148 0.0502228
0.6723980 0.0864098 0.0374673
0.7036815 0.0807582 0.0253501
0.7392922 0.0736372 0.0169376
0.7752637 0.0689052 0.0127807
0.8095188 0.0660133 0.0112202
0.8423067 0.0641403 0.0100539
0.8743471 0.0631997 0.0092421
0.9059671 0.0628152 0.0087719
0.9373475 0.0626824 0.0085687
0.9681532 0.0626377 0.0085188
0.9916031 0.0626334 0.0085238
0.0293344 0.1320218 0.0312926
0.0583675 0.1213020 0.0304266
0.0893684 0.1182609 0.0333640
0.1181080 0.1206776 0.0368457
0.1495860 0.1215995 0.0398197
0.1881624 0.1232576 0.0427248
0.2286860 0.1245224 0.0437465
0.2674598 0.1242895 0.0416096
0.3068195 0.1254544 0.0389146
0.3505720 0.1255970 0.0365449
0.3932588 0.1256640 0.0361941
0.4299065 0.1257228 0.0363100
0.4572597 0.1255020 0.0372494
0.4687316 0.1222427 0.0429099
0.4906074 0.1214197 0.0473416
0.5208538 0.1225768 0.0506043
0.5503828 0.1244086 0.0532628
0.5726618 0.1212179 0.0558509
0.5910363 0.1112569 0.0595692
0.6114419 0.1061663 0.0636550
0.6297365 0.1119174 0.0603998
0.6507660 0.1197396 0.0529869
0.6731070 0.1213485 0.0425807
0.7015909 0.1200123 0.0309735
0.7355923 0.1128358 0.0222086
0.7714716 0.1052395 0.0168062
0.8068289 0.0996816 0.0135734
0.8409033 0.0963554 0.0112977
0.8737530 0.0948463 0.0099372
0.9056786 0.0943433 0.0093157
0.9371420 0.0941410 0.0089907
0.9680058 0.0940152 0.0088217
0.9914692 0.0939836 0.0088017
0.0287041 0.1731340 0.0288281
0.0596021 0.1592534 0.0289339
0.0915533 0.1497539 0.0275552
0.1172274 0.1504619 0.0290271
0.1425341 0.1516802 0.0321969
0.1725686 0.1503437 0.0368464
0.2085510 0.1495843 0.0419952
0.2482411 0.1518477 0.0443542
0.2896286 0.1545441 0.0432494
0.3359722 0.1546508 0.0410902
0.3927029 0.1559587 0.0377362
0.4334405 0.1550010 0.0374238
0.4557028 0.1537167 0.0391469
0.4693534 0.1508448 0.0429876
0.4943441 0.1508051 0.0463394
0.5272204 0.1530710 0.0480256
0.5606148 0.1543133 0.0488661
0.5856300 0.1533686 0.0495821
0.5989373 0.1464697 0.0538432
0.6162161 0.1401779 0.0597886
0.6358361 0.1491619 0.0578058
0.6542341 0.1572609 0.0535231
0.6741892 0.1606716 0.0485131
0.6993150 0.1583163 0.0404608
0.7305968 0.1503141 0.0314045
0.7659222 0.1403154 0.0224967
0.8029557 0.1324851 0.0158747
0.8390172 0.1282223 0.0123329
0.8729565 0.1264546 0.0106879
0.9051880 0.1259752 0.0102059
0.9367525 0.1257031 0.0097468
0.9677353 0.1254430 0.0093073
0.9912659 0.1253405 0.0091941
0.0291361 0.2075014 0.0285439
0.0604041 0.1919397 0.0281509
0.0940682 0.1825112 0.0246299
0.1208741 0.1820334 0.0232736
0.1430957 0.1838178 0.0260284
0.1674156 0.1808812 0.0300523
0.1981174 0.1768620 0.0342589
0.2355011 0.1777597 0.0382886
0.2857476 0.1852847 0.0391453
0.3302471 0.1877176 0.0400284
0.3677978 0.1865227 0.0395519
0.4013816 0.1844604 0.0395247
0.4229979 0.1806479 0.0421012
0.4464961 0.1777820 0.0449330
0.4843933 0.1777265 0.0478051
0.5246906 0.1806294 0.0485079
0.5652204 0.1828074 0.0474439
0.5978603 0.1819756 0.0466002
0.6052744 0.1748234 0.0519780
0.6191360 0.1699665 0.0596628
0.6368198 0.1760215 0.0611158
0.6567418 0.1842755 0.0601602
0.6774290 0.1886627 0.0581920
0.6992646 0.1878198 0.0527726
0.7259318 0.1804282 0.0412401
0.7603669 0.1707091 0.0279950
0.7992069 0.1633998 0.0183445
0.8371603 0.1594795 0.0133121
0.8720886 0.1579866 0.0117383
0.9045453 0.1576116 0.0115122
0.9362108 0.1572557 0.0107776
0.9673625 0.1568561 0.0099162
0.9910403 0.1566425 0.0095962
0.0311701 0.2400641 0.0304979
0.0593996 0.2332896 0.0265628
0.0899768 0.2249734 0.0228883
0.1234924 0.2132890 0.0192566
0.1494139 0.2154308 0.0204438
0.1720480 0.2153442 0.0248393
0.1983346 0.2098407 0.0294641
0.2330381 0.2099514 0.0337638
0.2865800 0.2173248 0.0349551
0.3303591 0.2210809 0.0371240
0.3636569 0.2228285 0.0377111
0.4020784 0.2235475 0.0347565
0.4159148 0.2129755 0.0378318
0.4337402 0.2081283 0.0427148
0.4689028 0.2072417 0.0469245
0.5079429 0.2092372 0.0484161
0.5456146 0.2107171 0.0491253
0.5788505 0.2088057 0.0509939
0.5976527 0.2031173 0.0548140
0.6156921 0.1962568 0.0604287
0.6341800 0.1968733 0.0658975
0.6570207 0.2047483 0.0678018
0.6828559 0.2118057 0.0681803
0.7014276 0.2118059 0.0619894
0.7239332 0.2057237 0.0477428
0.7575936 0.1984823 0.0323330
0.7970759 0.1933216 0.0210052
0.8358772 0.1903325 0.0147408
0.8713248 0.1892771 0.0130439
0.9039389 0.1890063 0.0128107
0.9357099 0.1886113 0.0117360
0.9670361 0.1881454 0.0104459
0.9908960 0.1878438 0.0098363
0.0334868 0.2871095 0.0350352
0.0582753 0.2767009 0.0246135
0.0849362 0.2635744 0.0200555
0.1193075 0.2410497 0.0177523
0.1537632 0.2407415 0.0167340
0.1803371 0.2480817 0.0198907
0.2017246 0.2433285 0.0248994
0.2304991 0.2403372 0.0309127
0.2760318 0.2416239 0.0326638
0.3282381 0.2491512 0.0321431
0.3732606 0.2578950 0.0318901
0.4109112 0.2620005 0.0299950
0.4185449 0.2481198 0.0360761
0.4342395 0.2394279 0.0427956
0.4636622 0.2382768 0.0457292
0.4980914 0.2394687 0.0462952
0.5324784 0.2403382 0.0489807
0.5638616 0.2378617 0.0534094
0.5877179 0.2358779 0.0561467
0.6069505 0.2294027 0.0587404
0.6317430 0.2221898 0.0656482
0.6613134 0.2300447 0.0699669
0.6884702 0.2387749 0.0722855
0.7048897 0.2386431 0.0656911
0.7256830 0.2334776 0.0508219
0.7582855 0.2277269 0.0354663
0.7969952 0.2234527 0.0230197
0.8355014 0.2210214 0.0160682
0.8709811 0.2201952 0.0138786
0.9036726 0.2199901 0.0133774
0.9355035 0.2196685 0.0121315
0.9669214 0.2192659 0.0106208
0.9908975 0.2189722 0.0097853
0.0302950 0.3271544 0.0339782
0.0538953 0.3044170 0.0264095
0.0789585 0.2863719 0.0244671
0.1044881 0.2706167 0.0228337
0.1442608 0.2656918 0.0173393
0.1826551 0.2688555 0.0166159
0.2058356 0.2668950 0.0185593
0.2319671 0.2675246 0.0244149
0.2649401 0.2626929 0.0308474
0.3047688 0.2618086 0.0359480
0.3480828 0.2672297 0.0366613
0.3867317 0.2750792 0.0352069
0.4127886 0.2730113 0.0385262
0.4384791 0.2694512 0.0440622
0.4677483 0.2677764 0.0476584
0.4992434 0.2679759 0.0456679
0.5306175 0.2702075 0.0474015
0.5603940 0.2691814 0.0521188
0.5842423 0.2677206 0.0554052
0.6043929 0.2619983 0.0576724
0.6283268 0.2513285 0.0641034
0.6553503 0.2527030 0.0677112
0.6861225 0.2585746 0.0702290
0.7068555 0.2606485 0.0648494
0.7284952 0.2586368 0.0507638
0.7601845 0.2556663 0.0359532
0.7978387 0.2530828 0.0234039
0.8356813 0.2515453 0.0162848
0.8710507 0.2509358 0.0135592
0.9038570 0.2507412 0.0128493
0.9357040 0.2505376 0.0117265
0.9670700 0.2502951 0.0103316
0.9910151 0.2501096 0.0094807
0.0321210 0.3465612 0.0384980
0.0509172 0.3317950 0.0373674
0.0799447 0.3129871 0.0362073
0.0965567 0.2992994 0.0278665
0.1269753 0.2958530 0.0196011
0.1792235 0.2891584 0.0163232
0.2140659 0.2892243 0.0153656
0.2399314 0.2963574 0.0196246
0.2631835 0.2934629 0.0275530
0.2929357 0.2890471 0.0363113
0.3281428 0.2850198 0.0377882
0.3657452 0.2868242 0.0380085
0.4095880 0.2973691 0.0394257
0.4430776 0.2998858 0.0426885
0.4719783 0.2954983 0.0472322
0.5034354 0.2961165 0.0453379
0.5321290 0.2995317 0.0455160
0.5599445 0.2991587 0.0493647
0.5857219 0.2964939 0.0542344
0.6097469 0.2900556 0.0576743
0.6297814 0.2807392 0.0613431
0.6516718 0.2793652 0.0642586
0.6835873 0.2838780 0.0709727
0.7078453 0.2886476 0.0683539
0.7298710 0.2891671 0.0534375
0.7601077 0.2882934 0.0363914
0.7969710 0.2857314 0.0231864
0.8349007 0.2833532 0.0156820
0.8708093 0.2821272 0.0122947
0.9041609 0.2816380 0.0114730
0.9361554 0.2814503 0.0107312
0.9673988 0.2813508 0.0097365
0.9912065 0.2812865 0.0090860
0.0311113 0.3686122 0.0408767
0.0532254 0.3603392 0.0446739
0.0860421 0.3509756 0.0415682
0.1007046 0.3306125 0.0279138
0.1224332 0.3201643 0.0210076
0.1762171 0.3137642 0.0180983
0.2265412 0.3210073 0.0147521
0.2529709 0.3287475 0.0160265
0.2711924 0.3279924 0.0218795
0.2943553 0.3286871 0.0289232
0.3195849 0.3226973 0.0319690
0.3558796 0.3120311 0.0350929
0.4078557 0.3205140 0.0379889
0.4429631 0.3263023 0.0415033
0.4717533 0.3281807 0.0460983
0.5048470 0.3301301 0.0452445
0.5342777 0.3312326 0.0434518
0.5601190 0.3307013 0.0458511
0.5868779 0.3256857 0.0525868
0.6109490 0.3163007 0.0589208
0.6285717 0.3049445 0.0619921
0.6504966 0.3036529 0.0651979
0.6823457 0.3076861 0.0737073
0.7050484 0.3125341 0.0708988
0.7258971 0.3174364 0.0551584
0.7548152 0.3213125 0.0362706
0.7919217 0.3192218 0.0228492
0.8317071 0.3156917 0.0151050
0.8694963 0.3136908 0.0112684
0.9040779 0.3128521 0.0100956
0.9365335 0.3125753 0.0096252
0.9677431 0.3125181 0.0090953
0.9914176 0.3125032 0.0087317
0.0265593 0.4143992 0.0427923
0.0534562 0.3927806 0.0471900
0.0862962 0.3746735 0.0404849
0.1023691 0.3490018 0.0259668
0.1212099 0.3373695 0.0212131
0.1697888 0.3375688 0.0203614
0.2309837 0.3443666 0.0159441
0.2625621 0.3503333 0.0150096
0.2800155 0.3526848 0.0185984
0.2973961 0.3543859 0.0236424
0.3177550 0.3545739 0.0282851
0.3483136 0.3470394 0.0324923
0.3971788 0.3440794 0.0362972
0.4356634 0.3463867 0.0382006
0.4671136 0.3540374 0.0415239
0.5060105 0.3580416 0.0424744
0.5376015 0.3590571 0.0404967
0.5618693 0.3612040 0.0422856
0.5868277 0.3590902 0.0488699
0.6108631 0.3501476 0.0555227
0.6294876 0.3332459 0.0598889
0.6506952 0.3302394 0.0637539
0.6733341 0.3333687 0.0664455
0.6954491 0.3385439 0.0638992
0.7175800 0.3458008 0.0536211
0.7464242 0.3489496 0.0386236
0.7851288 0.3476181 0.0252250
0.8277354 0.3457701 0.0160864
0.8678266 0.3447829 0.0112346
0.9037591 0.3444764 0.0093453
0.9366844 0.3441443 0.0088248
0.9679369 0.3439042 0.0085953
0.9915535 0.3437981 0.0084693
0.0275682 0.4492441 0.0472102
0.0474657 0.4301746 0.0460202
0.0801981 0.4006971 0.0392653
0.1042481 0.3717047 0.0293687
0.1323201 0.3605587 0.0248105
0.1876102 0.3620112 0.0246163
0.2377458 0.3637136 0.0178771
0.2694568 0.3717032 0.0154721
0.2939602 0.3831920 0.0180421
0.3082988 0.3824480 0.0223128
0.3213525 0.3791117 0.0302681
0.3441112 0.3760665 0.0369951
0.3804867 0.3727131 0.0387088
0.4284102 0.3748043 0.0363183
0.4634445 0.3802997 0.0380192
0.4989447 0.3817116 0.0415306
0.5321765 0.3828568 0.0401913
0.5617095 0.3872615 0.0396230
0.5863659 0.3891198 0.0447068
0.6094484 0.3820075 0.0516783
0.6321799 0.3688881 0.0562476
0.6531296 0.3646694 0.0600071
0.6722502 0.3671107 0.0604657
0.6942240 0.3663555 0.0609785
0.7138408 0.3682265 0.0548097
0.7415183 0.3710936 0.0415059
0.7819856 0.3741646 0.0270634
0.8271494 0.3774844 0.0162383
0.8678633 0.3785027 0.0108332
0.9036562 0.3780627 0.0088445
0.9364944 0.3767305 0.0084025
0.9678184 0.3756694 0.0083448
0.9915212 0.3752277 0.0083270
0.0260816 0.4779252 0.0470201
0.0417146 0.4645841 0.0449016
0.0759148 0.4364501 0.0447753
0.1103848 0.4089836 0.0429085
0.1412472 0.3941006 0.0332201
0.1916034 0.3899553 0.0262099
0.2355867 0.3904355 0.0178255
0.2735956 0.4002220 0.0156401
0.3055504 0.4129440 0.0167601
0.3266131 0.4190783 0.0192252
0.3366175 0.4141650 0.0268412
0.3505050 0.4052998 0.0341315
0.3788069 0.4007008 0.0364703
0.4311677 0.4115415 0.0352094
0.4625872 0.4169836 0.0394194
0.4853160 0.4146615 0.0482649
0.5182680 0.4145840 0.0471615
0.5585875 0.4157676 0.0396471
0.5859298 0.4197654 0.0402963
0.6070331 0.4138899 0.0462984
0.6336060 0.3990878 0.0533768
0.6564481 0.3941965 0.0566281
0.6771036 0.4013809 0.0570245
0.6955774 0.3968753 0.0587852
0.7124481 0.3941253 0.0540546
0.7414294 0.3997256 0.0408792
0.7863485 0.4115925 0.0249391
0.8324153 0.4206650 0.0134624
0.8696540 0.4201884 0.0091664
0.9027713 0.4151548 0.0082985
0.9353433 0.4105392 0.0082485
0.9671959 0.4078658 0.0082818
0.9912542 0.4068055 0.0082895
0.0229901 0.4904499 0.0418561
0.0392458 0.4807572 0.0406261
0.0735720 0.4596174 0.0431334
0.1114347 0.4392898 0.0451683
0.1417540 0.4285340 0.0362762
0.1831469 0.4238437 0.0255862
0.2264144 0.4243861 0.0165597
0.2690260 0.4293553 0.0140555
0.3085738 0.4384559 0.0144927
0.3380776 0.4501383 0.0165170
0.3565991 0.4590011 0.0209808
0.3680229 0.4533827 0.0256125
0.3887140 0.4397833 0.0297387
0.4320295 0.4424087 0.0313385
0.4617594 0.4406596 0.0375764
0.4816732 0.4364533 0.0494868
0.5138909 0.4414900 0.0507965
0.5611516 0.4501109 0.0396809
0.5905150 0.4551585 0.0361049
0.6105473 0.4482554 0.0395075
0.6355563 0.4309045 0.0474500
0.6592393 0.4263982 0.0513092
0.6794204 0.4303994 0.0539729
0.6939754 0.4279759 0.0537062
0.7108973 0.4263968 0.0498096
0.7448985 0.4389837 0.0377357
0.7978365 0.4648203 0.0194950
0.8386658 0.4739265 0.0097935
0.8686965 0.4660020 0.0078639
0.8996539 0.4542369 0.0079324
0.9329285 0.4453049 0.0081722
0.9659715 0.4404431 0.0082711
0.9907175 0.4385245 0.0082893
0.0199008 0.4984657 0.0343155
0.0383118 0.4918559 0.0335946
0.0707676 0.4786342 0.0347065
0.1071000 0.4662937 0.0362692
0.1377974 0.4618664 0.0316338
0.1735495 0.4597602 0.0243042
0.2144804 0.4592453 0.0158662
0.2585346 0.4598645 0.0125040
0.3012966 0.4645808 0.0133773
0.3376452 0.4751026 0.0161556
0.3631251 0.4853030 0.0198093
0.3822924 0.4894796 0.0234641
0.4024774 0.4863082 0.0249637
0.4296930 0.4808576 0.0265015
0.4608425 0.4665559 0.0341139
0.4867343 0.4568924 0.0447462
0.5198542 0.4617762 0.0459236
0.5681972 0.4769260 0.0357237
0.5982323 0.4853627 0.0314520
0.6171431 0.4837311 0.0334214
0.6373577 0.4736690 0.0397009
0.6599824 0.4672267 0.0446227
0.6810811 0.4591439 0.0514399
0.6970471 0.4585600 0.0503372
0.7170199 0.4662609 0.0456039
0.7526270 0.4858438 0.0351954
0.8081129 0.5178506 0.0157732
0.8414803 0.5236605 0.0075678
0.8650020 0.5092694 0.0071373
0.8949159 0.4923339 0.0076430
0.9295580 0.4798729 0.0080898
0.9642197 0.4731629 0.0082573
0.9898713 0.4704219 0.0082886
0.0194594 0.5227348 0.0315725
0.0390390 0.5169241 0.0304229
0.0678862 0.5085267 0.0282145
0.1014429 0.4997593 0.0269842
0.1337393 0.4962171 0.0251490
0.1666152 0.4953398 0.0212851
0.2038863 0.4940395 0.0159606
0.2457761 0.4923678 0.0130487
0.2885454 0.4937313 0.0133966
0.3270150 0.4981697 0.0159032
0.3592669 0.5048963 0.0207369
0.3860851 0.5116307 0.0247014
0.4054467 0.5121964 0.0230475
0.4252666 0.5071614 0.0240313
0.4557739 0.4943704 0.0315881
0.4899741 0.4833064 0.0361005
0.5309367 0.4847869 0.0349834
0.5743551 0.4947912 0.0296702
0.6008133 0.5036283 0.0266409
0.6194379 0.5107815 0.0263768
0.6368715 0.5073065 0.0325353
0.6552800 0.4955323 0.0417004
0.6803290 0.4848568 0.0492638
0.7056184 0.4948137 0.0438844
0.7302909 0.5138628 0.0352155
0.7627658 0.5317193 0.0261302
0.8147020 0.5569803 0.0118340
0.8420841 0.5592729 0.0063919
0.8613113 0.5439398 0.0065992
0.8904783 0.5271056 0.0073306
0.9258969 0.5138651 0.0079432
0.9618702 0.5061213 0.0081938
0.9884965 0.5026203 0.0082675
0.0231881 0.5650690 0.0376066
0.0407704 0.5596737 0.0343654
0.0658105 0.5506297 0.0281081
0.0964481 0.5399289 0.0229985
0.1305290 0.5316854 0.0214890
0.1630264 0.5287510 0.0191904
0.1968612 0.5274505 0.0154423
0.2346906 0.5255092 0.0136837
0.2744097 0.5247218 0.0130007
0.3133550 0.5258610 0.0150931
0.3494821 0.5294533 0.0198841
0.3778691 0.5318677 0.0225220
0.3984780 0.5307836 0.0203511
0.4188436 0.5292080 0.0204960
0.4486367 0.5244213 0.0248565
0.4909738 0.5159863 0.0257193
0.5378540 0.5123945 0.0241928
0.5762028 0.5127108 0.0232152
0.6010935 0.5176495 0.0219109
0.6210044 0.5283623 0.0207431
0.6387810 0.5323486 0.0260542
0.6566571 0.5237302 0.0359315
0.6852473 0.5168506 0.0410475
0.7211379 0.5328779 0.0329274
0.7428569 0.5461803 0.0274473
0.7734514 0.5592340 0.0207130
0.8200580 0.5779002 0.0097963
0.8436465 0.5816717 0.0056176
0.8601472 0.5718452 0.0058669
0.8872016 0.5599504 0.0067438
0.9216809 0.5478742 0.0075780
0.9584624 0.5389881 0.0080447
0.9864104 0.5346216 0.0082380
0.0282804 0.6031479 0.0471848
0.0433669 0.5978051 0.0421794
0.0655441 0.5877110 0.0327779
0.0935393 0.5760517 0.0235765
0.1266835 0.5662081 0.0188057
0.1598048 0.5614870 0.0163251
0.1923340 0.5601888 0.0135867
0.2267665 0.5590190 0.0123279
0.2631989 0.5578873 0.0118573
0.3006759 0.5575946 0.0134405
0.3357859 0.5577376 0.0165943
0.3653755 0.5573187 0.0187690
0.3902506 0.5563418 0.0182306
0.4140892 0.5562762 0.0186332
0.4437285 0.5551996 0.0218090
0.4853925 0.5503231 0.0225107
0.5308652 0.5434099 0.0199044
0.5698879 0.5382850 0.0181105
0.6006197 0.5387743 0.0171151
0.6233760 0.5435138 0.0180020
0.6426374 0.5498921 0.0222192
0.6606221 0.5519916 0.0281614
0.6850802 0.5515869 0.0316881
0.7198959 0.5581512 0.0274424
0.7460008 0.5648139 0.0250008
0.7870855 0.5793350 0.0187840
0.8257163 0.5923447 0.0100171
0.8469585 0.6010817 0.0051588
0.8611016 0.5982594 0.0046374
0.8835413 0.5886822 0.0057342
0.9168110 0.5778628 0.0070344
0.9549578 0.5696898 0.0078635
0.9843891 0.5656229 0.0082088
0.0305632 0.6293669 0.0516030
0.0446607 0.6247465 0.0459859
0.0657178 0.6159930 0.0353790
0.0923173 0.6063550 0.0241857
0.1237780 0.5986821 0.0167605
0.1570014 0.5942591 0.0136307
0.1895585 0.5927131 0.0121607
0.2221804 0.5919387 0.0110992
0.2559761 0.5911692 0.0108557
0.2907379 0.5902666 0.0115263
0.3243168 0.5891683 0.0133382
0.3554703 0.5881914 0.0154244
0.3840199 0.5875074 0.0163976
0.4115668 0.5872949 0.0185022
0.4410004 0.5865974 0.0233530
0.4755184 0.5841588 0.0255240
0.5163727 0.5786785 0.0220141
0.5586722 0.5720618 0.0167802
0.5956133 0.5663573 0.0152054
0.6248214 0.5635121 0.0175700
0.6466699 0.5647452 0.0207254
0.6647457 0.5696585 0.0240483
0.6822698 0.5735744 0.0274378
0.7044891 0.5747964 0.0283304
0.7297962 0.5772464 0.0277928
0.7747378 0.5887285 0.0230077
0.8181328 0.6025227 0.0142357
0.8454373 0.6132600 0.0065153
0.8605932 0.6138931 0.0044368
0.8814721 0.6084635 0.0053139
0.9145295 0.6022929 0.0067370
0.9534414 0.5977537 0.0077761
0.9835308 0.5954916 0.0082203
0.0282498 0.6480470 0.0471047
0.0433184 0.6450579 0.0420701
0.0653663 0.6394045 0.0325511
0.0922354 0.6333001 0.0223456
0.1231506 0.6286348 0.0151679
0.1559733 0.6257847 0.0120688
0.1883689 0.6245882 0.0111295
0.2201303 0.6241315 0.0102902
0.2523415 0.6237124 0.0099081
0.2851513 0.6230339 0.0102122
0.3176573 0.6221321 0.0113011
0.3491770 0.6212344 0.0124932
0.3796249 0.6204578 0.0137098
0.4098317 0.6195433 0.0168685
0.4402874 0.6184512 0.0218160
0.4714237 0.6175463 0.0260104
0.5054947 0.6150213 0.0259437
0.5455328 0.6094179 0.0208183
0.5864434 0.5999956 0.0166204
0.6218731 0.5911092 0.0168681
0.6497373 0.5857181 0.0193715
0.6690739 0.5847884 0.0227202
0.6836539 0.5877008 0.0265136
0.6974264 0.5888768 0.0290545
0.7150061 0.5882435 0.0306103
0.7481012 0.5962603 0.0299389
0.7949097 0.6105789 0.0230037
0.8295137 0.6198006 0.0143827
0.8550425 0.6233703 0.0082493
0.8823271 0.6245186 0.0065020
0.9164743 0.6248525 0.0072954
0.9547153 0.6249451 0.0081279
0.9840811 0.6249635 0.0086198
0.0226550 0.6664525 0.0362258
0.0400740 0.6651292 0.0326021
0.0645637 0.6626270 0.0257501
0.0926410 0.6599324 0.0183891
0.1235250 0.6579033 0.0130983
0.1557279 0.6566532 0.0106408
0.1878852 0.6560565 0.0100416
0.2194363 0.6559199 0.0096554
0.2509987 0.6557441 0.0094077
0.2828316 0.6553864 0.0097399
0.3145686 0.6549110 0.0104206
0.3459270 0.6543588 0.0108768
0.3771496 0.6535842 0.0115038
0.4087951 0.6523828 0.0140861
0.4407656 0.6511883 0.0183778
0.4722850 0.6506100 0.0235064
0.5025048 0.6491798 0.0272922
0.5357468 0.6454803 0.0257101
0.5755417 0.6369639 0.0192080
0.6154195 0.6257802 0.0158275
0.6480469 0.6151173 0.0175845
0.6717916 0.6072524 0.0219175
0.6869998 0.6037078 0.0262425
0.6987041 0.6024860 0.0288944
0.7134513 0.6017916 0.0323436
0.7366279 0.6082219 0.0391592
0.7650005 0.6185005 0.0398919
0.7952150 0.6268780 0.0321482
0.8377836 0.6359140 0.0188988
0.8795753 0.6440358 0.0118562
0.9188284 0.6498001 0.0106654
0.9567595 0.6532539 0.0103301
0.9846905 0.6548462 0.0105171
0.0165925 0.6897073 0.0244376
0.0365584 0.6894211 0.0223428
0.0636953 0.6888797 0.0183817
0.0931061 0.6882968 0.0141236
0.1241107 0.6878574 0.0110289
0.1558685 0.6875662 0.0095329
0.1877254 0.6873954 0.0092330
0.2191816 0.6873785 0.0091717
0.2505069 0.6873090 0.0091256
0.2819495 0.6871287 0.0093750
0.3133442 0.6869279 0.0097687
0.3446348 0.6866702 0.0099376
0.3762142 0.6861497 0.0101980
0.4085081 0.6851869 0.0120116
0.4410041 0.6835872 0.0156943
0.4725671 0.6816685 0.0206392
0.5020388 0.6795989 0.0251179
0.5320903 0.6773769 0.0252719
0.5681305 0.6727391 0.0193279
0.6074293 0.6639672 0.0148263
0.6428537 0.6518896 0.0158341
0.6706153 0.6394549 0.0203589
0.6899642 0.6300385 0.0260864
0.7031837 0.6250678 0.0296728
0.7181850 0.6241376 0.0329620
0.7394867 0.6272256 0.0401501
0.7600073 0.6339399 0.0429632
0.7849001 0.6427186 0.0378700
0.8247026 0.6554378 0.0283899
0.8706950 0.6682822 0.0229246
0.9160201 0.6775266 0.0204126
0.9558366 0.6826888 0.0165635
0.9836923 0.6849892 0.0141326
0.0121429 0.7180616 0.0157856
0.0339782 0.7181509 0.0148129
0.0630580 0.7183197 0.0129737
0.0934509 0.7185011 0.0109964
0.1245871 0.7186309 0.0095579
0.1560861 0.7186832 0.0088678
0.1876526 0.7186783 0.0087622
0.2189993 0.7186756 0.0087851
0.2502491 0.7186469 0.0087822
0.2815574 0.7185602 0.0088752
0.3128555 0.7184712 0.0090485
0.3441752 0.7183527 0.0091382
0.3758249 0.7179984 0.0093895
0.4079861 0.7170976 0.0106898
0.4402057 0.7153295 0.0133764
0.4715891 0.7128978 0.0170622
0.5014037 0.7106200 0.0204361
0.5307069 0.7093357 0.0213217
0.5631523 0.7079394 0.0184137
0.6000029 0.7029781 0.0148126
0.6359278 0.6929047 0.0148407
0.6668636 0.6797289 0.0181858
0.6908820 0.6675724 0.0233172
0.7090750 0.6606088 0.0279774
0.7265367 0.6583257 0.0312663
0.7478746 0.6594367 0.0357217
0.7703415 0.6647157 0.0364293
0.7971912 0.6731503 0.0329999
0.8315413 0.6852649 0.0313930
0.8714066 0.6975373 0.0331988
0.9134035 0.7066648 0.0311537
0.9531083 0.7121240 0.0230534
0.9816183 0.7145169 0.0165387
0.0097245 0.7491041 0.0110831
0.0325759 0.7492203 0.0107204
0.0627118 0.7494400 0.0100345
0.0936387 0.7496762 0.0092971
0.1248474 0.7498483 0.0087617
0.1561982 0.7499332 0.0085135
